%
(7 trace polygon chamfers)
(T261 D=0.25 CR=0. TAPER=45deg - ZMIN=0.0419 - chamfer mill)
G90 G54 G64 G50 G17 G40 G80 G94 G91.1 G49
G20 (Inch)
G30
(When using Fusion for Personal Use, the feedrate of rapid)
(moves is reduced to match the feedrate of cutting moves,)
(which can increase machining time. Unrestricted rapid moves)
(are available with a Fusion Subscription.)

N10 (7 trace polygon chamfers)
T261 G43 H261 M6
S5140 M3 M8
G17 G90 G94
G54
G0 X4.6404 Y-0.7581
G0 Z0.8512
G1 Z0.3513 F20.
G1 Z0.0889 F13.333
G1 X4.663 Y-0.7193 Z0.0734 F20.
G1 X4.6854 Y-0.6807 Z0.0566
G1 X4.663 Y-0.7193 Z0.0734
G1 X4.6404 Y-0.7581 Z0.0889
G1 Y-0.7476 Z0.0912
G1 Y-0.7367 Z0.0934
G1 Y-0.7146 Z0.0974
G1 Y-0.6926 Z0.1008
G1 Y-0.6706 Z0.1036
G1 Y-0.6485 Z0.1057
G1 Y-0.6264 Z0.1072
G1 Y-0.6042 Z0.1081
G1 Y-0.5821 Z0.1084
G1 Y-0.5599 Z0.1081
G1 Y-0.5378 Z0.1072
G1 Y-0.5157 Z0.1057
G1 Y-0.4936 Z0.1036
G1 Y-0.4716 Z0.1008
G1 Y-0.4496 Z0.0974
G1 Y-0.4275 Z0.0934
G1 Y-0.4166 Z0.0912
G1 Y-0.406 Z0.0889
G1 X4.663 Y-0.4448 Z0.0734
G1 X4.6854 Y-0.4835 Z0.0566
G1 X4.6857 Y-0.4837 Z0.0563
G1 Y-0.5082 Z0.0591
G1 Y-0.5328 Z0.0611
G1 Y-0.5574 Z0.0623
G1 Y-0.5821 Z0.0627
G1 Y-0.6067 Z0.0623
G1 Y-0.6314 Z0.0611
G1 Y-0.656 Z0.0591
G1 Y-0.6805 Z0.0563
G1 X4.6854 Y-0.6807 Z0.0566
G1 Z0.3513
G1 Y-0.4835
G1 Z0.0566 F13.333
G1 X4.663 Y-0.4448 Z0.0734 F20.
G1 X4.6404 Y-0.406 Z0.0889
G1 X4.6785 Y-0.4279 Z0.0931
G1 X4.7167 Y-0.4497 Z0.0967
G1 X4.755 Y-0.4717 Z0.0997
G1 X4.7933 Y-0.4937 Z0.1021
G1 X4.8317 Y-0.5158 Z0.1039
G1 X4.87 Y-0.5378 Z0.1051
G1 X4.9083 Y-0.5599 Z0.1056
G1 X4.9467 Y-0.5821
G1 X4.9015 Z0.0832
G1 X4.8561 Z0.0611
G1 X4.8135 Y-0.5575 Z0.0612
G1 X4.7709 Y-0.5329 Z0.0604
G1 X4.7282 Y-0.5082 Z0.0589
G1 X4.6857 Y-0.4837 Z0.0566
G1 Z0.3513
G1 X4.6874 Y-0.4835
G1 Z0.0566 F13.333
G1 X4.7057 Y-0.5153 Z0.0422 F20.
G1 Z0.3513
G1 X4.6874 Y-0.6807
G1 Z0.0566 F13.333
G1 X4.7057 Y-0.6489 Z0.0422 F20.
G1 Z0.3513
G1 X4.6857 Y-0.6805
G1 Z0.0566 F13.333
G1 X4.7282 Y-0.6559 Z0.0589 F20.
G1 X4.7709 Y-0.6313 Z0.0604
G1 X4.8135 Y-0.6067 Z0.0612
G1 X4.8561 Y-0.5821 Z0.0611
G1 X4.9015 Z0.0832
G1 X4.9467 Z0.1056
G1 X4.9083 Y-0.6042
G1 X4.87 Y-0.6263 Z0.1051
G1 X4.8317 Y-0.6484 Z0.1039
G1 X4.7933 Y-0.6705 Z0.1021
G1 X4.755 Y-0.6925 Z0.0997
G1 X4.7167 Y-0.7144 Z0.0967
G1 X4.6785 Y-0.7363 Z0.0931
G1 X4.6404 Y-0.7581 Z0.0889
G1 Z0.3513
G1 X4.8582 Y-0.5821
G1 Z0.0611 F13.333
G1 X4.8227 Z0.0441 F20.
G1 Z0.3513
G1 X4.2455
G1 Z0.1123 F13.333
G1 X4.2239 Y-0.6037 Z0.1122 F20.
G1 X4.2023 Y-0.6253 Z0.1116
G1 X4.1807 Y-0.6468 Z0.1103
G1 X4.1591 Y-0.6684 Z0.1086
G1 X4.1375 Y-0.6898 Z0.1062
G1 X4.116 Y-0.7112 Z0.1033
G1 X4.0945 Y-0.7325 Z0.0998
G1 X4.0731 Y-0.7538 Z0.0957
G1 Y-0.7219 Z0.0788
G1 Y-0.6904 Z0.0613
G1 X4.1002 Y-0.6634 Z0.0643
G1 X4.1272 Y-0.6363 Z0.0663
G1 X4.1544 Y-0.6092 Z0.0674
G1 X4.1815 Y-0.5821 Z0.0676
G1 X4.2455 Z0.1123
G1 Z0.3513
G1 X4.0731 Y-0.7538
G1 Z0.0957 F13.333
G1 X4.0518 Y-0.7326 Z0.1002 F20.
G1 X4.0303 Y-0.7112 Z0.1041
G1 X4.0089 Y-0.6899 Z0.1075
G1 X3.9873 Y-0.6684 Z0.1103
G1 X3.9657 Y-0.6469 Z0.1125
G1 X3.9441 Y-0.6253 Z0.1141
G1 X3.9225 Y-0.6037 Z0.1152
G1 X3.9009 Y-0.5821 Z0.1157
G1 X3.9649 Z0.0698
G1 X3.992 Y-0.6092 Z0.0691
G1 X4.0191 Y-0.6363 Z0.0674
G1 X4.0462 Y-0.6634 Z0.0648
G1 X4.0732 Y-0.6904 Z0.0613
G1 X4.0731
G1 Y-0.7219 Z0.0788
G1 Y-0.7538 Z0.0957
G1 Z0.3513
G1 X3.9009 Y-0.5821
G1 Z0.1157 F13.333
G1 X3.9225 Y-0.5605 Z0.1152 F20.
G1 X3.9441 Y-0.5389 Z0.1141
G1 X3.9657 Y-0.5173 Z0.1125
G1 X3.9873 Y-0.4958 Z0.1103
G1 X4.0089 Y-0.4743 Z0.1075
G1 X4.0303 Y-0.4529 Z0.1041
G1 X4.0518 Y-0.4316 Z0.1002
G1 X4.0731 Y-0.4104 Z0.0957
G1 Y-0.4422 Z0.0788
G1 Y-0.4738 Z0.0613
G1 X4.0732
G1 X4.0462 Y-0.5008 Z0.0648
G1 X4.0191 Y-0.5279 Z0.0674
G1 X3.992 Y-0.555 Z0.0691
G1 X3.9649 Y-0.5821 Z0.0698
G1 X3.9009 Z0.1157
G1 Z0.3513
G1 X3.967
G1 Z0.0698 F13.333
G1 X3.9991 Z0.047 F20.
G1 Z0.3513
G1 X4.1002 Y-0.5008
G1 Z0.0643 F13.333
G1 X4.0731 Y-0.4738 Z0.0613 F20.
G1 Y-0.4422 Z0.0788
G1 Y-0.4104 Z0.0957
G1 X4.0945 Y-0.4316 Z0.0998
G1 X4.116 Y-0.453 Z0.1033
G1 X4.1375 Y-0.4744 Z0.1062
G1 X4.1591 Y-0.4958 Z0.1086
G1 X4.1807 Y-0.5173 Z0.1103
G1 X4.2023 Y-0.5389 Z0.1116
G1 X4.2239 Y-0.5605 Z0.1122
G1 X4.2455 Y-0.5821 Z0.1123
G1 X4.1815 Z0.0676
G1 X4.1544 Y-0.555 Z0.0674
G1 X4.1272 Y-0.5279 Z0.0663
G1 X4.1002 Y-0.5008 Z0.0643
G1 Z0.3513
G1 X4.1835 Y-0.5821
G1 Z0.0676 F13.333
G1 X4.1511 Z0.0453 F20.
G1 Z0.3513
G1 X4.0752 Y-0.6904
G1 Z0.0613 F13.333
G1 Y-0.6562 Z0.0419 F20.
G1 Z0.3513
G1 Y-0.4738
G1 Z0.0613 F13.333
G1 Y-0.508 Z0.0419 F20.
G1 Z0.3513
G1 X3.5841 Y-0.5821
G1 Z0.119 F13.333
G1 X3.5281 Z0.0743 F20.
G1 X3.5066 Y-0.5525 Z0.0739
G1 X3.4851 Y-0.5229 Z0.0725
G1 X3.4637 Y-0.4934 Z0.07
G1 X3.4423 Y-0.464 Z0.0663
G1 Z0.3513
G1 Z0.0665 F13.333
G1 X3.3729 Y-0.4865 Z0.0702 F20.
G1 X3.3034 Y-0.5091 Z0.0733
G1 Z0.0732 F13.333
G1 Y-0.5273 Z0.0747 F20.
G1 Y-0.5456 Z0.0757
G1 Y-0.5638 Z0.0764
G1 Y-0.5821 Z0.0766
G1 Y-0.6004 Z0.0764
G1 Y-0.6186 Z0.0757
G1 Y-0.6369 Z0.0747
G1 Y-0.6551 Z0.0732
G1 Z0.3513
G1 X3.3033 Y-0.655
G1 Z0.0733 F13.333
G1 X3.2582 Y-0.6878 Z0.1155 F20.
G1 Y-0.6614 Z0.1185
G1 Y-0.635 Z0.1206
G1 Y-0.6086 Z0.1219
G1 Y-0.5821 Z0.1223
G1 Y-0.5556 Z0.1219
G1 Y-0.5292 Z0.1206
G1 Y-0.5027 Z0.1185
G1 Y-0.4764 Z0.1155
G1 X3.3033 Y-0.5091 Z0.0733
G1 X3.2582 Y-0.4764 Z0.1155
G1 X3.3589 Y-0.4439 Z0.1096
G1 X3.4596 Y-0.4114 Z0.1023
G1 X3.4425 Y-0.4639 Z0.0665
G1 X3.4596 Y-0.4114 Z0.1023
G1 X3.4751 Y-0.4325 Z0.1063
G1 X3.4906 Y-0.4537 Z0.1098
G1 X3.5061 Y-0.475 Z0.1127
G1 X3.5216 Y-0.4963 Z0.1151
G1 X3.5372 Y-0.5177 Z0.1169
G1 X3.5528 Y-0.5391 Z0.1182
G1 X3.5684 Y-0.5606 Z0.1188
G1 X3.5841 Y-0.5821 Z0.119
G1 Z0.3513
G1 X3.5302
G1 Z0.0742 F13.333
G1 X3.4993 Z0.0498 F20.
G1 Z0.3513
G1 X3.4446 Y-0.7003
G1 Z0.0665 F13.333
G1 X3.4346 Y-0.669 Z0.0448 F20.
G1 Z0.3513
G1 X3.4423 Y-0.7002
G1 Z0.0663 F13.333
G1 X3.4637 Y-0.6708 Z0.07 F20.
G1 X3.4851 Y-0.6413 Z0.0725
G1 X3.5066 Y-0.6117 Z0.0739
G1 X3.5281 Y-0.5821 Z0.0743
G1 X3.5841 Z0.119
G1 X3.5684 Y-0.6036 Z0.1188
G1 X3.5528 Y-0.625 Z0.1182
G1 X3.5372 Y-0.6465 Z0.1169
G1 X3.5216 Y-0.6679 Z0.1151
G1 X3.5061 Y-0.6892 Z0.1127
G1 X3.4906 Y-0.7105 Z0.1098
G1 X3.4751 Y-0.7316 Z0.1063
G1 X3.4596 Y-0.7527 Z0.1023
G1 X3.4425 Y-0.7003 Z0.0665
G1 X3.4596 Y-0.7527 Z0.1023
G1 X3.3589 Y-0.7203 Z0.1096
G1 X3.2582 Y-0.6878 Z0.1155
G1 X3.3033 Y-0.655 Z0.0733
G1 X3.3729 Y-0.6776 Z0.0702
G1 X3.4423 Y-0.7002 Z0.0665
G1 Z0.3513
G1 X3.3053 Y-0.655
G1 Z0.0733 F13.333
G1 X3.3305 Y-0.6362 Z0.0496 F20.
G1 Z0.3513
G1 X3.3053 Y-0.5091
G1 Z0.0733 F13.333
G1 X3.3305 Y-0.5279 Z0.0496 F20.
G1 Z0.3513
G1 X3.4446 Y-0.4639
G1 Z0.0665 F13.333
G1 X3.4346 Y-0.4952 Z0.0448 F20.
G1 Z0.3513
G1 X2.9346 Y-0.5821
G1 Z0.1257 F13.333
G1 X2.9221 Y-0.6038 Z0.1256 F20.
G1 X2.9095 Y-0.6255 Z0.1248
G1 X2.897 Y-0.6472 Z0.1235
G1 X2.8845 Y-0.6688 Z0.1217
G1 X2.872 Y-0.6904 Z0.1192
G1 X2.8596 Y-0.7118 Z0.1162
G1 X2.8471 Y-0.7332 Z0.1126
G1 X2.8348 Y-0.7545 Z0.1084
G1 X2.8089 Y-0.71 Z0.0717
G1 X2.8085 Z0.0713
G1 X2.8269 Y-0.6782 Z0.0757
G1 X2.8453 Y-0.6462 Z0.0788
G1 X2.8638 Y-0.6142 Z0.0805
G1 X2.8824 Y-0.5821 Z0.081
G1 X2.9346 Z0.1257
G1 Z0.3513
G1 X2.8348 Y-0.7545
G1 Z0.1084 F13.333
G1 X2.6344 Y-0.7546 Z0.1105 F20.
G1 X2.6602 Y-0.71 Z0.0733
G1 X2.8089 Z0.0717
G1 X2.8348 Y-0.7545 Z0.1084
G1 Z0.3513
G1 X2.6344 Y-0.7546
G1 Z0.1105 F13.333
G1 X2.622 Y-0.7333 Z0.115 F20.
G1 X2.6096 Y-0.7119 Z0.1188
G1 X2.5972 Y-0.6904 Z0.1221
G1 X2.5847 Y-0.6688 Z0.1248
G1 X2.5722 Y-0.6472 Z0.1269
G1 X2.5597 Y-0.6255 Z0.1285
G1 X2.5471 Y-0.6038 Z0.1295
G1 X2.5346 Y-0.5821 Z0.1299
G1 X2.5869 Z0.0841
G1 X2.6054 Y-0.6142 Z0.0832
G1 X2.6239 Y-0.6462 Z0.0811
G1 X2.6424 Y-0.6782 Z0.0776
G1 X2.6607 Y-0.71 Z0.0728
G1 X2.6602 Z0.0733
G1 X2.6344 Y-0.7546 Z0.1105
G1 Z0.3513
G1 X2.5346 Y-0.5821
G1 Z0.1299 F13.333
G1 X2.5471 Y-0.5603 Z0.1295 F20.
G1 X2.5597 Y-0.5386 Z0.1285
G1 X2.5722 Y-0.517 Z0.1269
G1 X2.5847 Y-0.4953 Z0.1248
G1 X2.5972 Y-0.4738 Z0.1221
G1 X2.6096 Y-0.4523 Z0.1188
G1 X2.622 Y-0.4309 Z0.115
G1 X2.6344 Y-0.4096 Z0.1105
G1 X2.6602 Y-0.4541 Z0.0733
G1 X2.6607 Z0.0728
G1 X2.6424 Y-0.486 Z0.0776
G1 X2.6239 Y-0.5179 Z0.0811
G1 X2.6054 Y-0.55 Z0.0832
G1 X2.5869 Y-0.5821 Z0.0841
G1 X2.5346 Z0.1299
G1 Z0.3513
G1 X2.5889
G1 Z0.0841 F13.333
G1 X2.6186 Z0.0582 F20.
G1 Z0.3513
G1 X2.6602 Y-0.4541
G1 Z0.0733 F13.333
G1 X2.6344 Y-0.4096 Z0.1105 F20.
G1 X2.8348 Z0.1084
G1 X2.8089 Y-0.4541 Z0.0717
G1 X2.6602 Z0.0733
G1 Z0.3513
G1 X2.6623
G1 Z0.0733 F13.333
G1 X2.6779 Y-0.4818 Z0.0501 F20.
G1 Z0.3513
G1 X2.8085 Y-0.4541
G1 Z0.0713 F13.333
G1 X2.8089 Z0.0717 F20.
G1 X2.8348 Y-0.4096 Z0.1084
G1 X2.8471 Y-0.4309 Z0.1126
G1 X2.8596 Y-0.4523 Z0.1162
G1 X2.872 Y-0.4738 Z0.1192
G1 X2.8845 Y-0.4954 Z0.1217
G1 X2.897 Y-0.517 Z0.1235
G1 X2.9095 Y-0.5387 Z0.1248
G1 X2.9221 Y-0.5604 Z0.1256
G1 X2.9346 Y-0.5821 Z0.1257
G1 X2.8824 Z0.081
G1 X2.8638 Y-0.55 Z0.0805
G1 X2.8453 Y-0.518 Z0.0788
G1 X2.8269 Y-0.486 Z0.0757
G1 X2.8085 Y-0.4541 Z0.0713
G1 Z0.3513
G1 X2.8844 Y-0.5821
G1 Z0.081 F13.333
G1 X2.8544 Z0.0555 F20.
G1 Z0.3513
G1 X2.811 Y-0.71
G1 Z0.0717 F13.333
G1 X2.7953 Y-0.6822 Z0.0487 F20.
G1 Z0.3513
G1 X2.6623 Y-0.71
G1 Z0.0733 F13.333
G1 X2.6779 Y-0.6823 Z0.0501 F20.
G1 Z0.3513
G1 X2.811 Y-0.4541
G1 Z0.0717 F13.333
G1 X2.7953 Y-0.482 Z0.0487 F20.
G1 Z0.3513
G1 X2.2569 Y-0.5821
G1 Z0.1328 F13.333
G1 X2.2479 Y-0.6009 Z0.1327 F20.
G1 X2.2388 Y-0.6196 Z0.1321
G1 X2.2298 Y-0.6383 Z0.1311
G1 X2.2208 Y-0.657 Z0.1297
G1 X2.2118 Y-0.6757 Z0.1279
G1 X2.2028 Y-0.6943 Z0.1257
G1 X2.1938 Y-0.7128 Z0.123
G1 X2.1849 Y-0.7313 Z0.1199
G1 X2.1538 Y-0.6925 Z0.0811
G1 X2.1534 Y-0.6926 Z0.0808
G1 X2.1667 Y-0.6651 Z0.0841
G1 X2.18 Y-0.6374 Z0.0864
G1 X2.1933 Y-0.6098 Z0.0877
G1 X2.2067 Y-0.5821 Z0.088
G1 X2.2569 Z0.1328
G1 Z0.3513
G1 X2.1559 Y-0.6925
G1 Z0.0811 F13.333
G1 X2.1369 Y-0.668 Z0.0569 F20.
G1 Z0.3513
G1 X2.2067 Y-0.5821
G1 Z0.088 F13.333
G1 X2.1933 Y-0.5544 Z0.0877 F20.
G1 X2.18 Y-0.5267 Z0.0864
G1 X2.1667 Y-0.4991 Z0.0841
G1 X2.1534 Y-0.4716 Z0.0808
G1 X2.1538 Y-0.4717 Z0.0811
G1 X2.1849 Y-0.4329 Z0.1199
G1 X2.1938 Y-0.4514 Z0.123
G1 X2.2028 Y-0.4699 Z0.1257
G1 X2.2118 Y-0.4885 Z0.1279
G1 X2.2208 Y-0.5072 Z0.1297
G1 X2.2298 Y-0.5259 Z0.1311
G1 X2.2388 Y-0.5446 Z0.1321
G1 X2.2479 Y-0.5633 Z0.1327
G1 X2.2569 Y-0.5821 Z0.1328
G1 X2.2067 Z0.088
G1 Z0.3513
G1 X2.2087
G1 Z0.088 F13.333
G1 X2.1793 Z0.0619 F20.
G1 Z0.3513
G1 X2.1559 Y-0.4717
G1 Z0.0811 F13.333
G1 X2.1369 Y-0.4962 Z0.0569 F20.
G1 Z0.3513
G1 X2.0356 Y-0.4442
G1 Z0.0782 F13.333
G1 X2.0425 Y-0.4752 Z0.0549 F20.
G1 Z0.3513
G1 X2.0335 Y-0.4442
G1 Z0.0782 F13.333
G1 X2.0225 Y-0.3962 Z0.114 F20.
G1 X2.1037 Y-0.4145 Z0.1171
G1 X2.1849 Y-0.4329 Z0.1199
G1 X2.1538 Y-0.4717 Z0.0811
G1 X2.0339 Y-0.4443 Z0.0782
G1 Z0.3513
G1 X1.94 Y-0.5208
G1 Z0.0884 F13.333
G1 X1.9665 Y-0.5341 Z0.0626 F20.
G1 Z0.3513
G1 X1.9379 Y-0.5208
G1 Z0.0884 F13.333
G1 X1.8927 Y-0.499 Z0.1323 F20.
G1 X1.9252 Y-0.4732 Z0.129
G1 X1.9577 Y-0.4474 Z0.1248
G1 X1.9901 Y-0.4217 Z0.1198
G1 X2.0225 Y-0.3962 Z0.114
G1 X2.0335 Y-0.4442 Z0.0782
G1 X2.0339 Y-0.4443 Z0.0779
G1 X2.01 Y-0.4634 Z0.0812
G1 X1.986 Y-0.4825 Z0.0841
G1 X1.962 Y-0.5016 Z0.0865
G1 X1.938 Y-0.5208 Z0.0884
G1 Z0.3513
G1 X1.9379 Y-0.6434
G1 Z0.0884 F13.333
G1 X1.962 Y-0.6626 Z0.0865 F20.
G1 X1.986 Y-0.6817 Z0.0841
G1 X2.01 Y-0.7008 Z0.0812
G1 X2.0339 Y-0.7199 Z0.0779
G1 X2.0335 Y-0.72 Z0.0782
G1 X2.0225 Y-0.768 Z0.114
G1 X1.9901 Y-0.7424 Z0.1198
G1 X1.9577 Y-0.7168 Z0.1248
G1 X1.9252 Y-0.691 Z0.129
G1 X1.8927 Y-0.6651 Z0.1323
G1 X1.9379 Y-0.6434 Z0.0884
G1 X1.8927 Y-0.6651 Z0.1323
G1 Y-0.6444 Z0.1342
G1 Y-0.6236 Z0.1355
G1 Y-0.6029 Z0.1363
G1 Y-0.5821 Z0.1365
G1 Y-0.5613 Z0.1363
G1 Y-0.5405 Z0.1355
G1 Y-0.5198 Z0.1342
G1 Y-0.499 Z0.1323
G1 X1.9379 Y-0.5208 Z0.0884
G1 X1.938
G1 Y-0.5514 Z0.0902
G1 Y-0.5821 Z0.0908
G1 Y-0.6128 Z0.0902
G1 Y-0.6434 Z0.0884
G1 Z0.3513
G1 X1.94
G1 Z0.0884 F13.333
G1 X1.9665 Y-0.6301 Z0.0626 F20.
G1 Z0.3513
G1 X2.0339 Y-0.7199
G1 Z0.0782 F13.333
G1 X2.1538 Y-0.6925 Z0.0811 F20.
G1 X2.1849 Y-0.7313 Z0.1199
G1 X2.1037 Y-0.7497 Z0.1171
G1 X2.0225 Y-0.768 Z0.114
G1 X2.0335 Y-0.72 Z0.0782
G1 Z0.3513
G1 X2.0356
G1 Z0.0782 F13.333
G1 X2.0425 Y-0.689 Z0.0549 F20.
G1 Z0.3513
G1 X1.5927 Y-0.5821
G1 Z0.1395 F13.333
G1 X1.5782 Y-0.6169 Z0.139 F20.
G1 X1.5638 Y-0.6516 Z0.1369
G1 X1.5495 Y-0.6862 Z0.1334
G1 X1.5352 Y-0.7207 Z0.1285
G1 X1.5178 Y-0.7036 Z0.1085
G1 X1.5008 Y-0.6863 Z0.0886
G1 X1.5004 Y-0.6865 Z0.0883
G1 X1.5112 Y-0.6605 Z0.0912
G1 X1.522 Y-0.6344 Z0.0932
G1 X1.5328 Y-0.6082 Z0.0944
G1 X1.5437 Y-0.5821 Z0.0947
G1 X1.5927 Z0.1395
G1 Z0.3513
G1 X1.5028 Y-0.6863
G1 Z0.0886 F13.333
G1 X1.4817 Y-0.6645 Z0.0636 F20.
G1 Z0.3513
G1 X1.5008 Y-0.6863
G1 Z0.0886 F13.333
G1 X1.5178 Y-0.7036 Z0.1085 F20.
G1 X1.5352 Y-0.7207 Z0.1285
G1 X1.4655 Y-0.7493 Z0.1239
G1 X1.3959 Y-0.7778 Z0.1182
G1 X1.396 Y-0.7298 Z0.083
G1 X1.4482 Y-0.7081 Z0.0861
G1 X1.5004 Y-0.6865 Z0.0886
G1 Z0.3513
G1 X1.398 Y-0.7298
G1 Z0.0829 F13.333
G1 Y-0.6981 Z0.0595 F20.
G1 Z0.3513
G1 X1.2934 Y-0.6863
G1 Z0.0906 F13.333
G1 X1.3144 Y-0.6646 Z0.0654 F20.
G1 Z0.3513
G1 X1.2913 Y-0.6863
G1 Z0.0906 F13.333
G1 X1.2742 Y-0.7037 Z0.111 F20.
G1 X1.2569 Y-0.7207 Z0.1313
G1 X1.2426 Y-0.6863 Z0.1365
G1 X1.2282 Y-0.6517 Z0.1402
G1 X1.2138 Y-0.6169 Z0.1425
G1 X1.1994 Y-0.5821 Z0.1434
G1 X1.2484 Z0.0976
G1 X1.2592 Y-0.6083 Z0.0971
G1 X1.2701 Y-0.6344 Z0.0957
G1 X1.2809 Y-0.6605 Z0.0935
G1 X1.2916 Y-0.6865 Z0.0903
G1 X1.2913 Y-0.6863 Z0.0906
G1 Z0.3513
G1 X1.2916 Y-0.6865
G1 Z0.0906 F13.333
G1 X1.3439 Y-0.7081 Z0.0871 F20.
G1 X1.396 Y-0.7297 Z0.0829
G1 Y-0.7298 Z0.083
G1 X1.3959 Y-0.7778 Z0.1182
G1 X1.3264 Y-0.7493 Z0.1253
G1 X1.2569 Y-0.7207 Z0.1313
G1 X1.2742 Y-0.7037 Z0.111
G1 X1.2913 Y-0.6863 Z0.0906
G1 Z0.3513
G1 X1.2505 Y-0.5821
G1 Z0.0976 F13.333
G1 X1.2793 Z0.0708 F20.
G1 Z0.3513
G1 X1.2484
G1 Z0.0976 F13.333
G1 X1.1994 Z0.1434 F20.
G1 X1.2138 Y-0.5473 Z0.1425
G1 X1.2282 Y-0.5125 Z0.1402
G1 X1.2426 Y-0.4779 Z0.1365
G1 X1.2569 Y-0.4435 Z0.1313
G1 X1.2742 Y-0.4605 Z0.111
G1 X1.2913 Y-0.4778 Z0.0906
G1 X1.2916 Y-0.4777 Z0.0903
G1 X1.2809 Y-0.5037 Z0.0935
G1 X1.2701 Y-0.5298 Z0.0957
G1 X1.2592 Y-0.5559 Z0.0971
G1 X1.2484 Y-0.5821 Z0.0976
G1 Z0.3513
G1 X1.2913 Y-0.4778
G1 Z0.0906 F13.333
G1 X1.2742 Y-0.4605 Z0.111 F20.
G1 X1.2569 Y-0.4435 Z0.1313
G1 X1.3264 Y-0.4149 Z0.1253
G1 X1.3959 Y-0.3864 Z0.1182
G1 X1.396 Y-0.4344 Z0.083
G1 Z0.0829
G1 X1.3439 Y-0.4561 Z0.0871
G1 X1.2916 Y-0.4777 Z0.0906
G1 Z0.3513
G1 X1.2934 Y-0.4778
G1 Z0.0906 F13.333
G1 X1.3144 Y-0.4996 Z0.0654 F20.
G1 Z0.3513
G1 X1.398 Y-0.4344
G1 Z0.0829 F13.333
G1 Y-0.4661 Z0.0595 F20.
G1 Z0.3513
G1 X1.5004 Y-0.4777
G1 Z0.0883 F13.333
G1 X1.5008 Y-0.4778 Z0.0886 F20.
G1 X1.5178 Y-0.4605 Z0.1085
G1 X1.5352 Y-0.4435 Z0.1285
G1 X1.5495 Y-0.4779 Z0.1334
G1 X1.5638 Y-0.5125 Z0.1369
G1 X1.5782 Y-0.5473 Z0.139
G1 X1.5927 Y-0.5821 Z0.1395
G1 X1.5437 Z0.0947
G1 X1.5328 Y-0.5559 Z0.0944
G1 X1.522 Y-0.5298 Z0.0932
G1 X1.5112 Y-0.5037 Z0.0912
G1 X1.5004 Y-0.4777 Z0.0883
G1 Z0.3513
G1 X1.5457 Y-0.5821
G1 Z0.0947 F13.333
G1 X1.5166 Z0.0682 F20.
G1 Z0.3513
G1 X1.5028 Y-0.4778
G1 Z0.0886 F13.333
G1 X1.4817 Y-0.4997 Z0.0636 F20.
G1 Z0.3513
G1 X1.5004 Y-0.4777
G1 Z0.0886 F13.333
G1 X1.4482 Y-0.4561 Z0.0861 F20.
G1 X1.396 Y-0.4344 Z0.083
G1 X1.3959 Y-0.3864 Z0.1182
G1 X1.4655 Y-0.4149 Z0.1239
G1 X1.5352 Y-0.4435 Z0.1285
G1 X1.5178 Y-0.4605 Z0.1085
G1 X1.5008 Y-0.4778 Z0.0886
G1 Z0.3513
G1 X1.3447 Y-1.2466
G1 Z0.0889 F13.333
G1 Y-1.2571 Z0.0912 F20.
G1 Y-1.268 Z0.0934
G1 Y-1.2901 Z0.0974
G1 Y-1.3121 Z0.1008
G1 Y-1.3341 Z0.1036
G1 Y-1.3562 Z0.1057
G1 Y-1.3783 Z0.1072
G1 Y-1.4005 Z0.1081
G1 Y-1.4226 Z0.1084
G1 Y-1.4448 Z0.1081
G1 Y-1.4669 Z0.1072
G1 Y-1.4891 Z0.1057
G1 Y-1.5111 Z0.1036
G1 Y-1.5332 Z0.1008
G1 Y-1.5552 Z0.0974
G1 Y-1.5773 Z0.0934
G1 Y-1.5882 Z0.0912
G1 Y-1.5987 Z0.0889
G1 X1.322 Y-1.5599 Z0.0734
G1 X1.2997 Y-1.5212 Z0.0566
G1 X1.2994 Y-1.5211 Z0.0563
G1 Y-1.4965 Z0.0591
G1 Y-1.4719 Z0.0611
G1 Y-1.4473 Z0.0623
G1 Y-1.4226 Z0.0627
G1 Y-1.398 Z0.0623
G1 Y-1.3733 Z0.0611
G1 Y-1.3487 Z0.0591
G1 Y-1.3242 Z0.0563
G1 X1.2997 Y-1.324 Z0.0566
G1 X1.322 Y-1.2854 Z0.0734
G1 X1.3447 Y-1.2466 Z0.0889
G1 Z0.3513
G1 X1.2997 Y-1.5212
G1 Z0.0566 F13.333
G1 X1.322 Y-1.5599 Z0.0734 F20.
G1 X1.3447 Y-1.5987 Z0.0889
G1 X1.3065 Y-1.5769 Z0.0931
G1 X1.2683 Y-1.555 Z0.0967
G1 X1.23 Y-1.533 Z0.0997
G1 X1.1917 Y-1.511 Z0.1021
G1 X1.1534 Y-1.489 Z0.1039
G1 X1.115 Y-1.4669 Z0.1051
G1 X1.0767 Y-1.4448 Z0.1056
G1 X1.0384 Y-1.4226
G1 X1.0835 Z0.0832
G1 X1.1289 Z0.0611
G1 X1.1715 Y-1.4472 Z0.0612
G1 X1.2142 Y-1.4719 Z0.0604
G1 X1.2568 Y-1.4965 Z0.0589
G1 X1.2994 Y-1.5211 Z0.0566
G1 Z0.3513
G1 X1.2976 Y-1.5212
G1 Z0.0566 F13.333
G1 X1.2794 Y-1.4895 Z0.0422 F20.
G1 Z0.3513
G1 X1.1289 Y-1.4226
G1 Z0.0611 F13.333
G1 X1.0835 Z0.0832 F20.
G1 X1.0384 Z0.1056
G1 X1.0767 Y-1.4005
G1 X1.115 Y-1.3784 Z0.1051
G1 X1.1534 Y-1.3563 Z0.1039
G1 X1.1917 Y-1.3343 Z0.1021
G1 X1.23 Y-1.3122 Z0.0997
G1 X1.2683 Y-1.2903 Z0.0967
G1 X1.3065 Y-1.2684 Z0.0931
G1 X1.3447 Y-1.2466 Z0.0889
G1 X1.322 Y-1.2854 Z0.0734
G1 X1.2997 Y-1.324 Z0.0566
G1 Z0.3513
G1 X1.2994 Y-1.3242
G1 Z0.0566 F13.333
G1 X1.2568 Y-1.3488 Z0.0589 F20.
G1 X1.2142 Y-1.3734 Z0.0604
G1 X1.1715 Y-1.398 Z0.0612
G1 X1.1289 Y-1.4226 Z0.0611
G1 Z0.3513
G1 X1.1268
G1 Z0.0611 F13.333
G1 X1.1623 Z0.0441 F20.
G1 Z0.3513
G1 X1.2976 Y-1.324
G1 Z0.0566 F13.333
G1 X1.2794 Y-1.3558 Z0.0422 F20.
G1 Z0.3513
G1 X1.7396 Y-1.4226
G1 Z0.1123 F13.333
G1 X1.7612 Y-1.401 Z0.1122 F20.
G1 X1.7828 Y-1.3794 Z0.1116
G1 X1.8044 Y-1.3579 Z0.1103
G1 X1.826 Y-1.3364 Z0.1086
G1 X1.8475 Y-1.3149 Z0.1062
G1 X1.869 Y-1.2935 Z0.1033
G1 X1.8905 Y-1.2722 Z0.0998
G1 X1.9119 Y-1.2509 Z0.0957
G1 Y-1.2828 Z0.0788
G1 Y-1.3143 Z0.0613
G1 X1.8848 Y-1.3414 Z0.0643
G1 X1.8578 Y-1.3684 Z0.0663
G1 X1.8307 Y-1.3955 Z0.0674
G1 X1.8036 Y-1.4226 Z0.0676
G1 X1.7396 Z0.1123
G1 Z0.3513
G1 X1.9119 Y-1.3143
G1 Z0.0613 F13.333
G1 Y-1.2828 Z0.0788 F20.
G1 Y-1.2509 Z0.0957
G1 X1.9333 Y-1.2722 Z0.1002
G1 X1.9547 Y-1.2935 Z0.1041
G1 X1.9762 Y-1.3149 Z0.1075
G1 X1.9977 Y-1.3363 Z0.1103
G1 X2.0193 Y-1.3578 Z0.1125
G1 X2.0409 Y-1.3794 Z0.1141
G1 X2.0625 Y-1.401 Z0.1152
G1 X2.0841 Y-1.4226 Z0.1157
G1 X2.0201 Z0.0698
G1 X1.993 Y-1.3955 Z0.0691
G1 X1.9659 Y-1.3684 Z0.0674
G1 X1.9388 Y-1.3414 Z0.0648
G1 X1.9118 Y-1.3144 Z0.0613
G1 Z0.3513
G1 X1.9098 Y-1.3143
G1 Z0.0613 F13.333
G1 Y-1.3486 Z0.0419 F20.
G1 Z0.3513
G1 X1.8307 Y-1.4497
G1 Z0.0674 F13.333
G1 X1.8578 Y-1.4768 Z0.0663 F20.
G1 X1.8848 Y-1.5039 Z0.0643
G1 X1.9119 Y-1.5309 Z0.0613
G1 Y-1.5625 Z0.0788
G1 Y-1.5943 Z0.0957
G1 X1.8905 Y-1.5731 Z0.0998
G1 X1.869 Y-1.5518 Z0.1033
G1 X1.8475 Y-1.5304 Z0.1062
G1 X1.826 Y-1.5089 Z0.1086
G1 X1.8044 Y-1.4874 Z0.1103
G1 X1.7828 Y-1.4658 Z0.1116
G1 X1.7612 Y-1.4442 Z0.1122
G1 X1.7396 Y-1.4226 Z0.1123
G1 X1.8036 Z0.0676
G1 X1.8307 Y-1.4497 Z0.0674
G1 Z0.3513
G1 X1.8015 Y-1.4226
G1 Z0.0676 F13.333
G1 X1.834 Z0.0453 F20.
G1 Z0.3513
G1 X1.9388 Y-1.5039
G1 Z0.0648 F13.333
G1 X1.9659 Y-1.4769 Z0.0674 F20.
G1 X1.993 Y-1.4498 Z0.0691
G1 X2.0201 Y-1.4226 Z0.0698
G1 X2.0841 Z0.1157
G1 X2.0625 Y-1.4443 Z0.1152
G1 X2.0409 Y-1.4659 Z0.1141
G1 X2.0193 Y-1.4874 Z0.1125
G1 X1.9977 Y-1.5089 Z0.1103
G1 X1.9762 Y-1.5304 Z0.1075
G1 X1.9547 Y-1.5518 Z0.1041
G1 X1.9333 Y-1.5731 Z0.1002
G1 X1.9119 Y-1.5943 Z0.0957
G1 Y-1.5625 Z0.0788
G1 Y-1.5309 Z0.0613
G1 X1.9118
G1 X1.9388 Y-1.5039 Z0.0648
G1 Z0.3513
G1 X1.9098 Y-1.5309
G1 Z0.0613 F13.333
G1 Y-1.4967 Z0.0419 F20.
G1 Z0.3513
G1 X2.018 Y-1.4226
G1 Z0.0698 F13.333
G1 X1.9859 Z0.047 F20.
G1 Z0.3513
G1 X2.401
G1 Z0.119 F13.333
G1 X2.4569 Z0.0743 F20.
G1 X2.4784 Y-1.4522 Z0.0739
G1 X2.4999 Y-1.4818 Z0.0725
G1 X2.5214 Y-1.5113 Z0.07
G1 X2.5428 Y-1.5407 Z0.0663
G1 Z0.3513
G1 Z0.0665 F13.333
G1 X2.6122 Y-1.5182 Z0.0702 F20.
G1 X2.6818 Y-1.4956 Z0.0733
G1 X2.7269 Y-1.5283 Z0.1155
G1 X2.6261 Y-1.5609 Z0.1096
G1 X2.5254 Y-1.5933 Z0.1023
G1 X2.5425 Y-1.5408 Z0.0665
G1 X2.5254 Y-1.5933 Z0.1023
G1 X2.51 Y-1.5722 Z0.1063
G1 X2.4945 Y-1.551 Z0.1098
G1 X2.479 Y-1.5297 Z0.1127
G1 X2.4634 Y-1.5084 Z0.1151
G1 X2.4478 Y-1.487 Z0.1169
G1 X2.4322 Y-1.4656 Z0.1182
G1 X2.4166 Y-1.4441 Z0.1188
G1 X2.401 Y-1.4226 Z0.119
G1 Z0.3513
G1 X2.4549
G1 Z0.0742 F13.333
G1 X2.4858 Z0.0498 F20.
G1 Z0.3513
G1 X2.5405 Y-1.3045
G1 Z0.0665 F13.333
G1 X2.5504 Y-1.3358 Z0.0448 F20.
G1 Z0.3513
G1 X2.5428 Y-1.3045
G1 Z0.0663 F13.333
G1 X2.5214 Y-1.334 Z0.07 F20.
G1 X2.4999 Y-1.3635 Z0.0725
G1 X2.4784 Y-1.393 Z0.0739
G1 X2.4569 Y-1.4226 Z0.0743
G1 X2.401 Z0.119
G1 X2.4166 Y-1.4011 Z0.1188
G1 X2.4322 Y-1.3797 Z0.1182
G1 X2.4478 Y-1.3583 Z0.1169
G1 X2.4634 Y-1.3369 Z0.1151
G1 X2.479 Y-1.3155 Z0.1127
G1 X2.4945 Y-1.2943 Z0.1098
G1 X2.51 Y-1.2731 Z0.1063
G1 X2.5254 Y-1.252 Z0.1023
G1 X2.5425 Y-1.3045 Z0.0665
G1 X2.5254 Y-1.252 Z0.1023
G1 X2.6261 Y-1.2844 Z0.1096
G1 X2.7269 Y-1.317 Z0.1155
G1 X2.6818 Y-1.3497 Z0.0733
G1 X2.6122 Y-1.3271 Z0.0702
G1 X2.5428 Y-1.3045 Z0.0665
G1 Z0.3513
G1 X2.6797 Y-1.3497
G1 Z0.0733 F13.333
G1 X2.6546 Y-1.3685 Z0.0496 F20.
G1 Z0.3513
G1 X2.6818 Y-1.3497
G1 Z0.0733 F13.333
G1 X2.7269 Y-1.317 Z0.1155 F20.
G1 Y-1.3433 Z0.1185
G1 Y-1.3697 Z0.1206
G1 Y-1.3962 Z0.1219
G1 Y-1.4226 Z0.1223
G1 Y-1.4491 Z0.1219
G1 Y-1.4756 Z0.1206
G1 Y-1.502 Z0.1185
G1 Y-1.5283 Z0.1155
G1 X2.6818 Y-1.4956 Z0.0733
G1 Z0.3513
G1 X2.6816
G1 Z0.0732 F13.333
G1 Y-1.4774 Z0.0747 F20.
G1 Y-1.4592 Z0.0757
G1 Y-1.4409 Z0.0764
G1 Y-1.4226 Z0.0766
G1 Y-1.4044 Z0.0764
G1 Y-1.3861 Z0.0757
G1 Y-1.3679 Z0.0747
G1 Y-1.3496 Z0.0732
G1 Z0.3513
G1 X2.6797 Y-1.4956
G1 Z0.0733 F13.333
G1 X2.6546 Y-1.4768 Z0.0496 F20.
G1 Z0.3513
G1 X2.5405 Y-1.5408
G1 Z0.0665 F13.333
G1 X2.5504 Y-1.5095 Z0.0448 F20.
G1 Z0.3513
G1 X3.0504 Y-1.4226
G1 Z0.1257 F13.333
G1 X3.0629 Y-1.4009 Z0.1256 F20.
G1 X3.0755 Y-1.3792 Z0.1248
G1 X3.088 Y-1.3575 Z0.1235
G1 X3.1005 Y-1.3359 Z0.1217
G1 X3.113 Y-1.3144 Z0.1192
G1 X3.1255 Y-1.2929 Z0.1162
G1 X3.1379 Y-1.2715 Z0.1126
G1 X3.1503 Y-1.2502 Z0.1084
G1 X3.1761 Y-1.2947 Z0.0717
G1 X3.1766 Z0.0713
G1 X3.1582 Y-1.3265 Z0.0757
G1 X3.1397 Y-1.3585 Z0.0788
G1 X3.1212 Y-1.3906 Z0.0805
G1 X3.1027 Y-1.4226 Z0.081
G1 X3.0504 Z0.1257
G1 Z0.3513
G1 X3.1503 Y-1.2502
G1 Z0.1084 F13.333
G1 X3.3507 Z0.1105 F20.
G1 X3.3248 Y-1.2947 Z0.0733
G1 X3.1761 Z0.0717
G1 X3.1503 Y-1.2502 Z0.1084
G1 Z0.3513
G1 X3.174 Y-1.2947
G1 Z0.0717 F13.333
G1 X3.1897 Y-1.3225 Z0.0487 F20.
G1 Z0.3513
G1 X3.1027 Y-1.4226
G1 Z0.081 F13.333
G1 X3.1212 Y-1.4547 Z0.0805 F20.
G1 X3.1397 Y-1.4868 Z0.0788
G1 X3.1582 Y-1.5187 Z0.0757
G1 X3.1766 Y-1.5506 Z0.0713
G1 X3.1761 Z0.0717
G1 X3.1503 Y-1.5951 Z0.1084
G1 X3.1379 Y-1.5738 Z0.1126
G1 X3.1255 Y-1.5524 Z0.1162
G1 X3.113 Y-1.5309 Z0.1192
G1 X3.1005 Y-1.5093 Z0.1217
G1 X3.088 Y-1.4877 Z0.1235
G1 X3.0755 Y-1.4661 Z0.1248
G1 X3.0629 Y-1.4444 Z0.1256
G1 X3.0504 Y-1.4226 Z0.1257
G1 X3.1027 Z0.081
G1 Z0.3513
G1 X3.1006
G1 Z0.081 F13.333
G1 X3.1306 Z0.0555 F20.
G1 Z0.3513
G1 X3.174 Y-1.5506
G1 Z0.0717 F13.333
G1 X3.1897 Y-1.5227 Z0.0487 F20.
G1 Z0.3513
G1 X3.1766 Y-1.5506
G1 Z0.0717 F13.333
G1 X3.3248 Z0.0733 F20.
G1 X3.3507 Y-1.5951 Z0.1105
G1 X3.1503 Z0.1084
G1 X3.1761 Y-1.5506 Z0.0717
G1 X3.1766
G1 Z0.3513
G1 X3.3228
G1 Z0.0733 F13.333
G1 X3.3071 Y-1.5229 Z0.0501 F20.
G1 Z0.3513
G1 X3.3248 Y-1.5506
G1 Z0.0733 F13.333
G1 X3.3243 Z0.0728 F20.
G1 X3.3427 Y-1.5188 Z0.0776
G1 X3.3611 Y-1.4868 Z0.0811
G1 X3.3796 Y-1.4547 Z0.0832
G1 X3.3982 Y-1.4226 Z0.0841
G1 X3.4504 Z0.1299
G1 X3.4379 Y-1.4444 Z0.1295
G1 X3.4254 Y-1.4661 Z0.1285
G1 X3.4128 Y-1.4878 Z0.1269
G1 X3.4003 Y-1.5094 Z0.1248
G1 X3.3879 Y-1.5309 Z0.1221
G1 X3.3754 Y-1.5524 Z0.1188
G1 X3.363 Y-1.5738 Z0.115
G1 X3.3507 Y-1.5951 Z0.1105
G1 X3.3248 Y-1.5506 Z0.0733
G1 Z0.3513
G1 X3.3961 Y-1.4226
G1 Z0.0841 F13.333
G1 X3.3664 Z0.0582 F20.
G1 Z0.3513
G1 X3.3982
G1 Z0.0841 F13.333
G1 X3.3796 Y-1.3905 Z0.0832 F20.
G1 X3.3611 Y-1.3585 Z0.0811
G1 X3.3427 Y-1.3265 Z0.0776
G1 X3.3243 Y-1.2947 Z0.0728
G1 X3.3248 Z0.0733
G1 X3.3507 Y-1.2502 Z0.1105
G1 X3.363 Y-1.2715 Z0.115
G1 X3.3754 Y-1.2929 Z0.1188
G1 X3.3879 Y-1.3143 Z0.1221
G1 X3.4003 Y-1.3359 Z0.1248
G1 X3.4128 Y-1.3575 Z0.1269
G1 X3.4254 Y-1.3792 Z0.1285
G1 X3.4379 Y-1.4009 Z0.1295
G1 X3.4504 Y-1.4226 Z0.1299
G1 X3.3982 Z0.0841
G1 Z0.3513
G1 X3.3228 Y-1.2947
G1 Z0.0733 F13.333
G1 X3.3071 Y-1.3224 Z0.0501 F20.
G1 Z0.3513
G1 X3.7281 Y-1.4226
G1 Z0.1328 F13.333
G1 X3.7372 Y-1.4039 Z0.1327 F20.
G1 X3.7462 Y-1.3851 Z0.1321
G1 X3.7552 Y-1.3664 Z0.1311
G1 X3.7643 Y-1.3477 Z0.1297
G1 X3.7733 Y-1.3291 Z0.1279
G1 X3.7823 Y-1.3105 Z0.1257
G1 X3.7912 Y-1.2919 Z0.123
G1 X3.8002 Y-1.2734 Z0.1199
G1 X3.8312 Y-1.3122 Z0.0811
G1 X3.8316 Y-1.3121 Z0.0808
G1 X3.8183 Y-1.3397 Z0.0841
G1 X3.805 Y-1.3673 Z0.0864
G1 X3.7917 Y-1.3949 Z0.0877
G1 X3.7784 Y-1.4226 Z0.088
G1 X3.7281 Z0.1328
G1 Z0.3513
G1 X3.8291 Y-1.3122
G1 Z0.0811 F13.333
G1 X3.8481 Y-1.3368 Z0.0569 F20.
G1 Z0.3513
G1 X3.8316 Y-1.3121
G1 Z0.0811 F13.333
G1 X3.8312 Y-1.3122 F20.
G1 X3.8002 Y-1.2734 Z0.1199
G1 X3.8814 Y-1.2551 Z0.1171
G1 X3.9626 Y-1.2367 Z0.114
G1 X3.9515 Y-1.2848 Z0.0782
G1 X3.9626 Y-1.2367 Z0.114
G1 X3.9949 Y-1.2623 Z0.1198
G1 X4.0273 Y-1.288 Z0.1248
G1 X4.0598 Y-1.3137 Z0.129
G1 X4.0923 Y-1.3396 Z0.1323
G1 X4.0471 Y-1.3614 Z0.0884
G1 X4.047 Y-1.3613
G1 X4.023 Y-1.3422 Z0.0865
G1 X3.9991 Y-1.323 Z0.0841
G1 X3.9751 Y-1.3039 Z0.0812
G1 X3.9512 Y-1.2848 Z0.0779
G1 X3.9515 Z0.0782
G1 Z0.3513
G1 X3.9512
G1 Z0.0782 F13.333
G1 X3.8316 Y-1.3121 Z0.0811 F20.
G1 Z0.3513
G1 X3.9494 Y-1.2848
G1 Z0.0782 F13.333
G1 X3.9425 Y-1.3158 Z0.0549 F20.
G1 Z0.3513
G1 X4.045 Y-1.3614
G1 Z0.0884 F13.333
G1 X4.0185 Y-1.3747 Z0.0626 F20.
G1 Z0.3513
G1 X4.0471 Y-1.3614
G1 Z0.0884 F13.333
G1 X4.0923 Y-1.3396 Z0.1323 F20.
G1 Y-1.3603 Z0.1342
G1 Y-1.3811 Z0.1355
G1 Y-1.4019 Z0.1363
G1 Y-1.4226 Z0.1365
G1 Y-1.4434 Z0.1363
G1 Y-1.4642 Z0.1355
G1 Y-1.485 Z0.1342
G1 Y-1.5057 Z0.1323
G1 X4.0471 Y-1.4839 Z0.0884
G1 X4.047 Y-1.484
G1 Y-1.4533 Z0.0902
G1 Y-1.4226 Z0.0908
G1 Y-1.392 Z0.0902
G1 Y-1.3613 Z0.0884
G1 Z0.3513
G1 X4.0471 Y-1.4839
G1 Z0.0884 F13.333
G1 X4.0923 Y-1.5057 Z0.1323 F20.
G1 X4.0598 Y-1.5315 Z0.129
G1 X4.0273 Y-1.5573 Z0.1248
G1 X3.9949 Y-1.583 Z0.1198
G1 X3.9626 Y-1.6086 Z0.114
G1 X3.9515 Y-1.5605 Z0.0782
G1 X3.9512 Y-1.5604 Z0.0779
G1 X3.9751 Y-1.5414 Z0.0812
G1 X3.9991 Y-1.5223 Z0.0841
G1 X4.023 Y-1.5031 Z0.0865
G1 X4.047 Y-1.484 Z0.0884
G1 X4.0471 Y-1.4839
G1 Z0.3513
G1 X3.9515 Y-1.5605
G1 Z0.0782 F13.333
G1 X3.9626 Y-1.6086 Z0.114 F20.
G1 X3.8814 Y-1.5902 Z0.1171
G1 X3.8002 Y-1.5719 Z0.1199
G1 X3.8312 Y-1.5331 Z0.0811
G1 X3.9512 Y-1.5604 Z0.0782
G1 Z0.3513
G1 X3.9494 Y-1.5605
G1 Z0.0782 F13.333
G1 X3.9425 Y-1.5295 Z0.0549 F20.
G1 Z0.3513
G1 X3.8316 Y-1.5331
G1 Z0.0808 F13.333
G1 X3.8312 Z0.0811 F20.
G1 X3.8002 Y-1.5719 Z0.1199
G1 X3.7912 Y-1.5534 Z0.123
G1 X3.7823 Y-1.5348 Z0.1257
G1 X3.7733 Y-1.5162 Z0.1279
G1 X3.7643 Y-1.4976 Z0.1297
G1 X3.7552 Y-1.4789 Z0.1311
G1 X3.7462 Y-1.4602 Z0.1321
G1 X3.7372 Y-1.4414 Z0.1327
G1 X3.7281 Y-1.4226 Z0.1328
G1 X3.7784 Z0.088
G1 X3.7917 Y-1.4503 Z0.0877
G1 X3.805 Y-1.478 Z0.0864
G1 X3.8183 Y-1.5056 Z0.0841
G1 X3.8316 Y-1.5331 Z0.0808
G1 Z0.3513
G1 X3.7763 Y-1.4226
G1 Z0.088 F13.333
G1 X3.8058 Z0.0619 F20.
G1 Z0.3513
G1 X3.8291 Y-1.5331
G1 Z0.0811 F13.333
G1 X3.8481 Y-1.5085 Z0.0569 F20.
G1 Z0.3513
G1 X4.045 Y-1.4839
G1 Z0.0884 F13.333
G1 X4.0185 Y-1.4706 Z0.0626 F20.
G1 Z0.3513
G1 X4.3924 Y-1.4226
G1 Z0.1395 F13.333
G1 X4.4068 Y-1.3878 Z0.139 F20.
G1 X4.4212 Y-1.3531 Z0.1369
G1 X4.4356 Y-1.3185 Z0.1334
G1 X4.4499 Y-1.2841 Z0.1285
G1 X4.4672 Y-1.3011 Z0.1085
G1 X4.4843 Y-1.3184 Z0.0886
G1 X4.4846 Y-1.3182 Z0.0883
G1 X4.4738 Y-1.3443 Z0.0912
G1 X4.463 Y-1.3704 Z0.0932
G1 X4.4522 Y-1.3965 Z0.0944
G1 X4.4414 Y-1.4226 Z0.0947
G1 X4.3924 Z0.1395
G1 Z0.3513
G1 X4.4822 Y-1.3184
G1 Z0.0886 F13.333
G1 X4.5034 Y-1.3403 Z0.0636 F20.
G1 Z0.3513
G1 X4.4843 Y-1.3184
G1 Z0.0886 F13.333
G1 X4.4672 Y-1.3011 Z0.1085 F20.
G1 X4.4499 Y-1.2841 Z0.1285
G1 X4.5195 Y-1.2555 Z0.1239
G1 X4.5891 Y-1.2269 Z0.1182
G1 Y-1.275 Z0.083
G1 X4.5368 Y-1.2966 Z0.0861
G1 X4.4846 Y-1.3182 Z0.0886
G1 Z0.3513
G1 X4.587 Y-1.275
G1 Z0.0829 F13.333
G1 Y-1.3066 Z0.0595 F20.
G1 Z0.3513
G1 X4.5891 Y-1.275
G1 Z0.083 F13.333
G1 Y-1.2269 Z0.1182 F20.
G1 X4.6586 Y-1.2554 Z0.1253
G1 X4.7282 Y-1.284 Z0.1313
G1 X4.7108 Y-1.3011 Z0.111
G1 X4.6937 Y-1.3184 Z0.0906
G1 X4.7108 Y-1.3011 Z0.111
G1 X4.7282 Y-1.284 Z0.1313
G1 X4.7425 Y-1.3185 Z0.1365
G1 X4.7568 Y-1.3531 Z0.1402
G1 X4.7712 Y-1.3878 Z0.1425
G1 X4.7857 Y-1.4226 Z0.1434
G1 X4.7367 Z0.0976
G1 X4.7258 Y-1.3965 Z0.0971
G1 X4.715 Y-1.3703 Z0.0957
G1 X4.7042 Y-1.3443 Z0.0935
G1 X4.6934 Y-1.3182 Z0.0903
G1 X4.6937 Y-1.3184 Z0.0906
G1 Z0.3513
G1 X4.6934 Y-1.3182
G1 Z0.0906 F13.333
G1 X4.6412 Y-1.2966 Z0.0871 F20.
G1 X4.589 Y-1.275 Z0.0829
G1 Z0.3513
G1 X4.6917 Y-1.3184
G1 Z0.0906 F13.333
G1 X4.6707 Y-1.3401 Z0.0654 F20.
G1 Z0.3513
G1 X4.7346 Y-1.4226
G1 Z0.0976 F13.333
G1 X4.7057 Z0.0708 F20.
G1 Z0.3513
G1 X4.7367
G1 Z0.0976 F13.333
G1 X4.7857 Z0.1434 F20.
G1 X4.7712 Y-1.4575 Z0.1425
G1 X4.7568 Y-1.4922 Z0.1402
G1 X4.7425 Y-1.5268 Z0.1365
G1 X4.7282 Y-1.5612 Z0.1313
G1 X4.7108 Y-1.5442 Z0.111
G1 X4.6937 Y-1.5269 Z0.0906
G1 X4.6934 Y-1.527 Z0.0903
G1 X4.7042 Y-1.501 Z0.0935
G1 X4.715 Y-1.4749 Z0.0957
G1 X4.7258 Y-1.4488 Z0.0971
G1 X4.7367 Y-1.4226 Z0.0976
G1 Z0.3513
G1 X4.6937 Y-1.5269
G1 Z0.0906 F13.333
G1 X4.7108 Y-1.5442 Z0.111 F20.
G1 X4.7282 Y-1.5612 Z0.1313
G1 X4.6586 Y-1.5898 Z0.1253
G1 X4.5891 Y-1.6184 Z0.1182
G1 Y-1.5703 Z0.083
G1 X4.589 Z0.0829
G1 X4.6412 Y-1.5487 Z0.0871
G1 X4.6934 Y-1.527 Z0.0906
G1 Z0.3513
G1 X4.6917 Y-1.5269
G1 Z0.0906 F13.333
G1 X4.6707 Y-1.5052 Z0.0654 F20.
G1 Z0.3513
G1 X4.587 Y-1.5703
G1 Z0.0829 F13.333
G1 Y-1.5387 Z0.0595 F20.
G1 Z0.3513
G1 X4.4846 Y-1.527
G1 Z0.0883 F13.333
G1 X4.4843 Y-1.5269 Z0.0886 F20.
G1 X4.4672 Y-1.5442 Z0.1085
G1 X4.4499 Y-1.5612 Z0.1285
G1 X4.4356 Y-1.5268 Z0.1334
G1 X4.4212 Y-1.4922 Z0.1369
G1 X4.4068 Y-1.4574 Z0.139
G1 X4.3924 Y-1.4226 Z0.1395
G1 X4.4414 Z0.0947
G1 X4.4522 Y-1.4488 Z0.0944
G1 X4.463 Y-1.4749 Z0.0932
G1 X4.4738 Y-1.501 Z0.0912
G1 X4.4846 Y-1.527 Z0.0883
G1 Z0.3513
G1 X4.4393 Y-1.4226
G1 Z0.0947 F13.333
G1 X4.4684 Z0.0682 F20.
G1 Z0.3513
G1 X4.4822 Y-1.5269
G1 Z0.0886 F13.333
G1 X4.5034 Y-1.505 Z0.0636 F20.
G1 Z0.3513
G1 X4.4846 Y-1.527
G1 Z0.0886 F13.333
G1 X4.5368 Y-1.5487 Z0.0861 F20.
G1 X4.5891 Y-1.5703 Z0.083
G1 Y-1.6184 Z0.1182
G1 X4.5195 Y-1.5898 Z0.1239
G1 X4.4499 Y-1.5612 Z0.1285
G1 X4.4672 Y-1.5442 Z0.1085
G1 X4.4843 Y-1.5269 Z0.0886
G1 Z0.3513
G1 Z0.8512
M5 M9

G30
M30
%
