%
(3 bore)
(T255 D=0.0937 CR=0. - ZMIN=-0.02 - flat end mill)
G90 G54 G64 G50 G17 G40 G80 G94 G91.1 G49
G20 (Inch)
G30
(When using Fusion for Personal Use, the feedrate of rapid)
(moves is reduced to match the feedrate of cutting moves,)
(which can increase machining time. Unrestricted rapid moves)
(are available with a Fusion Subscription.)

N10 (3 bore)
T255 G43 H255 M6
S5140 M3 M8
G17 G90 G94
G54
G0 X5.5576 Y-0.6238
G0 Z0.8657
G1 Z0.1312 F15.
G1 Z0.0606 F50.
G1 Y-0.624 Z0.0585
G1 Y-0.6247 Z0.0565
G1 Y-0.6258 Z0.0547
G1 Y-0.6273 Z0.0532
G1 Y-0.6291 Z0.0521
G1 Y-0.6311 Z0.0514
G1 Y-0.6332 Z0.0512
G1 Y-0.6378
G3 X5.5669 Y-0.6472 I0.0094 J0.
G3 Y-0.5524 Z0.0479 I0. J0.0474 F15.
G3 Y-0.6472 Z0.0446 I0. J-0.0474
G3 Y-0.5524 Z0.0413 I0. J0.0474
G3 Y-0.6472 Z0.038 I0. J-0.0474
G3 Y-0.5524 Z0.0347 I0. J0.0474
G3 Y-0.6472 Z0.0314 I0. J-0.0474
G3 Y-0.5524 Z0.0281 I0. J0.0474
G3 Y-0.6472 Z0.0248 I0. J-0.0474
G3 Y-0.5524 Z0.0215 I0. J0.0474
G3 Y-0.6472 Z0.0183 I0. J-0.0474
G3 Y-0.5524 Z0.015 I0. J0.0474
G3 Y-0.6472 Z0.0117 I0. J-0.0474
G3 Y-0.5524 Z0.0084 I0. J0.0474
G3 Y-0.6472 Z0.0051 I0. J-0.0474
G3 Y-0.5524 Z0.0018 I0. J0.0474
G3 Y-0.6472 Z-0.0015 I0. J-0.0474
G3 Y-0.5524 Z-0.0048 I0. J0.0474
G3 Y-0.6472 Z-0.0081 I0. J-0.0474
G3 Y-0.5524 Z-0.0114 I0. J0.0474
G3 Y-0.6472 Z-0.0147 I0. J-0.0474
G3 Y-0.5524 Z-0.018 I0. J0.0474
G3 X5.5227 Y-0.6169 Z-0.02 I0. J-0.0474
G3 X5.6111 Y-0.5827 I0.0442 J0.0171
G3 X5.5227 Y-0.6169 I-0.0442 J-0.0171
G3 X5.5348 Y-0.6223 I0.0087 J0.0034
G1 X5.5392 Y-0.6206
G1 X5.5412 Y-0.6198 Z-0.0198
G1 X5.543 Y-0.6191 Z-0.0191
G1 X5.5447 Y-0.6185 Z-0.018
G1 X5.5461 Y-0.6179 Z-0.0165
G1 X5.5471 Y-0.6175 Z-0.0147
G1 X5.5477 Y-0.6173 Z-0.0127
G1 X5.548 Y-0.6172 Z-0.0106
G1 Z0.4657
G1 X5.0925 Y-0.6903
G1 Z0.1218
G1 Z0.0512 F50.
G1 X5.0924 Y-0.6904
G1 X5.0925 Y-0.6905
G1 X5.0927 Y-0.6903 Z0.0504 F15.
G1 X5.0925 Y-0.6901 Z0.0495
G1 X5.0923 Y-0.6903 Z0.0487
G1 X5.0925 Y-0.6905 Z0.0479
G1 X5.0927 Y-0.6903 Z0.0471
G1 X5.0925 Y-0.6901 Z0.0463
G1 X5.0923 Y-0.6903 Z0.0455
G1 X5.0925 Y-0.6905 Z0.0446
G1 X5.0927 Y-0.6903 Z0.0438
G1 X5.0925 Y-0.6901 Z0.043
G1 X5.0923 Y-0.6903 Z0.0422
G1 X5.0925 Y-0.6904 Z0.0414
G1 X5.0927 Y-0.6902 Z0.0404
G1 X5.0924 Y-0.6901 Z0.0394
G1 Y-0.6904 Z0.0384
G1 X5.0927 Y-0.6903 Z0.0374
G1 X5.0925 Y-0.6901 Z0.0365
G1 X5.0923 Y-0.6903 Z0.0356
G1 X5.0925 Y-0.6904 Z0.0348
G1 X5.0927 Y-0.6903 Z0.034
G1 X5.0925 Y-0.6901 Z0.0332
G1 X5.0923 Y-0.6903 Z0.0324
G1 X5.0925 Y-0.6904 Z0.0315
G1 X5.0927 Y-0.6903 Z0.0307
G1 X5.0925 Y-0.6901 Z0.0299
G1 X5.0923 Y-0.6902 Z0.0291
G1 X5.0925 Y-0.6904 Z0.0283
G1 X5.0927 Y-0.6903 Z0.0275
G1 X5.0926 Y-0.6901 Z0.0266
G1 X5.0924 Y-0.6902 Z0.0258
G1 X5.0925 Y-0.6904 Z0.025
G1 X5.0927 Y-0.6903 Z0.0242
G1 X5.0926 Y-0.6901 Z0.0234
G1 X5.0924 Y-0.6902 Z0.0225
G1 X5.0925 Y-0.6904 Z0.0217
G1 X5.0927 Y-0.6903 Z0.0209
G1 X5.0926 Y-0.6901 Z0.0201
G1 X5.0924 Y-0.6902 Z0.0193
G1 X5.0925 Y-0.6904 Z0.0185
G1 X5.0927 Y-0.6903 Z0.0176
G1 X5.0926 Y-0.6901 Z0.0168
G1 X5.0924 Y-0.6902 Z0.016
G1 X5.0925 Y-0.6904 Z0.0152
G1 X5.0927 Y-0.6903 Z0.0144
G1 X5.0926 Y-0.6901 Z0.0135
G1 X5.0924 Y-0.6902 Z0.0127
G1 X5.0925 Y-0.6904 Z0.0119
G1 X5.0927 Y-0.6903 Z0.0109
G1 X5.0925 Y-0.6901 Z0.0099
G1 X5.0924 Y-0.6904 Z0.009
G1 X5.0927 Z0.008
G1 X5.0926 Y-0.6901 Z0.007
G1 X5.0924 Y-0.6902 Z0.0062
G1 X5.0925 Y-0.6904 Z0.0054
G1 X5.0927 Y-0.6903 Z0.0045
G1 X5.0926 Y-0.6901 Z0.0037
G1 X5.0924 Y-0.6902 Z0.0029
G1 X5.0925 Y-0.6904 Z0.0021
G1 X5.0927 Y-0.6903 Z0.0011
G1 X5.0925 Y-0.6901 Z0.0001
G1 X5.0924 Y-0.6904 Z-0.0009
G1 X5.0926 Z-0.0018
G1 Y-0.6901 Z-0.0028
G1 X5.0924 Y-0.6902 Z-0.0036
G1 Y-0.6904 Z-0.0045
G1 X5.0927 Z-0.0053
G1 X5.0926 Y-0.6901 Z-0.0061
G1 X5.0924 Y-0.6902 Z-0.0069
G1 Y-0.6904 Z-0.0077
G1 X5.0927 Z-0.0085
G1 X5.0926 Y-0.6901 Z-0.0094
G1 X5.0924 Y-0.6902 Z-0.0102
G1 X5.0925 Y-0.6904 Z-0.0111
G1 X5.0927 Y-0.6903 Z-0.012
G1 X5.0925 Y-0.6901 Z-0.0129
G1 X5.0924 Y-0.6903 Z-0.0139
G1 X5.0926 Y-0.6904 Z-0.0148
G1 X5.0927 Y-0.6902 Z-0.0157
G1 X5.0924 Z-0.0166
G1 Y-0.6904 Z-0.0175
G1 X5.0927 Z-0.0184
G1 X5.0926 Y-0.6901 Z-0.0192
G1 X5.0924 Y-0.6902 Z-0.02
G1 Y-0.6904
G1 X5.0927
G1 X5.0926 Y-0.6901
G1 X5.0924 Y-0.6902
G1 Y-0.6903
G1 X5.0925
G1 Z0.4657
G1 X5.0312 Y-1.4343
G1 Z0.1627
G1 Z0.0921 F50.
G1 Y-1.4345 Z0.09
G1 Y-1.4352 Z0.088
G1 Y-1.4363 Z0.0862
G1 Y-1.4378 Z0.0847
G1 Y-1.4396 Z0.0836
G1 Y-1.4415 Z0.0829
G1 Y-1.4436 Z0.0827
G1 Y-1.4483
G3 X5.0392 Y-1.4563 I0.008 J0.
G3 Y-1.4244 Z0.0805 I0. J0.0159 F15.
G3 Y-1.4563 Z0.0783 I0. J-0.0159
G3 Y-1.4244 Z0.0761 I0. J0.0159
G3 Y-1.4563 Z0.0739 I0. J-0.0159
G3 Y-1.4244 Z0.0717 I0. J0.0159
G3 Y-1.4563 Z0.0695 I0. J-0.0159
G3 Y-1.4244 Z0.0673 I0. J0.0159
G3 Y-1.4563 Z0.0651 I0. J-0.0159
G3 Y-1.4244 Z0.0629 I0. J0.0159
G3 Y-1.4563 Z0.0607 I0. J-0.0159
G3 Y-1.4244 Z0.0586 I0. J0.0159
G3 Y-1.4563 Z0.0564 I0. J-0.0159
G3 Y-1.4244 Z0.0542 I0. J0.0159
G3 Y-1.4563 Z0.052 I0. J-0.0159
G3 Y-1.4244 Z0.0498 I0. J0.0159
G3 Y-1.4563 Z0.0476 I0. J-0.0159
G3 Y-1.4244 Z0.0454 I0. J0.0159
G3 Y-1.4563 Z0.0432 I0. J-0.0159
G3 Y-1.4244 Z0.041 I0. J0.0159
G3 Y-1.4563 Z0.0388 I0. J-0.0159
G3 Y-1.4244 Z0.0366 I0. J0.0159
G3 Y-1.4563 Z0.0344 I0. J-0.0159
G3 Y-1.4244 Z0.0322 I0. J0.0159
G3 Y-1.4563 Z0.03 I0. J-0.0159
G3 Y-1.4244 Z0.0279 I0. J0.0159
G3 Y-1.4563 Z0.0257 I0. J-0.0159
G3 Y-1.4244 Z0.0235 I0. J0.0159
G3 Y-1.4563 Z0.0213 I0. J-0.0159
G3 Y-1.4244 Z0.0191 I0. J0.0159
G3 Y-1.4563 Z0.0169 I0. J-0.0159
G3 Y-1.4244 Z0.0147 I0. J0.0159
G3 Y-1.4563 Z0.0125 I0. J-0.0159
G3 Y-1.4244 Z0.0103 I0. J0.0159
G3 Y-1.4563 Z0.0081 I0. J-0.0159
G3 Y-1.4244 Z0.0059 I0. J0.0159
G3 Y-1.4563 Z0.0037 I0. J-0.0159
G3 Y-1.4244 Z0.0015 I0. J0.0159
G3 Y-1.4563 Z-0.0007 I0. J-0.0159
G3 Y-1.4244 Z-0.0028 I0. J0.0159
G3 Y-1.4563 Z-0.005 I0. J-0.0159
G3 Y-1.4244 Z-0.0072 I0. J0.0159
G3 Y-1.4563 Z-0.0094 I0. J-0.0159
G3 Y-1.4244 Z-0.0116 I0. J0.0159
G3 Y-1.4563 Z-0.0138 I0. J-0.0159
G3 Y-1.4244 Z-0.016 I0. J0.0159
G3 Y-1.4563 Z-0.0182 I0. J-0.0159
G3 X5.0476 Y-1.4268 Z-0.02 I0. J0.0159
G3 X5.0308 Y-1.4539 I-0.0084 J-0.0135
G3 X5.0476 Y-1.4268 I0.0084 J0.0135
G3 X5.0366 Y-1.4294 I-0.0042 J-0.0068
G1 X5.0341 Y-1.4334
G1 X5.033 Y-1.4352 Z-0.0198
G1 X5.032 Y-1.4368 Z-0.0191
G1 X5.0311 Y-1.4383 Z-0.018
G1 X5.0303 Y-1.4396 Z-0.0165
G1 X5.0297 Y-1.4406 Z-0.0147
G1 X5.0293 Y-1.4411 Z-0.0127
G1 X5.0292 Y-1.4413 Z-0.0106
G1 Z0.4657
G1 X5.282 Y-1.4343
G1 Z0.1627
G1 Z0.0921 F50.
G1 Y-1.4345 Z0.09
G1 Y-1.4352 Z0.088
G1 Y-1.4363 Z0.0862
G1 Y-1.4378 Z0.0847
G1 Y-1.4396 Z0.0836
G1 Y-1.4415 Z0.0829
G1 Y-1.4436 Z0.0827
G1 Y-1.4483
G3 X5.29 Y-1.4563 I0.008 J0.
G3 Y-1.4244 Z0.0805 I0. J0.0159 F15.
G3 Y-1.4563 Z0.0783 I0. J-0.0159
G3 Y-1.4244 Z0.0761 I0. J0.0159
G3 Y-1.4563 Z0.0739 I0. J-0.0159
G3 Y-1.4244 Z0.0717 I0. J0.0159
G3 Y-1.4563 Z0.0695 I0. J-0.0159
G3 Y-1.4244 Z0.0673 I0. J0.0159
G3 Y-1.4563 Z0.0651 I0. J-0.0159
G3 Y-1.4244 Z0.0629 I0. J0.0159
G3 Y-1.4563 Z0.0607 I0. J-0.0159
G3 Y-1.4244 Z0.0586 I0. J0.0159
G3 Y-1.4563 Z0.0564 I0. J-0.0159
G3 Y-1.4244 Z0.0542 I0. J0.0159
G3 Y-1.4563 Z0.052 I0. J-0.0159
G3 Y-1.4244 Z0.0498 I0. J0.0159
G3 Y-1.4563 Z0.0476 I0. J-0.0159
G3 Y-1.4244 Z0.0454 I0. J0.0159
G3 Y-1.4563 Z0.0432 I0. J-0.0159
G3 Y-1.4244 Z0.041 I0. J0.0159
G3 Y-1.4563 Z0.0388 I0. J-0.0159
G3 Y-1.4244 Z0.0366 I0. J0.0159
G3 Y-1.4563 Z0.0344 I0. J-0.0159
G3 Y-1.4244 Z0.0322 I0. J0.0159
G3 Y-1.4563 Z0.03 I0. J-0.0159
G3 Y-1.4244 Z0.0279 I0. J0.0159
G3 Y-1.4563 Z0.0257 I0. J-0.0159
G3 Y-1.4244 Z0.0235 I0. J0.0159
G3 Y-1.4563 Z0.0213 I0. J-0.0159
G3 Y-1.4244 Z0.0191 I0. J0.0159
G3 Y-1.4563 Z0.0169 I0. J-0.0159
G3 Y-1.4244 Z0.0147 I0. J0.0159
G3 Y-1.4563 Z0.0125 I0. J-0.0159
G3 Y-1.4244 Z0.0103 I0. J0.0159
G3 Y-1.4563 Z0.0081 I0. J-0.0159
G3 Y-1.4244 Z0.0059 I0. J0.0159
G3 Y-1.4563 Z0.0037 I0. J-0.0159
G3 Y-1.4244 Z0.0015 I0. J0.0159
G3 Y-1.4563 Z-0.0007 I0. J-0.0159
G3 Y-1.4244 Z-0.0028 I0. J0.0159
G3 Y-1.4563 Z-0.005 I0. J-0.0159
G3 Y-1.4244 Z-0.0072 I0. J0.0159
G3 Y-1.4563 Z-0.0094 I0. J-0.0159
G3 Y-1.4244 Z-0.0116 I0. J0.0159
G3 Y-1.4563 Z-0.0138 I0. J-0.0159
G3 Y-1.4244 Z-0.016 I0. J0.0159
G3 Y-1.4563 Z-0.0182 I0. J-0.0159
G3 X5.2983 Y-1.4268 Z-0.02 I0. J0.0159
G3 X5.2816 Y-1.4539 I-0.0084 J-0.0135
G3 X5.2983 Y-1.4268 I0.0084 J0.0135
G3 X5.2874 Y-1.4294 I-0.0042 J-0.0068
G1 X5.2849 Y-1.4334
G1 X5.2838 Y-1.4352 Z-0.0198
G1 X5.2828 Y-1.4368 Z-0.0191
G1 X5.2818 Y-1.4383 Z-0.018
G1 X5.2811 Y-1.4396 Z-0.0165
G1 X5.2805 Y-1.4406 Z-0.0147
G1 X5.2801 Y-1.4411 Z-0.0127
G1 X5.28 Y-1.4413 Z-0.0106
G1 Z0.4657
G1 X0.9409 Y-1.5308
G1 Z0.1218
G1 Z0.0512 F50.
G1 Y-1.5309
G1 Y-1.531
G1 X0.9411 Y-1.5308 Z0.0502 F15.
G1 X0.9408 Y-1.5307 Z0.0492
G1 Y-1.531 Z0.0482
G1 X0.9411 Y-1.5309 Z0.0473
G1 X0.941 Y-1.5307 Z0.0463
G1 X0.9408 Y-1.5308 Z0.0455
G1 X0.9409 Y-1.531 Z0.0446
G1 X0.9411 Y-1.5308 Z0.0438
G1 X0.9409 Y-1.5307 Z0.0428
G1 X0.9408 Y-1.5309 Z0.0419
G1 X0.9411 Z0.0409
G1 X0.941 Y-1.5307 Z0.0399
G1 X0.9408 Y-1.5308 Z0.0389
G1 X0.9409 Y-1.531 Z0.0381
G1 X0.9411 Y-1.5308 Z0.0373
G1 X0.941 Y-1.5307 Z0.0365
G1 X0.9408 Y-1.5309 Z0.0354
G1 X0.9411 Y-1.531 Z0.0344
G1 X0.941 Y-1.5307 Z0.0334
G1 X0.9408 Y-1.5308 Z0.0323
G1 X0.941 Y-1.531 Z0.0313
G1 X0.9411 Y-1.5307 Z0.0303
G1 X0.9408 Z0.0293
G1 X0.9409 Y-1.531 Z0.0282
G1 X0.9411 Y-1.5308 Z0.0272
G1 X0.9408 Y-1.5307 Z0.0262
G1 X0.9409 Y-1.531 Z0.0252
G1 X0.9411 Y-1.5308 Z0.0241
G1 X0.9409 Y-1.5307 Z0.0231
G1 X0.9408 Y-1.5309 Z0.0221
G1 X0.9411 Z0.021
G1 X0.941 Y-1.5307 Z0.02
G1 X0.9408 Y-1.5309 Z0.019
G1 X0.9411 Y-1.531 Z0.018
G1 X0.941 Y-1.5307 Z0.0169
G1 X0.9408 Y-1.5308 Z0.0159
G1 X0.941 Y-1.531 Z0.0149
G1 X0.9411 Y-1.5307 Z0.0138
G1 X0.9408 Y-1.5308 Z0.0128
G1 X0.9409 Y-1.531 Z0.0118
G1 X0.9411 Y-1.5308 Z0.0108
G1 X0.9408 Y-1.5307 Z0.0097
G1 X0.9409 Y-1.531 Z0.0087
G1 X0.9411 Y-1.5308 Z0.0077
G1 X0.9409 Y-1.5307 Z0.0067
G1 X0.9408 Y-1.5309 Z0.0056
G1 X0.9411 Z0.0046
G1 X0.941 Y-1.5307 Z0.0036
G1 X0.9408 Y-1.5309 Z0.0025
G1 X0.9411 Y-1.531 Z0.0015
G1 X0.941 Y-1.5307 Z0.0005
G1 X0.9408 Y-1.5308 Z-0.0005
G1 X0.941 Y-1.531 Z-0.0016
G1 X0.9411 Y-1.5307 Z-0.0026
G1 X0.9408 Y-1.5308 Z-0.0036
G1 X0.9409 Y-1.531 Z-0.0046
G1 X0.9411 Y-1.5308 Z-0.0057
G1 X0.9408 Y-1.5307 Z-0.0067
G1 X0.9409 Y-1.531 Z-0.0077
G1 X0.9411 Y-1.5309 Z-0.0085
G1 X0.941 Y-1.5307 Z-0.0094
G1 X0.9408 Y-1.5308 Z-0.0102
G1 X0.9409 Y-1.531 Z-0.0112
G1 X0.9411 Y-1.5308 Z-0.0121
G1 X0.9409 Y-1.5307 Z-0.0131
G1 X0.9408 Y-1.5309 Z-0.0141
G1 X0.9411 Z-0.0151
G1 X0.941 Y-1.5307 Z-0.0161
G1 X0.9408 Y-1.5308 Z-0.0171
G1 X0.941 Y-1.531 Z-0.018
G1 X0.9411 Y-1.5307 Z-0.019
G1 X0.9408 Z-0.02
G1 X0.9409 Y-1.531
G1 X0.9411 Y-1.5309
G1 X0.941 Y-1.5307
G1 X0.9408
G1 Y-1.5309
G1 X0.9409 Y-1.5308
G1 Z0.4657
G1 X0.4572 Y-1.4643
G1 Z0.1312
G1 Z0.0606 F50.
G1 Y-1.4646 Z0.0585
G1 Y-1.4653 Z0.0565
G1 Y-1.4664 Z0.0547
G1 Y-1.4679 Z0.0532
G1 Y-1.4696 Z0.0521
G1 Y-1.4716 Z0.0514
G1 Y-1.4737 Z0.0512
G1 Y-1.4784
G3 X0.4665 Y-1.4878 I0.0094 J0.
G3 Y-1.3929 Z0.0479 I0. J0.0474 F15.
G3 Y-1.4878 Z0.0446 I0. J-0.0474
G3 Y-1.3929 Z0.0413 I0. J0.0474
G3 Y-1.4878 Z0.038 I0. J-0.0474
G3 Y-1.3929 Z0.0347 I0. J0.0474
G3 Y-1.4878 Z0.0314 I0. J-0.0474
G3 Y-1.3929 Z0.0281 I0. J0.0474
G3 Y-1.4878 Z0.0248 I0. J-0.0474
G3 Y-1.3929 Z0.0215 I0. J0.0474
G3 Y-1.4878 Z0.0183 I0. J-0.0474
G3 Y-1.3929 Z0.015 I0. J0.0474
G3 Y-1.4878 Z0.0117 I0. J-0.0474
G3 Y-1.3929 Z0.0084 I0. J0.0474
G3 Y-1.4878 Z0.0051 I0. J-0.0474
G3 Y-1.3929 Z0.0018 I0. J0.0474
G3 Y-1.4878 Z-0.0015 I0. J-0.0474
G3 Y-1.3929 Z-0.0048 I0. J0.0474
G3 Y-1.4878 Z-0.0081 I0. J-0.0474
G3 Y-1.3929 Z-0.0114 I0. J0.0474
G3 Y-1.4878 Z-0.0147 I0. J-0.0474
G3 Y-1.3929 Z-0.018 I0. J0.0474
G3 X0.4223 Y-1.4575 Z-0.02 I0. J-0.0474
G3 X0.5107 Y-1.4232 I0.0442 J0.0171
G3 X0.4223 Y-1.4575 I-0.0442 J-0.0171
G3 X0.4345 Y-1.4628 I0.0087 J0.0034
G1 X0.4388 Y-1.4611
G1 X0.4408 Y-1.4604 Z-0.0198
G1 X0.4426 Y-1.4597 Z-0.0191
G1 X0.4443 Y-1.459 Z-0.018
G1 X0.4457 Y-1.4585 Z-0.0165
G1 X0.4467 Y-1.4581 Z-0.0147
G1 X0.4473 Y-1.4578 Z-0.0127
G1 X0.4476 Z-0.0106
G1 Z0.4657
G1 X0.7355 Y-0.5937
G1 Z0.1627
G1 Z0.0921 F50.
G1 Y-0.5939 Z0.09
G1 Y-0.5946 Z0.088
G1 Y-0.5957 Z0.0862
G1 Y-0.5972 Z0.0847
G1 Y-0.599 Z0.0836
G1 Y-0.601 Z0.0829
G1 Y-0.6031 Z0.0827
G1 Y-0.6078
G3 X0.7435 Y-0.6157 I0.008 J0.
G3 Y-0.5839 Z0.0805 I0. J0.0159 F15.
G3 Y-0.6157 Z0.0783 I0. J-0.0159
G3 Y-0.5839 Z0.0761 I0. J0.0159
G3 Y-0.6157 Z0.0739 I0. J-0.0159
G3 Y-0.5839 Z0.0717 I0. J0.0159
G3 Y-0.6157 Z0.0695 I0. J-0.0159
G3 Y-0.5839 Z0.0673 I0. J0.0159
G3 Y-0.6157 Z0.0651 I0. J-0.0159
G3 Y-0.5839 Z0.0629 I0. J0.0159
G3 Y-0.6157 Z0.0607 I0. J-0.0159
G3 Y-0.5839 Z0.0586 I0. J0.0159
G3 Y-0.6157 Z0.0564 I0. J-0.0159
G3 Y-0.5839 Z0.0542 I0. J0.0159
G3 Y-0.6157 Z0.052 I0. J-0.0159
G3 Y-0.5839 Z0.0498 I0. J0.0159
G3 Y-0.6157 Z0.0476 I0. J-0.0159
G3 Y-0.5839 Z0.0454 I0. J0.0159
G3 Y-0.6157 Z0.0432 I0. J-0.0159
G3 Y-0.5839 Z0.041 I0. J0.0159
G3 Y-0.6157 Z0.0388 I0. J-0.0159
G3 Y-0.5839 Z0.0366 I0. J0.0159
G3 Y-0.6157 Z0.0344 I0. J-0.0159
G3 Y-0.5839 Z0.0322 I0. J0.0159
G3 Y-0.6157 Z0.03 I0. J-0.0159
G3 Y-0.5839 Z0.0279 I0. J0.0159
G3 Y-0.6157 Z0.0257 I0. J-0.0159
G3 Y-0.5839 Z0.0235 I0. J0.0159
G3 Y-0.6157 Z0.0213 I0. J-0.0159
G3 Y-0.5839 Z0.0191 I0. J0.0159
G3 Y-0.6157 Z0.0169 I0. J-0.0159
G3 Y-0.5839 Z0.0147 I0. J0.0159
G3 Y-0.6157 Z0.0125 I0. J-0.0159
G3 Y-0.5839 Z0.0103 I0. J0.0159
G3 Y-0.6157 Z0.0081 I0. J-0.0159
G3 Y-0.5839 Z0.0059 I0. J0.0159
G3 Y-0.6157 Z0.0037 I0. J-0.0159
G3 Y-0.5839 Z0.0015 I0. J0.0159
G3 Y-0.6157 Z-0.0007 I0. J-0.0159
G3 Y-0.5839 Z-0.0028 I0. J0.0159
G3 Y-0.6157 Z-0.005 I0. J-0.0159
G3 Y-0.5839 Z-0.0072 I0. J0.0159
G3 Y-0.6157 Z-0.0094 I0. J-0.0159
G3 Y-0.5839 Z-0.0116 I0. J0.0159
G3 Y-0.6157 Z-0.0138 I0. J-0.0159
G3 Y-0.5839 Z-0.016 I0. J0.0159
G3 Y-0.6157 Z-0.0182 I0. J-0.0159
G3 X0.7519 Y-0.5863 Z-0.02 I0. J0.0159
G3 X0.7351 Y-0.6133 I-0.0084 J-0.0135
G3 X0.7519 Y-0.5863 I0.0084 J0.0135
G3 X0.7409 Y-0.5888 I-0.0042 J-0.0068
G1 X0.7385 Y-0.5928
G1 X0.7374 Y-0.5946 Z-0.0198
G1 X0.7363 Y-0.5963 Z-0.0191
G1 X0.7354 Y-0.5978 Z-0.018
G1 X0.7346 Y-0.5991 Z-0.0165
G1 X0.734 Y-0.6 Z-0.0147
G1 X0.7336 Y-0.6006 Z-0.0127
G1 X0.7335 Y-0.6008 Z-0.0106
G1 Z0.4657
G1 X0.9863 Y-0.5937
G1 Z0.1627
G1 Z0.0921 F50.
G1 Y-0.5939 Z0.09
G1 Y-0.5946 Z0.088
G1 Y-0.5957 Z0.0862
G1 Y-0.5972 Z0.0847
G1 Y-0.599 Z0.0836
G1 Y-0.601 Z0.0829
G1 Y-0.6031 Z0.0827
G1 Y-0.6078
G3 X0.9943 Y-0.6157 I0.008 J0.
G3 Y-0.5839 Z0.0805 I0. J0.0159 F15.
G3 Y-0.6157 Z0.0783 I0. J-0.0159
G3 Y-0.5839 Z0.0761 I0. J0.0159
G3 Y-0.6157 Z0.0739 I0. J-0.0159
G3 Y-0.5839 Z0.0717 I0. J0.0159
G3 Y-0.6157 Z0.0695 I0. J-0.0159
G3 Y-0.5839 Z0.0673 I0. J0.0159
G3 Y-0.6157 Z0.0651 I0. J-0.0159
G3 Y-0.5839 Z0.0629 I0. J0.0159
G3 Y-0.6157 Z0.0607 I0. J-0.0159
G3 Y-0.5839 Z0.0586 I0. J0.0159
G3 Y-0.6157 Z0.0564 I0. J-0.0159
G3 Y-0.5839 Z0.0542 I0. J0.0159
G3 Y-0.6157 Z0.052 I0. J-0.0159
G3 Y-0.5839 Z0.0498 I0. J0.0159
G3 Y-0.6157 Z0.0476 I0. J-0.0159
G3 Y-0.5839 Z0.0454 I0. J0.0159
G3 Y-0.6157 Z0.0432 I0. J-0.0159
G3 Y-0.5839 Z0.041 I0. J0.0159
G3 Y-0.6157 Z0.0388 I0. J-0.0159
G3 Y-0.5839 Z0.0366 I0. J0.0159
G3 Y-0.6157 Z0.0344 I0. J-0.0159
G3 Y-0.5839 Z0.0322 I0. J0.0159
G3 Y-0.6157 Z0.03 I0. J-0.0159
G3 Y-0.5839 Z0.0279 I0. J0.0159
G3 Y-0.6157 Z0.0257 I0. J-0.0159
G3 Y-0.5839 Z0.0235 I0. J0.0159
G3 Y-0.6157 Z0.0213 I0. J-0.0159
G3 Y-0.5839 Z0.0191 I0. J0.0159
G3 Y-0.6157 Z0.0169 I0. J-0.0159
G3 Y-0.5839 Z0.0147 I0. J0.0159
G3 Y-0.6157 Z0.0125 I0. J-0.0159
G3 Y-0.5839 Z0.0103 I0. J0.0159
G3 Y-0.6157 Z0.0081 I0. J-0.0159
G3 Y-0.5839 Z0.0059 I0. J0.0159
G3 Y-0.6157 Z0.0037 I0. J-0.0159
G3 Y-0.5839 Z0.0015 I0. J0.0159
G3 Y-0.6157 Z-0.0007 I0. J-0.0159
G3 Y-0.5839 Z-0.0028 I0. J0.0159
G3 Y-0.6157 Z-0.005 I0. J-0.0159
G3 Y-0.5839 Z-0.0072 I0. J0.0159
G3 Y-0.6157 Z-0.0094 I0. J-0.0159
G3 Y-0.5839 Z-0.0116 I0. J0.0159
G3 Y-0.6157 Z-0.0138 I0. J-0.0159
G3 Y-0.5839 Z-0.016 I0. J0.0159
G3 Y-0.6157 Z-0.0182 I0. J-0.0159
G3 X1.0027 Y-0.5863 Z-0.02 I0. J0.0159
G3 X0.9859 Y-0.6133 I-0.0084 J-0.0135
G3 X1.0027 Y-0.5863 I0.0084 J0.0135
G3 X0.9917 Y-0.5888 I-0.0042 J-0.0068
G1 X0.9892 Y-0.5928
G1 X0.9881 Y-0.5946 Z-0.0198
G1 X0.9871 Y-0.5963 Z-0.0191
G1 X0.9862 Y-0.5978 Z-0.018
G1 X0.9854 Y-0.5991 Z-0.0165
G1 X0.9848 Y-0.6 Z-0.0147
G1 X0.9844 Y-0.6006 Z-0.0127
G1 X0.9843 Y-0.6008 Z-0.0106
G1 Z0.8657
M5 M9

G30
M30
%
