%
(1 rough scallop)
(T256 D=0.25 CR=0.125 - ZMIN=-0.2274 - ball end mill)
G90 G54 G64 G50 G17 G40 G80 G94 G91.1 G49
G20 (Inch)
G30
(When using Fusion for Personal Use, the feedrate of rapid)
(moves is reduced to match the feedrate of cutting moves,)
(which can increase machining time. Unrestricted rapid moves)
(are available with a Fusion Subscription.)

N10 (1 rough scallop)
T256 G43 H256 M6
S5140 M3 M8
G17 G90 G94
G54
G0 X4.8512 Y-1.2903
G0 Z0.6
G1 Z-0.0453 F30.
G1 Z-0.1013 F13.333
G1 X4.8509 Z-0.1052 F30.
G1 X4.85 Z-0.109
G1 X4.8485 Y-1.2904 Z-0.1126
G1 X4.8465 Z-0.1159
G1 X4.844 Z-0.1189
G1 X4.8411 Y-1.2905 Z-0.1214
G1 X4.8377 Z-0.1235
G1 X4.8342 Y-1.2906 Z-0.125
G1 X4.8304 Z-0.1259
G1 X4.8265 Y-1.2907 Z-0.1263
G1 X4.8256
G1 X4.8247 Y-1.2913 Z-0.1262
G1 X4.8312 Y-1.3023 Z-0.1246
G1 X4.8361 Y-1.3114 Z-0.1233
G1 X4.8403 Y-1.3205 Z-0.1221
G1 X4.8442 Y-1.3296 Z-0.1211
G1 X4.8517 Y-1.3477 Z-0.1191
G1 X4.8553 Y-1.3568 Z-0.1182
G1 X4.8584 Y-1.3659 Z-0.1177
G1 X4.8613 Y-1.375 Z-0.117
G1 X4.8637 Y-1.3841 Z-0.1164
G1 X4.8657 Y-1.3932 Z-0.1158
G1 X4.8673 Y-1.4022 Z-0.1155
G1 X4.8684 Y-1.4113 Z-0.1152
G1 X4.8694 Y-1.4204 Z-0.1151
G1 X4.8698 Y-1.4295 Z-0.1149
G1 X4.8699 Y-1.4386 Z-0.1148
G1 X4.8695 Y-1.4477 Z-0.1149
G1 X4.869 Y-1.4568 Z-0.1151
G1 X4.8681 Y-1.4658 Z-0.1153
G1 X4.8667 Y-1.4749 Z-0.1156
G1 X4.865 Y-1.484 Z-0.116
G1 X4.8643 Y-1.4871 Z-0.1162
G1 X4.8603 Y-1.5022 Z-0.1172
G1 X4.8572 Y-1.5113 Z-0.1178
G1 X4.8538 Y-1.5203 Z-0.1186
G1 X4.8461 Y-1.5391 Z-0.1206
G1 X4.8426 Y-1.5476 Z-0.1215
G1 X4.8385 Y-1.5567 Z-0.1226
G1 X4.834 Y-1.5658 Z-0.1239
G1 X4.8291 Y-1.5748 Z-0.1252
G1 X4.8252 Y-1.5811 Z-0.1262
G1 X4.8248 Y-1.5818 Z-0.1263
G1 X4.8251 Y-1.5825 Z-0.1264
G1 X5.1285 Y-1.5868 Z-0.124
G1 X5.4565 Y-1.5913 Z-0.1215
G1 X5.6488 Y-1.594 Z-0.1202
G1 X5.6493 Y-1.593 Z-0.1201
G1 Y-1.5748 Z-0.1173
G1 Y-1.5658 Z-0.1161
G1 Y-1.5385 Z-0.113
G1 Y-1.5203 Z-0.1114
G1 Y-1.5022 Z-0.1099
G1 Y-1.4749 Z-0.1086
G1 Y-1.4658 Z-0.1083
G1 Y-1.4386 Z-0.1078
G1 Y-1.4204 Z-0.108
G1 Y-1.4022 Z-0.1084
G1 Y-1.375 Z-0.1097
G1 Y-1.3659 Z-0.1103
G1 Y-1.3387 Z-0.1126
G1 Y-1.3114 Z-0.1157
G1 Y-1.3023 Z-0.1168
G1 Y-1.2798 Z-0.1201
G1 X5.6485 Y-1.2793 Z-0.1202
G1 X5.3016 Y-1.284 Z-0.1227
G1 X4.837 Y-1.2905 Z-0.1262
G1 X4.8265 Y-1.2907 Z-0.1263
G1 X4.8094 Y-1.2908 Z-0.1264
G1 X4.7923 Y-1.2905 Z-0.1265
G1 X4.7753 Y-1.2901 Z-0.1268
G1 X4.7582 Y-1.2896 Z-0.1272
G1 X4.7525 Y-1.2894 Z-0.1273
G1 X4.7468 Y-1.2893 Z-0.1276
G1 X4.7355 Y-1.2889 Z-0.1285
G1 X4.7184 Y-1.2886 Z-0.1298
G1 X4.7071 Y-1.2884 Z-0.1308
G1 X4.6957 Z-0.132
G1 X4.6844 Y-1.2885 Z-0.1333
G1 X4.6731 Y-1.2888 Z-0.1346
G1 X4.6617 Y-1.2893 Z-0.1359
G1 X4.6561 Y-1.2897 Z-0.1365
G1 X4.6504 Y-1.29 Z-0.137
G1 X4.6447 Y-1.2905 Z-0.1374
G1 X4.6396 Y-1.291 Z-0.1378
G1 X4.6344 Y-1.2916 Z-0.1381
G1 X4.6293 Y-1.2923 Z-0.1384
G1 X4.6242 Y-1.293 Z-0.1387
G1 X4.6191 Y-1.2939 Z-0.139
G1 X4.614 Y-1.2948 Z-0.1393
G1 X4.6089 Y-1.2959 Z-0.1395
G1 X4.6039 Y-1.297 Z-0.1397
G1 X4.5989 Y-1.2982 Z-0.1399
G1 X4.5939 Y-1.2996 Z-0.1401
G1 X4.5889 Y-1.301 Z-0.1403
G1 X4.584 Y-1.3026 Z-0.1404
G1 X4.5791 Y-1.3042 Z-0.1405
G1 X4.5742 Y-1.306 Z-0.1406
G1 X4.5694 Y-1.3079
G1 X4.5646 Y-1.3099
G1 X4.56 Y-1.3119
G1 X4.5555 Y-1.3141 Z-0.1405
G1 X4.5511 Y-1.3164 Z-0.1404
G1 X4.5467 Y-1.3189 Z-0.1403
G1 X4.5424 Y-1.3215 Z-0.1401
G1 X4.5382 Y-1.3242 Z-0.1399
G1 X4.534 Y-1.3271 Z-0.1396
G1 X4.53 Y-1.3301 Z-0.1393
G1 X4.5262 Y-1.3332 Z-0.139
G1 X4.5224 Y-1.3364 Z-0.1386
G1 X4.5188 Y-1.3398 Z-0.1381
G1 X4.5154 Y-1.3434 Z-0.1376
G1 X4.5121 Y-1.3471 Z-0.1371
G1 X4.509 Y-1.3509 Z-0.1364
G1 X4.5062 Y-1.3549 Z-0.1358
G1 X4.5035 Y-1.3591 Z-0.135
G1 X4.4994 Y-1.3659 Z-0.1338
G1 X4.4953 Y-1.375 Z-0.1327
G1 X4.4908 Y-1.3859 Z-0.132
G1 X4.4841 Y-1.4022 Z-0.131
G1 X4.4817 Y-1.409 Z-0.1308
G1 X4.481 Y-1.4113
G1 X4.4789 Y-1.4204 Z-0.1311
G1 X4.4778 Y-1.4295 Z-0.132
G1 X4.4776 Y-1.434 Z-0.1327
G1 X4.4775 Y-1.4367 Z-0.1331
G1 X4.4776 Y-1.4386 Z-0.1328
G1 X4.4782 Y-1.4477 Z-0.1316
G1 X4.4798 Y-1.4568 Z-0.1309
G1 X4.4817 Y-1.464 Z-0.1308
G1 X4.4823 Y-1.4658 Z-0.1309
G1 X4.4856 Y-1.4749 Z-0.1312
G1 X4.4932 Y-1.4931 Z-0.1323
G1 X4.497 Y-1.5022 Z-0.1332
G1 X4.4999 Y-1.5081 Z-0.1339
G1 X4.5016 Y-1.5113 Z-0.1344
G1 X4.5076 Y-1.5203 Z-0.1364
G1 X4.509 Y-1.5222 Z-0.1368
G1 X4.5154 Y-1.5294 Z-0.1392
G1 X4.5181 Y-1.5322 Z-0.1403
G1 X4.5257 Y-1.5389 Z-0.1439
G1 X4.5272 Y-1.54 Z-0.1438
G1 X4.5363 Y-1.5463 Z-0.1434
G1 X4.5388 Y-1.5476 Z-0.1435
G1 X4.5455 Y-1.551 Z-0.1437
G1 X4.559 Y-1.5567 Z-0.1445
G1 X4.5728 Y-1.5624 Z-0.1455
G1 X4.5819 Y-1.5658 Z-0.1463
G1 X4.591 Y-1.5683 Z-0.1475
G1 X4.6001 Y-1.5699 Z-0.1491
G1 X4.6092 Y-1.5706 Z-0.151
G1 X4.6106 Z-0.1513
G1 X4.6138 Z-0.1505
G1 X4.6183 Y-1.5704 Z-0.1493
G1 X4.6274 Y-1.5694 Z-0.1474
G1 X4.6366 Y-1.5673 Z-0.1458
G1 X4.6418 Y-1.5658 Z-0.1451
G1 X4.6457 Y-1.5643 Z-0.1447
G1 X4.6548 Y-1.5606 Z-0.1437
G1 X4.673 Y-1.5531 Z-0.1422
G1 X4.6821 Y-1.5489 Z-0.1416
G1 X4.6845 Y-1.5476 Z-0.1415
G1 X4.6912 Y-1.5435 Z-0.1414
G1 X4.6964 Y-1.5397 Z-0.1415
G1 X4.6979 Y-1.5385 Z-0.1407
G1 X4.7003 Y-1.5364 Z-0.1396
G1 X4.7078 Y-1.5294 Z-0.1362
G1 X4.7094 Y-1.5278 Z-0.1355
G1 X4.7156 Y-1.5203 Z-0.1333
G1 X4.7185 Y-1.5162 Z-0.1323
G1 X4.7217 Y-1.5113 Z-0.1313
G1 X4.7263 Y-1.5022 Z-0.1299
G1 X4.7277 Y-1.4991 Z-0.1295
G1 X4.7301 Y-1.4931 Z-0.129
G1 X4.7377 Y-1.4749 Z-0.1278
G1 X4.7411 Y-1.4658 Z-0.1273
G1 X4.7435 Y-1.4568
G1 X4.745 Y-1.4477 Z-0.128
G1 X4.7457 Y-1.4374 Z-0.1293
G1 Y-1.4366 Z-0.1295
G1 X4.7454 Y-1.4295 Z-0.1284
G1 X4.7442 Y-1.4204 Z-0.1276
G1 X4.7422 Y-1.4113 Z-0.1273
G1 X4.7392 Y-1.4022 Z-0.1276
G1 X4.7355 Y-1.3932 Z-0.1281
G1 X4.7318 Y-1.3841 Z-0.1287
G1 X4.7277 Y-1.3742 Z-0.1295
G1 X4.7238 Y-1.3659 Z-0.1306
G1 X4.7184 Y-1.3568 Z-0.1323
G1 X4.7114 Y-1.3477 Z-0.1348
G1 X4.7094 Y-1.3455 Z-0.1355
G1 X4.7024 Y-1.3387 Z-0.1385
G1 X4.6981 Y-1.3348 Z-0.1407
G1 X4.6962 Y-1.3334 Z-0.1416
G1 X4.6909 Y-1.3296 Z-0.1414
G1 X4.6821 Y-1.3243 Z-0.1416
G1 X4.673 Y-1.3201 Z-0.1422
G1 X4.6519 Y-1.3114 Z-0.144
G1 X4.6457 Y-1.3089 Z-0.1446
G1 X4.6366 Y-1.3059 Z-0.1458
G1 X4.6274 Y-1.3038 Z-0.1474
G1 X4.6183 Y-1.3028 Z-0.1493
G1 X4.6138 Y-1.3025 Z-0.1504
G1 X4.6105 Z-0.1513
G1 X4.6092 Z-0.151
G1 X4.6001 Y-1.3032 Z-0.149
G1 X4.591 Y-1.3048 Z-0.1475
G1 X4.5819 Y-1.3073 Z-0.1463
G1 X4.5714 Y-1.3114 Z-0.1454
G1 X4.5495 Y-1.3205 Z-0.1439
G1 X4.5455 Y-1.3223 Z-0.1437
G1 X4.5363 Y-1.327 Z-0.1434
G1 X4.5322 Y-1.3296 Z-0.1435
G1 X4.5272 Y-1.3331 Z-0.1437
G1 X4.5257 Y-1.3343 Z-0.1439
G1 X4.5239 Y-1.3357 Z-0.143
G1 X4.5206 Y-1.3387 Z-0.1414
G1 X4.5181 Y-1.341 Z-0.1403
G1 X4.5117 Y-1.3477 Z-0.1378
G1 X4.509 Y-1.3511 Z-0.1368
G1 X4.5049 Y-1.3568 Z-0.1354
G1 X4.5035 Y-1.3591 Z-0.135
G1 X4.5023 Y-1.3608 Z-0.1346
G1 X4.5009 Y-1.3624 Z-0.1342
G1 X4.4994 Y-1.3639 Z-0.1336
G1 X4.4978 Y-1.3652 Z-0.1331
G1 X4.4961 Y-1.3664 Z-0.1324
G1 X4.4943 Y-1.3674 Z-0.1318
G1 X4.4924 Y-1.3683 Z-0.1311
G1 X4.4905 Y-1.3691 Z-0.1304
G1 X4.4863 Y-1.3704 Z-0.129
G1 X4.4842 Y-1.3708 Z-0.1283
G1 X4.4821 Y-1.3712 Z-0.1277
G1 X4.4778 Y-1.3717 Z-0.1264
G1 X4.4756 Z-0.1259
G1 X4.4734 Z-0.1254
G1 X4.464 Y-1.3709 Z-0.1235
G1 X4.4593 Y-1.3701 Z-0.1227
G1 X4.4547 Y-1.369 Z-0.1222
G1 X4.4501 Y-1.3677 Z-0.1219
G1 X4.4455 Y-1.3662 Z-0.1218
G1 X4.4411 Y-1.3644
G1 X4.4368 Y-1.3624 Z-0.122
G1 X4.4316 Y-1.3597 Z-0.1218
G1 X4.4265 Y-1.3569
G1 X4.4215 Y-1.354 Z-0.1219
G1 X4.4166 Y-1.351 Z-0.1221
G1 X4.4117 Y-1.3479 Z-0.1224
G1 X4.4069 Y-1.3446 Z-0.1227
G1 X4.4022 Y-1.3413 Z-0.1232
G1 X4.3976 Y-1.3379 Z-0.1237
G1 X4.393 Y-1.3343 Z-0.1243
G1 X4.3885 Y-1.3307 Z-0.1249
G1 X4.384 Y-1.327 Z-0.1255
G1 X4.3797 Y-1.3232 Z-0.1261
G1 X4.3753 Y-1.3194 Z-0.1267
G1 X4.3711 Y-1.3155 Z-0.1274
G1 X4.3669 Y-1.3114 Z-0.128
G1 X4.3628 Y-1.3074 Z-0.1286
G1 X4.3523 Y-1.2965 Z-0.1301
G1 X4.3419 Y-1.2855 Z-0.1319
G1 X4.3264 Y-1.269 Z-0.1348
G1 X4.3161 Y-1.2581 Z-0.1369
G1 X4.3055 Y-1.2474 Z-0.1391
G1 X4.3002 Y-1.2421 Z-0.1403
G1 X4.2948 Y-1.2369 Z-0.1414
G1 X4.2893 Y-1.2317 Z-0.1426
G1 X4.2837 Y-1.2267 Z-0.1438
G1 X4.2781 Y-1.2218 Z-0.1449
G1 X4.2726 Y-1.2173 Z-0.146
G1 X4.267 Y-1.2129 Z-0.1471
G1 X4.2612 Y-1.2087 Z-0.1482
G1 X4.2554 Y-1.2046 Z-0.1493
G1 X4.2494 Y-1.2008 Z-0.1503
G1 X4.2432 Y-1.1971 Z-0.1513
G1 X4.237 Y-1.1937 Z-0.1523
G1 X4.2306 Y-1.1906 Z-0.1532
G1 X4.2241 Y-1.1877 Z-0.154
G1 X4.2176 Y-1.1851 Z-0.1548
G1 X4.2109 Y-1.1829 Z-0.1555
G1 X4.2041 Y-1.181 Z-0.1562
G1 X4.1972 Y-1.1795 Z-0.1568
G1 X4.1902 Y-1.1784 Z-0.1572
G1 X4.1832 Y-1.1777 Z-0.1576
G1 X4.1762 Y-1.1776 Z-0.1577
G1 X2.0401 Y-1.2069 Z-0.1722
G1 X0.4914 Y-1.2282 Z-0.183
G1 X0.4641 Y-1.2289 Z-0.1831
G1 X0.455 Y-1.2291
G1 X0.4455 Y-1.2296
G1 X0.4367 Y-1.2307 Z-0.1832
G1 X0.4276 Y-1.2322 Z-0.1831
G1 X0.4185 Y-1.2339 Z-0.1832
G1 X0.4094 Y-1.2361
G1 X0.4003 Y-1.2389
G1 X0.3912 Y-1.2421 Z-0.1831
G1 X0.3821 Y-1.2459
G1 X0.3777 Y-1.2478 Z-0.1832
G1 X0.373 Y-1.25
G1 X0.3599 Y-1.2569
G1 X0.3547 Y-1.2601 Z-0.1831
G1 X0.3456 Y-1.266 Z-0.1832
G1 X0.3365 Y-1.2729 Z-0.1831
G1 X0.3338 Y-1.2751
G1 X0.3274 Y-1.2803 Z-0.1832
G1 X0.3233 Y-1.2842 Z-0.1831
G1 X0.3183 Y-1.289
G1 X0.3141 Y-1.2932 Z-0.1832
G1 X0.3092 Y-1.2985 Z-0.1831
G1 X0.3057 Y-1.3023 Z-0.1832
G1 X0.3001 Y-1.3096
G1 X0.291 Y-1.3226 Z-0.1831
G1 X0.2863 Y-1.3296 Z-0.1832
G1 X0.2812 Y-1.3387
G1 X0.2765 Y-1.3477
G1 X0.2726 Y-1.3568
G1 X0.269 Y-1.3659
G1 X0.2661 Y-1.375
G1 X0.2633 Y-1.3841
G1 X0.2613 Y-1.3932
G1 X0.2595 Y-1.4022
G1 X0.2583 Y-1.4113 Z-0.1831
G1 X0.2575 Y-1.4204
G1 X0.2569 Y-1.4295
G1 Y-1.4386
G1 X0.257 Y-1.4477
G1 X0.2575 Y-1.4568 Z-0.1832
G1 X0.2588 Y-1.4658 Z-0.1831
G1 X0.2602 Y-1.4749 Z-0.1832
G1 X0.2622 Y-1.484 Z-0.1831
G1 X0.2636 Y-1.4901 Z-0.1832
G1 X0.2673 Y-1.5022 Z-0.1831
G1 X0.2705 Y-1.5113 Z-0.1832
G1 X0.2742 Y-1.5203
G1 X0.2787 Y-1.5294 Z-0.1831
G1 X0.2819 Y-1.5354
G1 X0.2836 Y-1.5385
G1 X0.2889 Y-1.5476
G1 X0.291 Y-1.551 Z-0.1832
G1 X0.2948 Y-1.5567 Z-0.1831
G1 X0.3017 Y-1.5658 Z-0.1832
G1 X0.3093 Y-1.5748 Z-0.1831
G1 X0.3184 Y-1.5839
G1 X0.3277 Y-1.593 Z-0.1832
G1 X0.3365 Y-1.6004 Z-0.1831
G1 X0.3388 Y-1.6021
G1 X0.3456 Y-1.6072 Z-0.1832
G1 X0.3519 Y-1.6112 Z-0.1831
G1 X0.3547 Y-1.613
G1 X0.3639 Y-1.6184 Z-0.1832
G1 X0.373 Y-1.6233
G1 X0.3821 Y-1.6274
G1 X0.3867 Y-1.6294 Z-0.1831
G1 X0.3912 Y-1.6312 Z-0.1832
G1 X0.4003 Y-1.6343
G1 X0.4094 Y-1.6369 Z-0.1831
G1 X0.4185 Y-1.6392
G1 X0.4276 Y-1.6413 Z-0.1832
G1 X0.4367 Y-1.6426
G1 X0.4458 Y-1.6436 Z-0.1831
G1 X0.455 Y-1.6441
G1 X0.4823 Y-1.6449 Z-0.183
G1 X0.5005 Y-1.6452 Z-0.1829
G1 X2.5048 Y-1.6727 Z-0.169
G1 X5.1194 Y-1.7086 Z-0.1513
G1 X5.6933 Y-1.7165 Z-0.1475
G1 X5.7025 Y-1.7166 Z-0.1477
G1 X5.7116 Y-1.7168 Z-0.1485
G1 X5.7207 Y-1.7169 Z-0.1498
G1 X5.7298 Y-1.717 Z-0.1513
G1 X5.7389 Y-1.7171 Z-0.1535
G1 X5.7435 Y-1.7168 Z-0.1547
G1 X5.7469 Y-1.7164 Z-0.1555
G1 X5.7537 Y-1.7142 Z-0.1569
G1 X5.7548 Y-1.7136 Z-0.1571
G1 X5.7606 Y-1.7099 Z-0.1582
G1 X5.7615 Y-1.7091 Z-0.1583
G1 X5.7624 Y-1.7082 Z-0.1584
G1 X5.7662 Y-1.7041 Z-0.1589
G1 X5.769 Y-1.6998
G1 X5.7697 Y-1.6986 Z-0.1588
G1 X5.7701 Y-1.6975
G1 X5.7722 Y-1.6912 Z-0.1581
G1 X5.7726 Y-1.6884 Z-0.1575
G1 X5.773 Y-1.6839 Z-0.1565
G1 Y-1.6657 Z-0.152
G1 Y-1.6384 Z-0.1461
G1 Y-1.6294 Z-0.1442
G1 Y-1.6021 Z-0.1392
G1 Y-1.5748 Z-0.135
G1 Y-1.5658 Z-0.1338
G1 Y-1.5476 Z-0.1316
G1 Y-1.5294 Z-0.1297
G1 Y-1.5203 Z-0.1289
G1 Y-1.4931 Z-0.127
G1 Y-1.4749 Z-0.1261
G1 Y-1.4658 Z-0.1258
G1 Y-1.4477 Z-0.1254
G1 Y-1.4204 Z-0.1255
G1 Y-1.4022 Z-0.126
G1 Y-1.3932 Z-0.1263
G1 Y-1.375 Z-0.1273
G1 Y-1.3659 Z-0.1279
G1 Y-1.3477 Z-0.1293
G1 Y-1.3205 Z-0.1321
G1 Y-1.3023 Z-0.1345
G1 Y-1.2932 Z-0.1358
G1 Y-1.2751 Z-0.1386
G1 Y-1.2569 Z-0.1418
G1 Y-1.2478 Z-0.1434
G1 Y-1.2296 Z-0.1471
G1 Y-1.2206 Z-0.1491
G1 Y-1.2024 Z-0.1533
G1 Y-1.1933 Z-0.1556
G1 X5.7725 Y-1.1842 Z-0.1577
G1 X5.7721 Y-1.1817 Z-0.1581
G1 X5.7699 Y-1.1751 Z-0.1588
G1 X5.7696 Y-1.1744
G1 X5.7682 Y-1.1722
G1 X5.7662 Y-1.1692
G1 X5.7651 Y-1.1677
G1 X5.7635 Y-1.1661 Z-0.1586
G1 X5.7603 Y-1.1631 Z-0.1581
G1 X5.7571 Y-1.161 Z-0.1575
G1 X5.7548 Y-1.1596 Z-0.1571
G1 X5.7537 Y-1.1591 Z-0.1569
G1 X5.7466 Y-1.1568 Z-0.1554
G1 X5.7431 Y-1.1564 Z-0.1545
G1 X5.7389 Y-1.1562 Z-0.1534
G1 X5.7298 Z-0.1513
G1 X5.7207 Y-1.1564 Z-0.1497
G1 X5.7116 Y-1.1565 Z-0.1485
G1 X5.7025 Y-1.1566 Z-0.1477
G1 X5.6933 Y-1.1567 Z-0.1474
G1 X5.6478 Y-1.1574 Z-0.1478
G1 X4.1762 Y-1.1776 Z-0.1577
G1 X4.1744 Y-1.1777
G1 X4.1727 Y-1.178 Z-0.1576
G1 X4.1711 Y-1.1784 Z-0.1575
G1 X4.1694 Y-1.179 Z-0.1573
G1 X4.1678 Y-1.1796 Z-0.1571
G1 X4.1663 Y-1.1804 Z-0.1568
G1 X4.1648 Y-1.1813 Z-0.1565
G1 X4.1634 Y-1.1823 Z-0.1563
G1 X4.1606 Y-1.1845 Z-0.1556
G1 X4.1581 Y-1.187 Z-0.1549
G1 X4.1558 Y-1.1896 Z-0.1542
G1 X4.1538 Y-1.1925 Z-0.1535
G1 X4.1518 Y-1.1957 Z-0.1526
G1 X4.15 Y-1.199 Z-0.1518
G1 X4.147 Y-1.2059 Z-0.1501
G1 X4.1458 Y-1.2095 Z-0.1492
G1 X4.1448 Y-1.2131 Z-0.1484
G1 X4.1433 Y-1.2205 Z-0.1466
G1 X4.1424 Y-1.2294 Z-0.1446
G1 X4.1419 Y-1.2383 Z-0.1427
G1 Y-1.2473 Z-0.1408
G1 X4.1423 Y-1.2562 Z-0.1391
G1 X4.1431 Y-1.2652 Z-0.1374
G1 X4.1444 Y-1.2741 Z-0.1358
G1 X4.1462 Y-1.2829 Z-0.1343
G1 X4.1483 Y-1.2917 Z-0.133
G1 X4.1516 Y-1.3034 Z-0.1312
G1 X4.1533 Y-1.3093 Z-0.1304
G1 X4.1569 Y-1.3209 Z-0.1289
G1 X4.1625 Y-1.3384 Z-0.1269
G1 X4.1681 Y-1.3558 Z-0.1252
G1 X4.1718 Y-1.3675 Z-0.1242
G1 X4.1752 Y-1.3793 Z-0.1234
G1 X4.1784 Y-1.391 Z-0.1227
G1 X4.1799 Y-1.3969 Z-0.1225
G1 X4.1812 Y-1.4028 Z-0.1222
G1 X4.1825 Y-1.4087 Z-0.122
G1 X4.1837 Y-1.4146 Z-0.1218
G1 X4.1847 Y-1.4205 Z-0.1217
G1 X4.1856 Y-1.4265 Z-0.1216
G1 X4.1864 Y-1.4325
G1 X4.187 Y-1.4384 Z-0.1215
G1 X4.1875 Y-1.4444 Z-0.1216
G1 X4.1878 Y-1.4504 Z-0.1217
G1 X4.188 Y-1.4564 Z-0.1218
G1 X4.1879 Y-1.4624 Z-0.1219
G1 X4.1877 Y-1.4684 Z-0.1221
G1 X4.1872 Y-1.4744 Z-0.1223
G1 X4.1865 Y-1.4804 Z-0.1226
G1 X4.186 Y-1.484 Z-0.1227
G1 X4.1844 Y-1.4931 Z-0.1232
G1 X4.1823 Y-1.5022 Z-0.1238
G1 X4.181 Y-1.5075 Z-0.1242
G1 X4.18 Y-1.5113 Z-0.1245
G1 X4.177 Y-1.5203 Z-0.1253
G1 X4.1739 Y-1.5294 Z-0.1262
G1 X4.1719 Y-1.5342 Z-0.1267
G1 X4.1658 Y-1.5476 Z-0.1283
G1 X4.1628 Y-1.5536 Z-0.129
G1 X4.1611 Y-1.5567 Z-0.1294
G1 X4.1557 Y-1.5658 Z-0.1306
G1 X4.1512 Y-1.5728 Z-0.1317
G1 X4.1526 Y-1.5731
G1 X4.3926 Y-1.5765 Z-0.1298
G1 X4.3948 Y-1.576 Z-0.1297
G1 X4.3906 Y-1.5685 Z-0.1286
G1 X4.3891 Y-1.5658 Z-0.1283
G1 X4.3847 Y-1.5567 Z-0.1271
G1 X4.3807 Y-1.5476 Z-0.1261
G1 X4.3769 Y-1.5385 Z-0.1251
G1 X4.3694 Y-1.5203 Z-0.1234
G1 X4.3661 Y-1.5113 Z-0.1227
G1 X4.363 Y-1.5022 Z-0.1221
G1 X4.3605 Y-1.4931 Z-0.1214
G1 X4.3582 Y-1.484 Z-0.121
G1 X4.3565 Y-1.4749 Z-0.1206
G1 X4.355 Y-1.4658 Z-0.1203
G1 X4.3541 Y-1.4568 Z-0.1201
G1 X4.3536 Y-1.4477 Z-0.12
G1 X4.3533 Y-1.4386 Z-0.1199
G1 Y-1.4295 Z-0.12
G1 X4.3537 Y-1.4204 Z-0.1202
G1 X4.3546 Y-1.4113 Z-0.1203
G1 X4.3557 Y-1.4022 Z-0.1205
G1 X4.3573 Y-1.3932 Z-0.1208
G1 X4.3594 Y-1.3841 Z-0.1214
G1 X4.3617 Y-1.375 Z-0.122
G1 X4.3632 Y-1.37 Z-0.1223
G1 X4.3646 Y-1.3659 Z-0.1226
G1 X4.3679 Y-1.3568 Z-0.1232
G1 X4.3753 Y-1.3387 Z-0.1248
G1 X4.3815 Y-1.3238 Z-0.1263
G1 X4.3871 Y-1.3114 Z-0.1278
G1 X4.3906 Y-1.3047 Z-0.1287
G1 X4.3945 Y-1.298 Z-0.1296
G1 X4.3949 Y-1.2974
G1 X4.3933 Y-1.2967 Z-0.1297
G1 X4.1526 Y-1.3001 Z-0.1317
G1 X4.1512 Y-1.3007 Z-0.1316
G1 X4.1537 Y-1.3046 Z-0.1311
G1 X4.158 Y-1.3114 Z-0.1301
G1 X4.1631 Y-1.3205 Z-0.129
G1 X4.1677 Y-1.3296 Z-0.1279
G1 X4.1719 Y-1.3393 Z-0.1268
G1 X4.1754 Y-1.3477 Z-0.126
G1 X4.1785 Y-1.3568 Z-0.1251
G1 X4.1812 Y-1.3659 Z-0.1244
G1 X4.1835 Y-1.375 Z-0.1238
G1 X4.1853 Y-1.3841 Z-0.1231
G1 X4.1868 Y-1.3932 Z-0.1225
G1 X4.1877 Y-1.4022 Z-0.1222
G1 X4.1885 Y-1.4113 Z-0.1219
G1 X4.1888 Y-1.4204 Z-0.1217
G1 X4.1889 Y-1.4295 Z-0.1216
G1 Y-1.4386 Z-0.1215
G1 Y-1.4477 Z-0.1216
G1 X4.1886 Y-1.4568 Z-0.1218
G1 X4.1882 Y-1.4658 Z-0.122
G1 X4.1873 Y-1.4749 Z-0.1223
G1 X4.1865 Y-1.4804 Z-0.1226
G1 X4.1854 Y-1.4861 Z-0.1228
G1 X4.1846 Y-1.4888 Z-0.123
G1 X4.1837 Y-1.4916 Z-0.1231
G1 X4.1815 Y-1.497 Z-0.1234
G1 X4.1789 Y-1.5021 Z-0.1238
G1 X4.1758 Y-1.5071 Z-0.1241
G1 X4.1724 Y-1.5118 Z-0.1245
G1 X4.1686 Y-1.5163 Z-0.1249
G1 X4.1647 Y-1.5206 Z-0.1253
G1 X4.1603 Y-1.5248 Z-0.1257
G1 X4.1557 Y-1.5287 Z-0.1261
G1 X4.151 Y-1.5324 Z-0.1266
G1 X4.1461 Y-1.5359 Z-0.127
G1 X4.141 Y-1.5392 Z-0.1274
G1 X4.1358 Y-1.5422 Z-0.1278
G1 X4.1305 Y-1.545 Z-0.1283
G1 X4.1251 Y-1.5476 Z-0.1287
G1 X4.1191 Y-1.5502 Z-0.1291
G1 X4.113 Y-1.5527 Z-0.1294
G1 X4.1069 Y-1.5549 Z-0.1297
G1 X4.1006 Y-1.557 Z-0.13
G1 X4.0944 Y-1.559 Z-0.1302
G1 X4.0881 Y-1.5607 Z-0.1305
G1 X4.0817 Y-1.5623 Z-0.1308
G1 X4.0753 Y-1.5638 Z-0.1312
G1 X4.0689 Y-1.565 Z-0.1316
G1 X4.0624 Y-1.5662 Z-0.1321
G1 X4.056 Y-1.5671 Z-0.1326
G1 X4.0495 Y-1.5679 Z-0.1332
G1 X4.0429 Y-1.5686 Z-0.1339
G1 X4.0364 Y-1.5691 Z-0.1346
G1 X4.0299 Y-1.5694 Z-0.1352
G1 X4.0233 Y-1.5696 Z-0.1357
G1 X4.0163 Y-1.5697 Z-0.1361
G1 X4.0094 Z-0.1365
G1 X4.0025 Y-1.5695 Z-0.1368
G1 X3.9955 Y-1.5692 Z-0.1372
G1 X3.9886 Y-1.5688 Z-0.1376
G1 X3.9817 Y-1.5682 Z-0.1379
G1 X3.9748 Y-1.5675 Z-0.1382
G1 X3.9679 Y-1.5667 Z-0.1386
G1 X3.961 Y-1.5657 Z-0.1389
G1 X3.9542 Y-1.5646 Z-0.1392
G1 X3.9474 Y-1.5633 Z-0.1394
G1 X3.9406 Y-1.5618 Z-0.1397
G1 X3.9339 Y-1.5602 Z-0.14
G1 X3.9272 Y-1.5584 Z-0.1402
G1 X3.9205 Y-1.5565 Z-0.1404
G1 X3.9139 Y-1.5543 Z-0.1406
G1 X3.9077 Y-1.5521 Z-0.1407
G1 X3.9016 Y-1.5497 Z-0.1409
G1 X3.8956 Y-1.5471 Z-0.141
G1 X3.8897 Y-1.5442 Z-0.1411
G1 X3.8839 Y-1.5411
G1 X3.8782 Y-1.5378
G1 X3.8726 Y-1.5343
G1 X3.8672 Y-1.5305
G1 X3.8621 Y-1.5266 Z-0.141
G1 X3.8572 Y-1.5224 Z-0.1409
G1 X3.8525 Y-1.5179 Z-0.1407
G1 X3.848 Y-1.5132 Z-0.1405
G1 X3.8439 Y-1.5083 Z-0.1402
G1 X3.84 Y-1.5031 Z-0.1399
G1 X3.8366 Y-1.4976 Z-0.1396
G1 X3.8336 Y-1.492 Z-0.1392
G1 X3.8297 Y-1.484 Z-0.1386
G1 X3.8255 Y-1.4749 Z-0.138
G1 X3.822 Y-1.4658 Z-0.1379
G1 X3.8195 Y-1.4568 Z-0.1382
G1 X3.818 Y-1.4477 Z-0.1391
G1 X3.8174 Y-1.4386 Z-0.1406
G1 Y-1.4366 Z-0.141
G1 X3.8175 Y-1.434 Z-0.1405
G1 X3.8177 Y-1.4295 Z-0.1397
G1 X3.8189 Y-1.4204 Z-0.1386
G1 X3.8209 Y-1.4113 Z-0.138
G1 X3.8238 Y-1.4022 Z-0.1379
G1 X3.8257 Y-1.3978 Z-0.138
G1 X3.8278 Y-1.3932 Z-0.1383
G1 X3.8366 Y-1.375 Z-0.1396
G1 X3.8413 Y-1.3659 Z-0.1407
G1 X3.844 Y-1.3616 Z-0.1413
G1 X3.8474 Y-1.3568 Z-0.1423
G1 X3.8531 Y-1.3499 Z-0.1442
G1 X3.8551 Y-1.3477 Z-0.1449
G1 X3.8622 Y-1.341 Z-0.1476
G1 X3.865 Y-1.3387 Z-0.1487
G1 X3.8713 Y-1.334 Z-0.1516
G1 X3.8731 Y-1.3328 Z-0.1525
G1 X3.875 Y-1.3316 Z-0.1522
G1 X3.8804 Y-1.3286 Z-0.1516
G1 X3.8895 Y-1.3245 Z-0.1511
G1 X3.8986 Y-1.3216 Z-0.151
G1 X3.9028 Y-1.3205 Z-0.1511
G1 X3.926 Y-1.3152 Z-0.1519
G1 X3.9351 Y-1.3134 Z-0.1524
G1 X3.9442 Y-1.3124 Z-0.1532
G1 X3.9533 Z-0.1544
G1 X3.9624 Y-1.3132 Z-0.156
G1 X3.9642 Y-1.3135 Z-0.1564
G1 X3.967 Y-1.3139 Z-0.1553
G1 X3.9715 Y-1.3149 Z-0.1537
G1 X3.9806 Y-1.3176 Z-0.1509
G1 X3.9878 Y-1.3205 Z-0.149
G1 X3.9897 Y-1.3214 Z-0.1485
G1 X3.9988 Y-1.3265 Z-0.1465
G1 X4.0035 Y-1.3296 Z-0.1457
G1 X4.0079 Y-1.3329 Z-0.1449
G1 X4.0266 Y-1.3477 Z-0.1425
G1 X4.0353 Y-1.3555 Z-0.1416
G1 X4.0366 Y-1.3568 Z-0.1415
G1 X4.0446 Y-1.3659 Z-0.1414
G1 X4.048 Y-1.3705 Z-0.1416
G1 X4.05 Y-1.3735 Z-0.1418
G1 X4.051 Y-1.375 Z-0.1412
G1 X4.0535 Y-1.3796 Z-0.1395
G1 X4.0557 Y-1.3841 Z-0.1381
G1 X4.0594 Y-1.3932 Z-0.1358
G1 X4.062 Y-1.4022 Z-0.1342
G1 X4.0626 Y-1.4055 Z-0.1338
G1 X4.0636 Y-1.4113 Z-0.1332
G1 X4.0643 Y-1.4204 Z-0.1327
G1 X4.0644 Y-1.4295 Z-0.1326
G1 Y-1.4386 Z-0.1325
G1 Y-1.4477 Z-0.1326
G1 X4.064 Y-1.4568 Z-0.1329
G1 X4.0629 Y-1.4658 Z-0.1336
G1 X4.0608 Y-1.4749 Z-0.1349
G1 X4.0579 Y-1.484 Z-0.1366
G1 X4.0535 Y-1.4939 Z-0.1395
G1 X4.05 Y-1.4999 Z-0.1418
G1 X4.0486 Y-1.5022 Z-0.1416
G1 X4.0444 Y-1.508 Z-0.1412
G1 X4.0417 Y-1.5113
G1 X4.0353 Y-1.5181 Z-0.1415
G1 X4.0328 Y-1.5203 Z-0.1418
G1 X4.0262 Y-1.5258 Z-0.1426
G1 X4.0079 Y-1.5403 Z-0.1449
G1 X3.9988 Y-1.5467 Z-0.1465
G1 X3.9975 Y-1.5476 Z-0.1468
G1 X3.9897 Y-1.5518 Z-0.1485
G1 X3.9806 Y-1.5556 Z-0.1509
G1 X3.9773 Y-1.5567 Z-0.1519
G1 X3.9715 Y-1.5583 Z-0.1537
G1 X3.967 Y-1.5593 Z-0.1553
G1 X3.9641 Y-1.5598 Z-0.1564
G1 X3.9624 Y-1.56 Z-0.156
G1 X3.9533 Y-1.5609 Z-0.1544
G1 X3.9442 Y-1.5608 Z-0.1532
G1 X3.9351 Y-1.5598 Z-0.1524
G1 X3.926 Y-1.558 Z-0.1519
G1 X3.9077 Y-1.5539 Z-0.1513
G1 X3.8986 Y-1.5516 Z-0.151
G1 X3.8895 Y-1.5487 Z-0.1511
G1 X3.8867 Y-1.5476 Z-0.1512
G1 X3.8804 Y-1.5447 Z-0.1516
G1 X3.8759 Y-1.5422 Z-0.1521
G1 X3.8731 Y-1.5405 Z-0.1525
G1 X3.8701 Y-1.5385 Z-0.151
G1 X3.8622 Y-1.5325 Z-0.1475
G1 X3.8589 Y-1.5294 Z-0.1462
G1 X3.8531 Y-1.5235 Z-0.1441
G1 X3.8505 Y-1.5203 Z-0.1433
G1 X3.8438 Y-1.5113 Z-0.1413
G1 X3.8386 Y-1.5022 Z-0.14
G1 X3.8336 Y-1.492 Z-0.1392
G1 X3.8309 Y-1.4865 Z-0.1387
G1 X3.828 Y-1.4811 Z-0.1381
G1 X3.825 Y-1.4759 Z-0.1374
G1 X3.8219 Y-1.4707 Z-0.1366
G1 X3.8186 Y-1.4656 Z-0.1357
G1 X3.8153 Y-1.4605 Z-0.1348
G1 X3.8118 Y-1.4556 Z-0.1339
G1 X3.8082 Y-1.4507 Z-0.1329
G1 X3.8045 Y-1.4459 Z-0.132
G1 X3.8007 Y-1.4412 Z-0.131
G1 X3.7968 Y-1.4366 Z-0.1302
G1 X3.7928 Y-1.4321 Z-0.1293
G1 X3.7887 Y-1.4276 Z-0.1286
G1 X3.7845 Y-1.4232 Z-0.1279
G1 X3.7802 Y-1.4189 Z-0.1274
G1 X3.7758 Y-1.4146 Z-0.127
G1 X3.7713 Y-1.4105 Z-0.1266
G1 X3.7668 Y-1.4064 Z-0.1264
G1 X3.7621 Y-1.4024 Z-0.1265
G1 X3.7574 Y-1.3984 Z-0.1267
G1 X3.7527 Y-1.3946 Z-0.1268
G1 X3.7479 Y-1.3908 Z-0.1271
G1 X3.743 Y-1.3872 Z-0.1274
G1 X3.738 Y-1.3836 Z-0.1277
G1 X3.733 Y-1.3801 Z-0.1281
G1 X3.7279 Y-1.3766 Z-0.1283
G1 X3.7228 Y-1.3733 Z-0.1286
G1 X3.7176 Y-1.37 Z-0.1289
G1 X3.7124 Y-1.3668 Z-0.1292
G1 X3.7071 Y-1.3637 Z-0.1294
G1 X3.7018 Y-1.3607 Z-0.1297
G1 X3.6964 Y-1.3578 Z-0.13
G1 X3.6909 Y-1.3549 Z-0.1301
G1 X3.6854 Y-1.3521
G1 X3.6798 Y-1.3493 Z-0.1303
G1 X3.6742 Y-1.3467 Z-0.1304
G1 X3.6685 Y-1.3441 Z-0.1306
G1 X3.6628 Y-1.3416 Z-0.1308
G1 X3.6571 Y-1.3392 Z-0.131
G1 X3.6514 Y-1.3369 Z-0.1312
G1 X3.6456 Y-1.3347 Z-0.1315
G1 X3.6397 Y-1.3326 Z-0.1317
G1 X3.6339 Y-1.3305 Z-0.132
G1 X3.628 Y-1.3285 Z-0.1323
G1 X3.6221 Y-1.3267 Z-0.1326
G1 X3.6161 Y-1.3249 Z-0.1329
G1 X3.6102 Y-1.3232 Z-0.1332
G1 X3.6042 Y-1.3215 Z-0.1335
G1 X3.5982 Y-1.32 Z-0.1338
G1 X3.5922 Y-1.3186 Z-0.1341
G1 X3.5861 Y-1.3173 Z-0.1344
G1 X3.58 Y-1.316 Z-0.1347
G1 X3.5739 Y-1.3149 Z-0.135
G1 X3.5678 Y-1.3139 Z-0.1353
G1 X3.5617 Y-1.3129 Z-0.1355
G1 X3.5556 Y-1.3121 Z-0.1358
G1 X3.5494 Y-1.3114 Z-0.136
G1 X3.5433 Y-1.3107 Z-0.1363
G1 X3.5371 Y-1.3102 Z-0.1365
G1 X3.5309 Y-1.3098 Z-0.1366
G1 X3.5247 Y-1.3095 Z-0.1368
G1 X3.5185 Y-1.3093 Z-0.1369
G1 X3.5123 Y-1.3092 Z-0.137
G1 X3.5061 Z-0.1371
G1 X3.4866 Y-1.3095 Z-0.1373
G1 X3.4856 Y-1.3098 Z-0.1372
G1 X3.4917 Y-1.3205 Z-0.1359
G1 X3.4978 Y-1.3313 Z-0.1346
G1 X3.5016 Y-1.3387 Z-0.1337
G1 X3.5069 Y-1.3504 Z-0.1326
G1 X3.5096 Y-1.3568 Z-0.132
G1 X3.5127 Y-1.3659 Z-0.1313
G1 X3.516 Y-1.3766 Z-0.1305
G1 X3.5179 Y-1.3841 Z-0.1299
G1 X3.5199 Y-1.3932 Z-0.1294
G1 X3.5214 Y-1.4022 Z-0.1291
G1 X3.5224 Y-1.4113 Z-0.1287
G1 X3.5232 Y-1.4204 Z-0.1286
G1 X3.5236 Y-1.4295 Z-0.1285
G1 X3.5235 Y-1.4386 Z-0.1284
G1 X3.5233 Y-1.4477 Z-0.1285
G1 X3.5228 Y-1.4568 Z-0.1286
G1 X3.5218 Y-1.4658 Z-0.1288
G1 X3.5205 Y-1.4749 Z-0.1292
G1 X3.5189 Y-1.484 Z-0.1296
G1 X3.516 Y-1.4958 Z-0.1303
G1 X3.5143 Y-1.5022 Z-0.1307
G1 X3.5112 Y-1.5113 Z-0.1314
G1 X3.5078 Y-1.5203 Z-0.1322
G1 X3.5069 Y-1.5227 Z-0.1325
G1 X3.5039 Y-1.5294 Z-0.1331
G1 X3.4995 Y-1.5385 Z-0.1341
G1 X3.4978 Y-1.5419 Z-0.1345
G1 X3.4947 Y-1.5476 Z-0.1352
G1 X3.4857 Y-1.5632 Z-0.1372
G1 X3.4874 Y-1.5637 Z-0.1373
G1 X3.7309 Y-1.5672 Z-0.1352
G1 X3.7318 Y-1.567 Z-0.1351
G1 X3.7311 Y-1.5658 Z-0.135
G1 X3.7262 Y-1.5567 Z-0.1339
G1 X3.7213 Y-1.5465 Z-0.1327
G1 X3.7164 Y-1.5363 Z-0.1316
G1 X3.7132 Y-1.5294 Z-0.1309
G1 X3.7093 Y-1.5203 Z-0.1301
G1 X3.7058 Y-1.5113 Z-0.1294
G1 X3.7027 Y-1.5022 Z-0.1288
G1 X3.7003 Y-1.4931 Z-0.1282
G1 X3.698 Y-1.484 Z-0.1277
G1 X3.6963 Y-1.4749 Z-0.1273
G1 X3.695 Y-1.4658 Z-0.127
G1 X3.694 Y-1.4568 Z-0.1268
G1 X3.6935 Y-1.4477 Z-0.1267
G1 X3.6932 Y-1.4386 Z-0.1266
G1 X3.6933 Y-1.4295 Z-0.1267
G1 X3.6937 Y-1.4204 Z-0.1268
G1 X3.6947 Y-1.4113 Z-0.1269
G1 X3.6957 Y-1.4022 Z-0.1272
G1 X3.6974 Y-1.3932 Z-0.1275
G1 X3.6982 Y-1.3894 Z-0.1277
G1 X3.6993 Y-1.3841 Z-0.1281
G1 X3.7016 Y-1.375 Z-0.1287
G1 X3.7045 Y-1.3659 Z-0.1293
G1 X3.7076 Y-1.3568 Z-0.13
G1 X3.7114 Y-1.3477 Z-0.1306
G1 X3.7156 Y-1.3387 Z-0.1315
G1 X3.7199 Y-1.3296 Z-0.1324
G1 X3.7255 Y-1.3179 Z-0.1337
G1 X3.7315 Y-1.3065 Z-0.1351
G1 X3.7304 Y-1.3061 Z-0.1352
G1 X3.5061 Y-1.3092 Z-0.1371
G1 X3.4949
G1 X3.4837 Y-1.309
G1 X3.4724 Y-1.3086
G1 X3.4612 Y-1.308
G1 X3.45 Y-1.3073 Z-0.1372
G1 X3.4388 Y-1.3064 Z-0.1374
G1 X3.4276 Y-1.3055 Z-0.1379
G1 X3.4164 Y-1.3045 Z-0.1387
G1 X3.4052 Y-1.3035 Z-0.139
G1 X3.3996 Y-1.3031 Z-0.1392
G1 X3.394 Y-1.3026 Z-0.1396
G1 X3.3884 Y-1.3021 Z-0.1401
G1 X3.3829 Y-1.3017 Z-0.1409
G1 X3.3773 Y-1.3012 Z-0.1418
G1 X3.3717 Y-1.3008 Z-0.1428
G1 X3.3661 Y-1.3005 Z-0.1437
G1 X3.3549 Y-1.2998 Z-0.1456
G1 X3.3438 Y-1.2994 Z-0.1476
G1 X3.3382 Y-1.2992 Z-0.1485
G1 X3.3326 Y-1.2991 Z-0.1492
G1 X3.3269 Z-0.1498
G1 X3.3167 Y-1.2992 Z-0.1507
G1 X3.3116 Y-1.2994 Z-0.1511
G1 X3.3065 Y-1.2997 Z-0.1514
G1 X3.3013 Y-1.3 Z-0.1518
G1 X3.2962 Y-1.3005 Z-0.1522
G1 X3.2912 Y-1.301 Z-0.1525
G1 X3.2861 Y-1.3016 Z-0.1528
G1 X3.281 Y-1.3024 Z-0.1531
G1 X3.276 Y-1.3032 Z-0.1533
G1 X3.2709 Y-1.3041 Z-0.1536
G1 X3.2659 Y-1.3052 Z-0.1538
G1 X3.2609 Y-1.3063 Z-0.1539
G1 X3.2559 Y-1.3076 Z-0.1541
G1 X3.251 Y-1.3089 Z-0.1542
G1 X3.2461 Y-1.3104 Z-0.1543
G1 X3.2414 Y-1.312
G1 X3.2367 Y-1.3137 Z-0.1544
G1 X3.2321 Y-1.3155 Z-0.1543
G1 X3.2275 Y-1.3174
G1 X3.223 Y-1.3195 Z-0.1542
G1 X3.2186 Y-1.3218 Z-0.154
G1 X3.2143 Y-1.3242 Z-0.1538
G1 X3.21 Y-1.3267 Z-0.1536
G1 X3.2059 Y-1.3294 Z-0.1533
G1 X3.2019 Y-1.3322 Z-0.1529
G1 X3.198 Y-1.3352 Z-0.1525
G1 X3.1942 Y-1.3383 Z-0.1521
G1 X3.1906 Y-1.3416 Z-0.1516
G1 X3.1872 Y-1.3451 Z-0.151
G1 X3.1839 Y-1.3487 Z-0.1504
G1 X3.1809 Y-1.3525 Z-0.1497
G1 X3.1789 Y-1.3551 Z-0.1492
G1 X3.1778 Y-1.3568 Z-0.1489
G1 X3.1723 Y-1.3659 Z-0.1478
G1 X3.1607 Y-1.386 Z-0.1461
G1 X3.1567 Y-1.3932 Z-0.1456
G1 X3.1525 Y-1.4022 Z-0.1455
G1 X3.1516 Y-1.4046
G1 X3.1494 Y-1.4113 Z-0.1458
G1 X3.1474 Y-1.4204 Z-0.1467
G1 X3.1462 Y-1.4295 Z-0.1483
G1 X3.146 Y-1.434 Z-0.1492
G1 Y-1.4367 Z-0.1498
G1 Y-1.4386 Z-0.1494
G1 X3.1466 Y-1.4477 Z-0.1475
G1 X3.1482 Y-1.4568 Z-0.1462
G1 X3.1507 Y-1.4658 Z-0.1456
G1 X3.1516 Y-1.4685 Z-0.1455
G1 X3.1542 Y-1.4749
G1 X3.1589 Y-1.484 Z-0.1458
G1 X3.1698 Y-1.503 Z-0.1474
G1 X3.1746 Y-1.5113 Z-0.1483
G1 X3.1789 Y-1.5181 Z-0.1492
G1 X3.1805 Y-1.5203 Z-0.1496
G1 X3.188 Y-1.5296 Z-0.1516
G1 X3.1977 Y-1.5385 Z-0.1549
G1 X3.2062 Y-1.5447 Z-0.1583
G1 X3.2111 Y-1.5476 Z-0.1604
G1 X3.2171 Y-1.5506 Z-0.1634
G1 X3.2176 Y-1.5508 Z-0.1636
G1 X3.2199 Y-1.5519 Z-0.1631
G1 X3.2245 Y-1.5536 Z-0.1622
G1 X3.2336 Y-1.5565 Z-0.1608
G1 X3.2427 Y-1.5582 Z-0.16
G1 X3.2518 Y-1.5591 Z-0.1595
G1 X3.2609 Y-1.5592 Z-0.1593
G1 X3.2882 Z-0.1591
G1 X3.2974 Y-1.5588
G1 X3.3065 Y-1.5575 Z-0.1596
G1 X3.3107 Y-1.5567 Z-0.1599
G1 X3.3156 Y-1.5554 Z-0.1605
G1 X3.3247 Y-1.5522 Z-0.1619
G1 X3.3267 Y-1.5513 Z-0.1622
G1 X3.3292 Y-1.5502 Z-0.1608
G1 X3.3344 Y-1.5476 Z-0.1582
G1 X3.3429 Y-1.5425 Z-0.1544
G1 X3.3483 Y-1.5385 Z-0.1522
G1 X3.352 Y-1.5354 Z-0.1509
G1 X3.3582 Y-1.5294 Z-0.1487
G1 X3.3611 Y-1.5261 Z-0.1478
G1 X3.3657 Y-1.5203 Z-0.1466
G1 X3.3702 Y-1.5135 Z-0.1455
G1 X3.3716 Y-1.5113 Z-0.1452
G1 X3.3793 Y-1.4978 Z-0.1438
G1 X3.3873 Y-1.484 Z-0.1424
G1 X3.3885 Y-1.4818 Z-0.1423
G1 X3.3918 Y-1.4749 Z-0.1421
G1 X3.3952 Y-1.4658
G1 X3.3976 Y-1.4568 Z-0.1427
G1 X3.3991 Y-1.4477 Z-0.144
G1 X3.3998 Y-1.4386 Z-0.1457
G1 Y-1.4366 Z-0.1462
G1 Y-1.434 Z-0.1456
G1 X3.3996 Y-1.4295 Z-0.1446
G1 X3.3985 Y-1.4204 Z-0.1431
G1 X3.3976 Y-1.4154 Z-0.1426
G1 X3.3965 Y-1.4113 Z-0.1423
G1 X3.3935 Y-1.4022 Z-0.142
G1 X3.3894 Y-1.3932 Z-0.1422
G1 X3.3885 Y-1.3914 Z-0.1423
G1 X3.3826 Y-1.3811 Z-0.1432
G1 X3.3738 Y-1.3659 Z-0.1447
G1 X3.3702 Y-1.3598 Z-0.1455
G1 X3.3684 Y-1.3568 Z-0.1459
G1 X3.3616 Y-1.3477 Z-0.1477
G1 X3.3611 Y-1.3471 Z-0.1478
G1 X3.3529 Y-1.3387 Z-0.1505
G1 X3.352 Y-1.3379 Z-0.1509
G1 X3.3429 Y-1.3307 Z-0.1544
G1 X3.3411 Y-1.3296 Z-0.1552
G1 X3.3338 Y-1.3253 Z-0.1585
G1 X3.3292 Y-1.323 Z-0.1608
G1 X3.3266 Y-1.3219 Z-0.1622
G1 X3.3233 Y-1.3205 Z-0.1616
G1 X3.3156 Y-1.3179 Z-0.1605
G1 X3.3065 Y-1.3157 Z-0.1596
G1 X3.2974 Y-1.3144 Z-0.1591
G1 X3.2882 Y-1.314
G1 X3.2609 Z-0.1593
G1 X3.2518 Y-1.3142 Z-0.1595
G1 X3.2427 Y-1.315 Z-0.16
G1 X3.2336 Y-1.3168 Z-0.1608
G1 X3.2245 Y-1.3196 Z-0.1622
G1 X3.2188 Y-1.3218 Z-0.1633
G1 X3.2175 Y-1.3224 Z-0.1636
G1 X3.2154 Y-1.3235 Z-0.1625
G1 X3.2062 Y-1.3285 Z-0.1583
G1 X3.2046 Y-1.3296 Z-0.1576
G1 X3.1971 Y-1.3352 Z-0.1547
G1 X3.193 Y-1.3387 Z-0.1532
G1 X3.188 Y-1.3436 Z-0.1516
G1 X3.1845 Y-1.3477 Z-0.1506
G1 X3.1809 Y-1.3525 Z-0.1497
G1 X3.1775 Y-1.3566 Z-0.1488
G1 X3.1757 Y-1.3585 Z-0.1483
G1 X3.1738 Y-1.3604 Z-0.1477
G1 X3.1698 Y-1.3638 Z-0.1466
G1 X3.1656 Y-1.367 Z-0.1454
G1 X3.1612 Y-1.3698 Z-0.1441
G1 X3.1566 Y-1.3724 Z-0.1428
G1 X3.1518 Y-1.3747 Z-0.1416
G1 X3.147 Y-1.3768 Z-0.1404
G1 X3.1419 Y-1.3786 Z-0.1393
G1 X3.1368 Y-1.3802 Z-0.1382
G1 X3.1316 Y-1.3815 Z-0.1372
G1 X3.1263 Y-1.3827 Z-0.1364
G1 X3.1209 Y-1.3836 Z-0.1356
G1 X3.1155 Y-1.3844 Z-0.135
G1 X3.1101 Y-1.3849 Z-0.1346
G1 X3.1046 Y-1.3853 Z-0.1343
G1 X3.0988 Y-1.3854 Z-0.1339
G1 X3.093 Y-1.3855 Z-0.1337
G1 X3.0873 Y-1.3853 Z-0.1335
G1 X3.0815 Y-1.3851
G1 X3.0757 Y-1.3846 Z-0.1336
G1 X3.0699 Y-1.3841 Z-0.1337
G1 X3.0641 Y-1.3834 Z-0.1339
G1 X3.0584 Y-1.3826 Z-0.1341
G1 X3.0527 Y-1.3817 Z-0.1344
G1 X3.0469 Y-1.3806 Z-0.1347
G1 X3.0412 Y-1.3795 Z-0.1349
G1 X3.0356 Y-1.3782 Z-0.1352
G1 X3.0299 Y-1.3768 Z-0.1354
G1 X3.0243 Y-1.3754 Z-0.1356
G1 X3.0187 Y-1.3738 Z-0.1357
G1 X3.0131 Y-1.3721 Z-0.1359
G1 X3.0003 Y-1.3681 Z-0.1361
G1 X2.9875 Y-1.3638 Z-0.1364
G1 X2.9685 Y-1.3572 Z-0.1369
G1 X2.9432 Y-1.3482 Z-0.138
G1 X2.9242 Y-1.3416 Z-0.1389
G1 X2.9114 Y-1.3375 Z-0.1395
G1 X2.8987 Y-1.3336 Z-0.1401
G1 X2.8923 Y-1.3318 Z-0.1404
G1 X2.8859 Y-1.33 Z-0.1407
G1 X2.8795 Y-1.3284 Z-0.141
G1 X2.873 Y-1.3268 Z-0.1413
G1 X2.8666 Y-1.3254 Z-0.1416
G1 X2.86 Y-1.3241 Z-0.1418
G1 X2.8535 Y-1.3229 Z-0.1421
G1 X2.847 Y-1.3219 Z-0.1423
G1 X2.8404 Y-1.321 Z-0.1425
G1 X2.8339 Y-1.3203 Z-0.1427
G1 X2.8273 Y-1.3197 Z-0.1428
G1 X2.8207 Y-1.3193 Z-0.143
G1 X2.814 Y-1.3191 Z-0.1431
G1 X2.8074 Z-0.1432
G1 X2.7507 Y-1.3199 Z-0.1436
G1 X2.7416 Y-1.32 Z-0.1439
G1 X2.7194 Y-1.3205 Z-0.1449
G1 X2.7052 Y-1.3208 Z-0.1457
G1 X2.687 Y-1.3213 Z-0.147
G1 X2.6687 Y-1.3218 Z-0.1485
G1 X2.6505 Y-1.3223 Z-0.1504
G1 X2.6323 Y-1.3228 Z-0.1526
G1 X2.6141 Y-1.3233 Z-0.1553
G1 X2.5959 Y-1.3239 Z-0.1583
G1 X2.5776 Y-1.3243 Z-0.1616
G1 X2.5728 Y-1.3244 Z-0.1625
G1 X2.5685 Z-0.1606
G1 X2.5594 Y-1.3242 Z-0.1571
G1 X2.5503 Y-1.324 Z-0.1541
G1 X2.5412 Y-1.3238 Z-0.1515
G1 X2.5321 Y-1.3236 Z-0.1495
G1 X2.523 Y-1.3235 Z-0.1479
G1 X2.5139 Y-1.3234 Z-0.1468
G1 X2.5048 Z-0.1461
G1 X2.4956 Y-1.3235 Z-0.1459
G1 X2.0128 Y-1.3303 Z-0.15
G1 X2.0037 Y-1.3304 Z-0.1503
G1 X1.9946 Y-1.3307 Z-0.151
G1 X1.9855 Y-1.3309 Z-0.1519
G1 X1.9764 Y-1.3313 Z-0.1533
G1 X1.9673 Y-1.3317 Z-0.155
G1 X1.9581 Y-1.3321 Z-0.1572
G1 X1.949 Y-1.3325 Z-0.1597
G1 X1.9399 Y-1.3329 Z-0.1627
G1 X1.9333 Y-1.3331 Z-0.165
G1 X1.9308 Z-0.1642
G1 X1.9217 Y-1.333 Z-0.1613
G1 X1.9126 Y-1.3328 Z-0.1588
G1 X1.9035 Y-1.3327 Z-0.1567
G1 X1.8944 Y-1.3325 Z-0.1549
G1 X1.8853 Z-0.1535
G1 X1.8762 Y-1.3324 Z-0.1525
G1 X1.867 Z-0.1518
G1 X1.8579 Y-1.3325 Z-0.1515
G1 X1.8488 Y-1.3326 Z-0.1514
G1 X1.5573 Y-1.3367 Z-0.1539
G1 X1.366 Y-1.3393 Z-0.1555
G1 X1.3569 Y-1.3395 Z-0.1559
G1 X1.3478 Y-1.3398 Z-0.1569
G1 X1.3386 Y-1.3402 Z-0.1586
G1 X1.3295 Y-1.3406 Z-0.161
G1 X1.3204 Y-1.3411 Z-0.1641
G1 X1.3113 Y-1.3416 Z-0.168
G1 X1.31 Z-0.1686
G1 X1.3022 Z-0.1668
G1 X1.2931 Z-0.165
G1 X1.284 Y-1.3415 Z-0.1633
G1 X1.2749 Y-1.3414 Z-0.1618
G1 X1.2658 Z-0.1606
G1 X1.2567 Z-0.1595
G1 X1.2475 Y-1.3413 Z-0.1587
G1 X1.2384 Z-0.1579
G1 X1.2293 Y-1.3414 Z-0.1574
G1 X1.2202 Z-0.157
G1 X1.2111 Y-1.3415 Z-0.1568
G1 X1.1929 Y-1.3417 Z-0.1569
G1 X1.0653 Y-1.3435 Z-0.1579
G1 X0.5825 Y-1.3502 Z-0.1616
G1 X0.5734 Y-1.3503 Z-0.1617
G1 X0.5643 Y-1.3505 Z-0.1624
G1 X0.5552 Y-1.3508 Z-0.1634
G1 X0.5461 Y-1.3512 Z-0.1648
G1 X0.5369 Y-1.3515 Z-0.1667
G1 X0.5278 Y-1.3519 Z-0.1688
G1 X0.5187 Y-1.3523 Z-0.1712
G1 X0.5005 Y-1.3529 Z-0.1763
G1 X0.4914 Y-1.3531 Z-0.1787
G1 X0.4823 Y-1.3534 Z-0.1808
G1 X0.4732 Y-1.3537 Z-0.1822
G1 X0.4641 Y-1.3539 Z-0.183
G1 X0.455 Y-1.3544 Z-0.1829
G1 X0.4458 Y-1.356
G1 X0.4421 Y-1.3568
G1 X0.4367 Y-1.3586
G1 X0.4276 Y-1.3625
G1 X0.4213 Y-1.3659
G1 X0.4185 Y-1.3677
G1 X0.4091 Y-1.375
G1 X0.4005 Y-1.3841
G1 X0.3942 Y-1.3932
G1 X0.3912 Y-1.3981
G1 X0.3891 Y-1.4022
G1 X0.3857 Y-1.4113
G1 X0.3833 Y-1.4204
G1 X0.3821 Y-1.4303
G1 X0.3819 Y-1.4386 Z-0.183
G1 X0.3821 Y-1.4447 Z-0.1829
G1 X0.3825 Y-1.4477
G1 X0.3842 Y-1.4568
G1 X0.387 Y-1.4658
G1 X0.3913 Y-1.4749 Z-0.183
G1 X0.3965 Y-1.484 Z-0.1829
G1 X0.4003 Y-1.4888
G1 X0.4043 Y-1.4931 Z-0.183
G1 X0.4094 Y-1.4981
G1 X0.4139 Y-1.5022 Z-0.1829
G1 X0.4185 Y-1.5054
G1 X0.4276 Y-1.5108
G1 X0.4285 Y-1.5113
G1 X0.4367 Y-1.5147
G1 X0.4458 Y-1.5172 Z-0.183
G1 X0.455 Y-1.5188 Z-0.1829
G1 X0.4641 Y-1.5193 Z-0.183
G1 X0.4732 Y-1.5196 Z-0.1822
G1 X0.4823 Y-1.5198 Z-0.1808
G1 X0.4914 Y-1.5201 Z-0.1787
G1 X0.5005 Y-1.5203 Z-0.1763
G1 X0.5187 Y-1.521 Z-0.1712
G1 X0.5278 Y-1.5213 Z-0.1688
G1 X0.5369 Y-1.5217 Z-0.1667
G1 X0.5461 Y-1.5221 Z-0.1648
G1 X0.5552 Y-1.5224 Z-0.1634
G1 X0.5643 Y-1.5227 Z-0.1624
G1 X0.5734 Y-1.5229 Z-0.1617
G1 X0.5825 Y-1.523 Z-0.1616
G1 X0.8558 Y-1.5268 Z-0.1595
G1 X0.8649 Y-1.5269 Z-0.1598
G1 X0.874 Z-0.1606
G1 X0.8831 Y-1.5267 Z-0.1621
G1 X0.8922 Y-1.5266 Z-0.1643
G1 X0.9014 Y-1.5264 Z-0.167
G1 X0.9105 Y-1.5262 Z-0.1705
G1 X0.9196 Y-1.526 Z-0.1747
G1 X0.9287 Y-1.5261 Z-0.1794
G1 X0.9332 Z-0.1818
G1 X0.9355 Y-1.5262 Z-0.1829
G1 X0.9372 Z-0.1836
G1 X0.9381 Z-0.1837
G1 X0.9389 Z-0.1836
G1 X0.9401 Y-1.5263 Z-0.1832
G1 X0.9424 Z-0.1821
G1 X0.9469 Z-0.1796
G1 X0.956 Y-1.5265 Z-0.1747
G1 X0.9651 Y-1.5269 Z-0.1703
G1 X0.9742 Y-1.5274 Z-0.1666
G1 X0.9833 Y-1.5278 Z-0.1636
G1 X0.9925 Y-1.5283 Z-0.1613
G1 X1.0016 Y-1.5286 Z-0.1597
G1 X1.0107 Y-1.5289 Z-0.1586
G1 X1.0198 Y-1.5291 Z-0.1582
G1 X1.202 Y-1.5316 Z-0.1568
G1 X1.2111 Y-1.5317
G1 X1.2202 Y-1.5318 Z-0.157
G1 X1.2293 Y-1.5319 Z-0.1574
G1 X1.2384 Z-0.1579
G1 X1.2475 Z-0.1587
G1 X1.2567 Z-0.1595
G1 X1.2658 Y-1.5318 Z-0.1606
G1 X1.2749 Z-0.1618
G1 X1.284 Y-1.5317 Z-0.1633
G1 X1.2931 Z-0.165
G1 X1.3022 Y-1.5316 Z-0.1668
G1 X1.3101 Z-0.1686
G1 X1.3113 Y-1.5317 Z-0.168
G1 X1.3204 Y-1.5321 Z-0.1641
G1 X1.3295 Y-1.5326 Z-0.161
G1 X1.3386 Y-1.5331 Z-0.1586
G1 X1.3478 Y-1.5334 Z-0.1569
G1 X1.3569 Y-1.5337 Z-0.1559
G1 X1.366 Y-1.5339 Z-0.1555
G1 X1.8488 Y-1.5407 Z-0.1514
G1 X1.8579 Y-1.5408 Z-0.1515
G1 X1.867 Z-0.1518
G1 X1.8762 Z-0.1525
G1 X1.8853 Z-0.1535
G1 X1.8944 Y-1.5407 Z-0.1549
G1 X1.9035 Y-1.5405 Z-0.1567
G1 X1.9126 Y-1.5404 Z-0.1588
G1 X1.9217 Y-1.5402 Z-0.1613
G1 X1.9308 Y-1.5401 Z-0.1642
G1 X1.9333 Z-0.165
G1 X1.9399 Y-1.5404 Z-0.1627
G1 X1.949 Y-1.5408 Z-0.1597
G1 X1.9581 Y-1.5412 Z-0.1572
G1 X1.9673 Y-1.5416 Z-0.155
G1 X1.9764 Y-1.542 Z-0.1533
G1 X1.9855 Y-1.5423 Z-0.1519
G1 X1.9946 Y-1.5426 Z-0.151
G1 X2.0037 Y-1.5428 Z-0.1503
G1 X2.0128 Y-1.543 Z-0.15
G1 X2.4865 Y-1.5496 Z-0.146
G1 X2.4956 Y-1.5497 Z-0.1459
G1 X2.5048 Y-1.5498 Z-0.1461
G1 X2.5139 Z-0.1468
G1 X2.523 Y-1.5497 Z-0.1479
G1 X2.5321 Y-1.5496 Z-0.1495
G1 X2.5412 Y-1.5494 Z-0.1515
G1 X2.5503 Y-1.5492 Z-0.1541
G1 X2.5594 Y-1.549 Z-0.1571
G1 X2.5685 Y-1.5488 Z-0.1606
G1 X2.5729 Z-0.1626
G1 X2.5868 Y-1.5491 Z-0.1599
G1 X2.605 Y-1.5496 Z-0.1568
G1 X2.6232 Y-1.5502 Z-0.1539
G1 X2.6323 Y-1.5504 Z-0.1526
G1 X2.6505 Y-1.551 Z-0.1504
G1 X2.6687 Y-1.5515 Z-0.1485
G1 X2.687 Y-1.552 Z-0.147
G1 X2.7052 Y-1.5524 Z-0.1457
G1 X2.7234 Y-1.5528 Z-0.1447
G1 X2.7416 Y-1.5532 Z-0.1439
G1 X2.7507 Y-1.5533 Z-0.1437
G1 X3.0559 Y-1.5577 Z-0.141
G1 X3.057 Y-1.5572 Z-0.1409
G1 X3.0514 Y-1.5475 Z-0.1398
G1 X3.0466 Y-1.5385 Z-0.1389
G1 X3.042 Y-1.5294 Z-0.138
G1 X3.038 Y-1.5203 Z-0.1372
G1 X3.0345 Y-1.5113 Z-0.1364
G1 X3.0332 Y-1.5074 Z-0.1361
G1 X3.0315 Y-1.5022 Z-0.1358
G1 X3.029 Y-1.4931 Z-0.1352
G1 X3.0267 Y-1.484 Z-0.1347
G1 X3.025 Y-1.4749 Z-0.1344
G1 X3.0236 Y-1.4658 Z-0.134
G1 X3.0226 Y-1.4568 Z-0.1338
G1 X3.0222 Y-1.4477 Z-0.1337
G1 X3.022 Y-1.4386 Z-0.1336
G1 Y-1.4295 Z-0.1337
G1 X3.0224 Y-1.4204 Z-0.1338
G1 X3.0233 Y-1.4113 Z-0.1339
G1 X3.024 Y-1.4044 Z-0.1341
G1 X3.0243 Y-1.4022 Z-0.1342
G1 X3.026 Y-1.3932 Z-0.1346
G1 X3.0279 Y-1.3841 Z-0.135
G1 X3.0302 Y-1.375 Z-0.1355
G1 X3.0332 Y-1.3658 Z-0.1361
G1 X3.0364 Y-1.3568 Z-0.1368
G1 X3.0403 Y-1.3477 Z-0.1376
G1 X3.0445 Y-1.3387 Z-0.1384
G1 X3.0492 Y-1.3296 Z-0.1394
G1 X3.0543 Y-1.3205 Z-0.1404
G1 X3.0569 Y-1.316 Z-0.1409
G1 X3.0562 Y-1.3156 Z-0.141
G1 X2.8074 Y-1.3191 Z-0.1432
G1 X2.8018 Y-1.3192
G1 X2.7962 Y-1.3195
G1 X2.7905 Y-1.3199
G1 X2.7849 Y-1.3205 Z-0.1431
G1 X2.7793 Y-1.3211
G1 X2.7737 Y-1.3219
G1 X2.7682 Y-1.3228 Z-0.143
G1 X2.7626 Y-1.3238 Z-0.1431
G1 X2.7571 Y-1.3249 Z-0.143
G1 X2.7516 Y-1.3261 Z-0.1429
G1 X2.7461 Y-1.3274 Z-0.1428
G1 X2.7406 Y-1.3288 Z-0.143
G1 X2.7351 Y-1.3303 Z-0.1433
G1 X2.7297 Y-1.3318 Z-0.1438
G1 X2.719 Y-1.3352 Z-0.1453
G1 X2.7136 Y-1.337 Z-0.146
G1 X2.7083 Y-1.3388 Z-0.1467
G1 X2.7029 Y-1.3408 Z-0.1476
G1 X2.6976 Y-1.3427 Z-0.1485
G1 X2.6924 Y-1.3448 Z-0.1495
G1 X2.6819 Y-1.349 Z-0.1519
G1 X2.6716 Y-1.3534 Z-0.1543
G1 X2.6614 Y-1.358 Z-0.1568
G1 X2.6462 Y-1.3651 Z-0.1605
G1 X2.6361 Y-1.37 Z-0.163
G1 X2.6292 Y-1.3736 Z-0.1648
G1 X2.6226 Y-1.3775 Z-0.1669
G1 X2.6162 Y-1.3817 Z-0.1694
G1 X2.6102 Y-1.3861 Z-0.1722
G1 X2.6044 Y-1.3907 Z-0.1752
G1 X2.5989 Y-1.3955 Z-0.1785
G1 X2.5937 Y-1.4005 Z-0.182
G1 X2.5888 Y-1.4056 Z-0.1858
G1 X2.5853 Y-1.4098 Z-0.1891
G1 X2.5838 Y-1.412 Z-0.1909
G1 X2.5824 Y-1.4142 Z-0.1927
G1 X2.5802 Y-1.4187 Z-0.1967
G1 X2.5793 Y-1.421 Z-0.1988
G1 X2.5786 Y-1.4232 Z-0.201
G1 X2.5782 Y-1.4253 Z-0.203
G1 X2.5781 Y-1.4273 Z-0.205
G1 X2.5782 Y-1.4292 Z-0.2071
G1 X2.5786 Y-1.4311 Z-0.2092
G1 X2.5791 Y-1.4324 Z-0.2105
G1 X2.5802 Y-1.434 Z-0.2122
G1 X2.5812 Y-1.4351 Z-0.2136
G1 X2.582 Y-1.4357 Z-0.2145
G1 X2.5834 Y-1.4364 Z-0.216
G1 X2.5839 Y-1.4366 Z-0.2166
G1 X2.5888 Y-1.4386 Z-0.2194
G1 X2.5959 Y-1.4417 Z-0.2234
G1 X2.6004 Y-1.4439 Z-0.226
G1 X2.6028 Y-1.4451 Z-0.2274
G1 X2.6068 Y-1.4449 Z-0.2262
G1 X2.6095 Y-1.4434 Z-0.2232
G1 X2.6141 Y-1.4412 Z-0.2185
G1 X2.6204 Y-1.4386 Z-0.2122
G1 X2.6256 Y-1.4366 Z-0.2069
G1 X2.6191 Y-1.4341 Z-0.2134
G1 X2.6141 Y-1.432 Z-0.2185
G1 X2.609 Y-1.4295 Z-0.2238
G1 X2.6068 Y-1.4283 Z-0.2262
G1 X2.6028 Y-1.4281 Z-0.2274
G1 X2.6001 Y-1.4295 Z-0.2258
G1 X2.5959 Y-1.4315 Z-0.2234
G1 X2.5855 Y-1.436 Z-0.2175
G1 X2.5839 Y-1.4366 Z-0.2166
G1 X2.5832 Y-1.4369 Z-0.2159
G1 X2.5826 Y-1.4372 Z-0.215
G1 X2.5825 Z-0.214
G1 Z0.2
G1 X2.5513 Y-0.8455
G1 Z-0.0794
G1 Z-0.1376 F13.333
G1 X2.5517 Z-0.1415 F30.
G1 X2.5526 Z-0.1453
G1 X2.554 Z-0.1489
G1 X2.5561 Z-0.1522
G1 X2.5586 Y-0.8454 Z-0.1552
G1 X2.5616 Z-0.1577
G1 X2.5649 Y-0.8453 Z-0.1598
G1 X2.5685 Z-0.1613
G1 X2.5723 Y-0.8452 Z-0.1622
G1 X2.5762 Z-0.1626
G1 X4.5728 Y-0.8178 Z-0.1762
G1 X5.5385 Y-0.8045 Z-0.183
G1 X5.5749 Y-0.8036 Z-0.1831
G1 X5.584 Y-0.803
G1 X5.5931 Y-0.802 Z-0.1832
G1 X5.6022 Y-0.8004 Z-0.1831
G1 X5.6114 Y-0.7987 Z-0.1832
G1 X5.6205 Y-0.7965
G1 X5.6297 Y-0.7936
G1 X5.6387 Y-0.7905
G1 X5.6526 Y-0.7845
G1 X5.6569 Y-0.7825
G1 X5.6702 Y-0.7754
G1 X5.6751 Y-0.7723 Z-0.1831
G1 X5.6843 Y-0.7664 Z-0.1832
G1 X5.6933 Y-0.7595 Z-0.1831
G1 X5.6962 Y-0.7573
G1 X5.7025 Y-0.752 Z-0.1832
G1 X5.7066 Y-0.7482 Z-0.1831
G1 X5.7116 Y-0.7433
G1 X5.7157 Y-0.7391 Z-0.1832
G1 X5.7207 Y-0.7334 Z-0.1831
G1 X5.7312 Y-0.7209 Z-0.1832
G1 X5.7376 Y-0.7118
G1 X5.7389 Y-0.7099
G1 X5.7431 Y-0.7028 Z-0.1831
G1 X5.7484 Y-0.6937
G1 X5.7532 Y-0.6846 Z-0.1832
G1 X5.7571 Y-0.6754
G1 X5.7606 Y-0.6664 Z-0.1831
G1 X5.7636 Y-0.6573 Z-0.1832
G1 X5.7663 Y-0.6483
G1 X5.7683 Y-0.6392
G1 X5.77 Y-0.6301
G1 X5.7713 Y-0.621
G1 X5.7721 Y-0.6119 Z-0.1831
G1 X5.7727 Y-0.6028
G1 X5.7729 Y-0.5938 Z-0.1832
G1 X5.7724 Y-0.5847 Z-0.1831
G1 X5.7718 Y-0.5756 Z-0.1832
G1 X5.7707 Y-0.5665 Z-0.1831
G1 X5.7693 Y-0.5574 Z-0.1832
G1 X5.7673 Y-0.5483 Z-0.1831
G1 X5.7662 Y-0.5437 Z-0.1832
G1 X5.7621 Y-0.5302 Z-0.1831
G1 X5.7589 Y-0.5211 Z-0.1832
G1 X5.7551 Y-0.512
G1 X5.7508 Y-0.5029
G1 X5.748 Y-0.4978 Z-0.1831
G1 X5.7457 Y-0.4938
G1 X5.7404 Y-0.4847 Z-0.1832
G1 X5.7389 Y-0.4822
G1 X5.7345 Y-0.4757 Z-0.1831
G1 X5.7298 Y-0.4696
G1 X5.7196 Y-0.4575
G1 X5.7108 Y-0.4484
G1 X5.7015 Y-0.4393 Z-0.1832
G1 X5.6933 Y-0.4326 Z-0.1831
G1 X5.6903 Y-0.4302 Z-0.1832
G1 X5.6842 Y-0.4257
G1 X5.6751 Y-0.4199 Z-0.1831
G1 X5.666 Y-0.4144 Z-0.1832
G1 X5.6616 Y-0.4121 Z-0.1831
G1 X5.6569 Y-0.4097
G1 X5.6417 Y-0.403
G1 X5.6387 Y-0.4016 Z-0.1832
G1 X5.6296 Y-0.3985
G1 X5.6205 Y-0.3959 Z-0.1831
G1 X5.6114 Y-0.3935
G1 X5.6022 Y-0.3917
G1 X5.5931 Y-0.3902 Z-0.1832
G1 X5.584 Y-0.3891 Z-0.1831
G1 X5.5749 Y-0.3886
G1 X5.5385 Y-0.3876 Z-0.183
G1 X3.5342 Y-0.3601 Z-0.1691
G1 X0.7556 Y-0.3219 Z-0.1503
G1 X0.3456 Y-0.3163 Z-0.1476
G1 X0.3365 Y-0.3162 Z-0.1474
G1 X0.3274 Y-0.3161 Z-0.1477
G1 X0.3183 Y-0.3159 Z-0.1485
G1 X0.3092 Y-0.3158 Z-0.1496
G1 X0.3001 Y-0.3157 Z-0.1513
G1 X0.291 Y-0.3156 Z-0.1533
G1 X0.2864 Y-0.3158 Z-0.1545
G1 X0.2827 Y-0.3163 Z-0.1554
G1 X0.2762 Y-0.3184 Z-0.1568
G1 X0.275 Y-0.3189 Z-0.1571
G1 X0.2694 Y-0.3225 Z-0.1581
G1 X0.2685 Y-0.3232 Z-0.1582
G1 X0.2675 Y-0.3241 Z-0.1584
G1 X0.2636 Y-0.3281 Z-0.1588
G1 X0.2607 Y-0.3326 Z-0.1589
G1 X0.2597 Y-0.3343 Z-0.1588
G1 X0.2573 Y-0.3414 Z-0.1581
G1 X0.2565 Y-0.3485 Z-0.1567
G1 Y-0.3576 Z-0.1543
G1 Y-0.3757 Z-0.1501
G1 Y-0.3848 Z-0.148
G1 Y-0.403 Z-0.1443
G1 Y-0.4121 Z-0.1425
G1 Y-0.4302 Z-0.1393
G1 Y-0.4575 Z-0.135
G1 Y-0.4757 Z-0.1327
G1 Y-0.4847 Z-0.1316
G1 Y-0.5029 Z-0.1297
G1 Y-0.5211 Z-0.1282
G1 Y-0.5302 Z-0.1275
G1 Y-0.5574 Z-0.1261
G1 Y-0.5756 Z-0.1256
G1 Y-0.5847 Z-0.1254
G1 Y-0.6028
G1 Y-0.6301 Z-0.1259
G1 Y-0.6483 Z-0.1268
G1 Y-0.6573 Z-0.1272
G1 Y-0.6755 Z-0.1285
G1 Y-0.6846 Z-0.1293
G1 Y-0.7028 Z-0.1311
G1 Y-0.73 Z-0.1344
G1 Y-0.7573 Z-0.1385
G1 Y-0.7664 Z-0.1401
G1 Y-0.7936 Z-0.1451
G1 Y-0.8209 Z-0.1511
G1 Y-0.8299 Z-0.1532
G1 Y-0.839 Z-0.1554
G1 X0.257 Y-0.8481 Z-0.1576
G1 X0.2574 Y-0.851 Z-0.1581
G1 X0.2595 Y-0.8572 Z-0.1588
G1 X0.2598 Y-0.858
G1 X0.2614 Y-0.8606
G1 X0.2636 Y-0.8639
G1 X0.2645 Y-0.8651
G1 X0.2657 Y-0.8663 Z-0.1586
G1 X0.2692 Y-0.8696 Z-0.1581
G1 X0.2728 Y-0.8719 Z-0.1575
G1 X0.2754 Y-0.8734 Z-0.157
G1 X0.277 Y-0.874 Z-0.1567
G1 X0.283 Y-0.8759 Z-0.1554
G1 X0.2864 Y-0.8763 Z-0.1546
G1 X0.291 Y-0.8765 Z-0.1534
G1 X0.3001 Y-0.8764 Z-0.1512
G1 X0.3092 Y-0.8763 Z-0.1497
G1 X0.3183 Y-0.8762 Z-0.1485
G1 X0.3274 Y-0.8761 Z-0.1477
G1 X0.3365 Y-0.8759 Z-0.1475
G1 X2.5762 Y-0.8452 Z-0.1626
G1 X2.5781 Y-0.845 Z-0.1625
G1 X2.5799 Y-0.8445 Z-0.1624
G1 X2.582 Y-0.8435 Z-0.1621
G1 X2.5833 Y-0.8427 Z-0.1618
G1 X2.5845 Y-0.8418 Z-0.1616
G1 X2.5857 Y-0.8408 Z-0.1613
G1 X2.5868 Y-0.8397 Z-0.161
G1 X2.5879 Y-0.8385 Z-0.1606
G1 X2.5889 Y-0.8373 Z-0.1603
G1 X2.5907 Y-0.8346 Z-0.1596
G1 X2.5922 Y-0.8318 Z-0.1589
G1 X2.5934 Y-0.8289 Z-0.1582
G1 X2.5945 Y-0.8255 Z-0.1573
G1 X2.5954 Y-0.822 Z-0.1564
G1 X2.5966 Y-0.8149 Z-0.1548
G1 X2.5968 Y-0.8113 Z-0.1539
G1 X2.5969 Y-0.8077 Z-0.1531
G1 X2.5968 Y-0.8041 Z-0.1523
G1 X2.5964 Y-0.8006 Z-0.1515
G1 X2.595 Y-0.7915 Z-0.1495
G1 X2.5932 Y-0.7825 Z-0.1477
G1 X2.5909 Y-0.7735 Z-0.1459
G1 X2.5883 Y-0.7647 Z-0.1443
G1 X2.5853 Y-0.7559 Z-0.1427
G1 X2.582 Y-0.7473 Z-0.1412
G1 X2.5783 Y-0.7388 Z-0.1399
G1 X2.5742 Y-0.7304 Z-0.1386
G1 X2.5682 Y-0.7188 Z-0.137
G1 X2.5589 Y-0.7017 Z-0.1348
G1 X2.5496 Y-0.6845 Z-0.1329
G1 X2.5434 Y-0.673 Z-0.1318
G1 X2.5374 Y-0.6614 Z-0.1308
G1 X2.5345 Y-0.6556 Z-0.1304
G1 X2.5317 Y-0.6497 Z-0.13
G1 X2.529 Y-0.6437 Z-0.1296
G1 X2.5263 Y-0.6377 Z-0.1292
G1 X2.5239 Y-0.632 Z-0.129
G1 X2.5217 Y-0.6261 Z-0.1287
G1 X2.5196 Y-0.6202 Z-0.1285
G1 X2.5176 Y-0.6143 Z-0.1284
G1 X2.5159 Y-0.6083 Z-0.1282
G1 X2.5143 Y-0.6022
G1 X2.5129 Y-0.5961
G1 X2.5117 Y-0.59
G1 X2.5108 Y-0.5838
G1 X2.5101 Y-0.5777 Z-0.1284
G1 X2.5097 Y-0.5715 Z-0.1285
G1 X2.5096 Y-0.5653 Z-0.1287
G1 X2.5098 Y-0.5592 Z-0.129
G1 X2.5103 Y-0.553 Z-0.1293
G1 X2.5112 Y-0.5469 Z-0.1297
G1 X2.5125 Y-0.5409 Z-0.1302
G1 X2.5139 Y-0.5355 Z-0.1306
G1 X2.5154 Y-0.5302 Z-0.131
G1 X2.5184 Y-0.5211 Z-0.1316
G1 X2.5218 Y-0.512 Z-0.1324
G1 X2.523 Y-0.5091 Z-0.1327
G1 X2.5257 Y-0.5029 Z-0.1333
G1 X2.5302 Y-0.4938 Z-0.1342
G1 X2.5321 Y-0.4901 Z-0.1347
G1 X2.535 Y-0.4847 Z-0.1353
G1 X2.5439 Y-0.4693 Z-0.1372
G1 X2.5423 Y-0.4689 Z-0.1373
G1 X2.2988 Y-0.4655 Z-0.1352
G1 X2.298 Y-0.466 Z-0.1351
G1 X2.3031 Y-0.4757 Z-0.1339
G1 X2.3075 Y-0.4847 Z-0.1328
G1 X2.3134 Y-0.4971 Z-0.1316
G1 X2.3162 Y-0.5029 Z-0.131
G1 X2.3201 Y-0.512 Z-0.1302
G1 X2.3236 Y-0.5211 Z-0.1296
G1 X2.3267 Y-0.5302 Z-0.129
G1 X2.3292 Y-0.5392 Z-0.1284
G1 X2.3317 Y-0.5492 Z-0.1277
G1 X2.3331 Y-0.5574 Z-0.1274
G1 X2.3345 Y-0.5665 Z-0.1271
G1 X2.3355 Y-0.5756 Z-0.1268
G1 X2.336 Y-0.5847 Z-0.1267
G1 X2.3363 Y-0.5938 Z-0.1266
G1 X2.3362 Y-0.6028
G1 X2.3358 Y-0.6119 Z-0.1267
G1 X2.3349 Y-0.621 Z-0.1269
G1 X2.3338 Y-0.6301 Z-0.1272
G1 X2.3322 Y-0.6392 Z-0.1275
G1 X2.3303 Y-0.6483 Z-0.128
G1 X2.3279 Y-0.6573 Z-0.1285
G1 X2.3251 Y-0.6664 Z-0.1291
G1 X2.3226 Y-0.674 Z-0.1297
G1 X2.3182 Y-0.6846 Z-0.1305
G1 X2.3134 Y-0.6951 Z-0.1315
G1 X2.3098 Y-0.7028 Z-0.1323
G1 X2.3043 Y-0.714 Z-0.1336
G1 X2.298 Y-0.7263 Z-0.1351
G1 X2.2988 Y-0.7266 Z-0.1352
G1 X2.5429 Y-0.7232 Z-0.1373
G1 X2.5438 Y-0.7226 Z-0.1372
G1 X2.5376 Y-0.7118 Z-0.1358
G1 X2.5321 Y-0.702 Z-0.1346
G1 X2.5278 Y-0.6937 Z-0.1336
G1 X2.523 Y-0.683 Z-0.1326
G1 X2.5199 Y-0.6755 Z-0.1318
G1 X2.5168 Y-0.6664 Z-0.1311
G1 X2.5139 Y-0.6571 Z-0.1304
G1 X2.5115 Y-0.6483 Z-0.1298
G1 X2.5097 Y-0.6392 Z-0.1294
G1 X2.5081 Y-0.6301 Z-0.129
G1 X2.5071 Y-0.621 Z-0.1287
G1 X2.5063 Y-0.6119 Z-0.1285
G1 X2.506 Y-0.6028 Z-0.1284
G1 Y-0.5938
G1 X2.5063 Y-0.5847 Z-0.1285
G1 X2.5068 Y-0.5756 Z-0.1286
G1 X2.5077 Y-0.5665 Z-0.1289
G1 X2.5091 Y-0.5574 Z-0.1293
G1 X2.5107 Y-0.5483 Z-0.1296
G1 X2.5125 Y-0.5409 Z-0.1302
G1 X2.5141 Y-0.5354 Z-0.1306
G1 X2.5151 Y-0.5327 Z-0.1308
G1 X2.5162 Y-0.5301 Z-0.131
G1 X2.5187 Y-0.5249 Z-0.1313
G1 X2.5216 Y-0.5199 Z-0.1317
G1 X2.5249 Y-0.5152 Z-0.1321
G1 X2.5284 Y-0.5106 Z-0.1326
G1 X2.5322 Y-0.5062 Z-0.133
G1 X2.5363 Y-0.5021 Z-0.1334
G1 X2.5406 Y-0.4981 Z-0.1337
G1 X2.5451 Y-0.4943 Z-0.1341
G1 X2.5498 Y-0.4907 Z-0.1345
G1 X2.5547 Y-0.4873 Z-0.1349
G1 X2.5596 Y-0.4841 Z-0.1353
G1 X2.5647 Y-0.4811 Z-0.1358
G1 X2.57 Y-0.4783 Z-0.1362
G1 X2.5753 Y-0.4758 Z-0.1367
G1 X2.581 Y-0.4732 Z-0.1371
G1 X2.5869 Y-0.4708 Z-0.1375
G1 X2.5928 Y-0.4686 Z-0.1377
G1 X2.5987 Y-0.4665 Z-0.138
G1 X2.6047 Y-0.4646 Z-0.1382
G1 X2.6108 Y-0.4628 Z-0.1385
G1 X2.6169 Y-0.4612 Z-0.1389
G1 X2.623 Y-0.4598 Z-0.1394
G1 X2.6292 Y-0.4585 Z-0.1397
G1 X2.6354 Y-0.4573 Z-0.1401
G1 X2.6416 Y-0.4563 Z-0.1406
G1 X2.6479 Y-0.4554 Z-0.1415
G1 X2.6541 Y-0.4547 Z-0.1425
G1 X2.6604 Y-0.4541 Z-0.1437
G1 X2.6667 Y-0.4537 Z-0.1451
G1 X2.6735 Y-0.4534 Z-0.1462
G1 X2.6796 Y-0.4532 Z-0.1466
G1 X2.6862 Y-0.4531 Z-0.147
G1 X2.6928 Y-0.4532 Z-0.1473
G1 X2.6994 Y-0.4534 Z-0.1477
G1 X2.7059 Y-0.4537 Z-0.148
G1 X2.7125 Y-0.4541 Z-0.1484
G1 X2.7191 Y-0.4547 Z-0.1487
G1 X2.7256 Y-0.4554 Z-0.149
G1 X2.7321 Y-0.4563 Z-0.1493
G1 X2.7386 Y-0.4573 Z-0.1495
G1 X2.7451 Y-0.4584 Z-0.1498
G1 X2.7515 Y-0.4597 Z-0.15
G1 X2.7579 Y-0.4612 Z-0.1502
G1 X2.7643 Y-0.4628 Z-0.1504
G1 X2.7707 Y-0.4645 Z-0.1506
G1 X2.7769 Y-0.4665 Z-0.1507
G1 X2.7829 Y-0.4685 Z-0.1508
G1 X2.7888 Y-0.4707 Z-0.1509
G1 X2.7946 Y-0.4732
G1 X2.8004 Y-0.4758
G1 X2.806 Y-0.4786
G1 X2.8115 Y-0.4816
G1 X2.8169 Y-0.4849 Z-0.1508
G1 X2.8222 Y-0.4883 Z-0.1507
G1 X2.8272 Y-0.4919 Z-0.1505
G1 X2.8321 Y-0.4958 Z-0.1503
G1 X2.8368 Y-0.4999 Z-0.15
G1 X2.8412 Y-0.5042 Z-0.1497
G1 X2.8455 Y-0.5087 Z-0.1494
G1 X2.8494 Y-0.5135 Z-0.149
G1 X2.853 Y-0.5185 Z-0.1485
G1 X2.8563 Y-0.5237 Z-0.148
G1 X2.8601 Y-0.5303 Z-0.1474
G1 X2.8705 Y-0.5483 Z-0.1458
G1 X2.8752 Y-0.5574 Z-0.1455
G1 X2.8783 Y-0.5652 Z-0.1456
G1 X2.8787 Y-0.5665
G1 X2.8813 Y-0.5756 Z-0.1462
G1 X2.8829 Y-0.5847 Z-0.1474
G1 X2.8836 Y-0.5938 Z-0.1493
G1 Y-0.5961 Z-0.1498
G1 Y-0.5983 Z-0.1493
G1 X2.8833 Y-0.6028 Z-0.1483
G1 X2.8822 Y-0.6119 Z-0.1468
G1 X2.8802 Y-0.621 Z-0.1458
G1 X2.8783 Y-0.627 Z-0.1455
G1 X2.8772 Y-0.6301
G1 X2.873 Y-0.6392 Z-0.1456
G1 X2.8692 Y-0.6461 Z-0.146
G1 X2.8574 Y-0.6664 Z-0.1478
G1 X2.852 Y-0.6755 Z-0.1489
G1 X2.8509 Y-0.6771 Z-0.1491
G1 X2.8453 Y-0.6846 Z-0.1505
G1 X2.8418 Y-0.6887 Z-0.1515
G1 X2.8368 Y-0.6937 Z-0.1531
G1 X2.8327 Y-0.6972 Z-0.1546
G1 X2.8254 Y-0.7028 Z-0.1574
G1 X2.8236 Y-0.704 Z-0.1581
G1 X2.8145 Y-0.709 Z-0.1624
G1 X2.812 Y-0.7103 Z-0.1636
G1 X2.8082 Y-0.7118 Z-0.1628
G1 X2.8054 Y-0.713 Z-0.1623
G1 X2.7963 Y-0.7158 Z-0.1609
G1 X2.7872 Y-0.7176 Z-0.16
G1 X2.7781 Y-0.7185 Z-0.1595
G1 X2.769 Y-0.7187 Z-0.1593
G1 X2.7416 Z-0.1591
G1 X2.7325 Y-0.7183
G1 X2.7234 Y-0.7171 Z-0.1596
G1 X2.7143 Y-0.7149 Z-0.1604
G1 X2.7052 Y-0.7118 Z-0.1618
G1 X2.7029 Y-0.7108 Z-0.1623
G1 X2.7006 Y-0.7098 Z-0.161
G1 X2.6961 Y-0.7076 Z-0.1587
G1 X2.687 Y-0.7022 Z-0.1546
G1 X2.6779 Y-0.6951 Z-0.151
G1 X2.6762 Y-0.6937 Z-0.1504
G1 X2.6687 Y-0.6859 Z-0.1479
G1 X2.6676 Y-0.6846 Z-0.1476
G1 X2.6609 Y-0.6755 Z-0.1459
G1 X2.6596 Y-0.6735 Z-0.1456
G1 X2.6555 Y-0.6664 Z-0.1447
G1 X2.645 Y-0.6483 Z-0.1429
G1 X2.6414 Y-0.6419 Z-0.1423
G1 X2.6399 Y-0.6392 Z-0.1422
G1 X2.6359 Y-0.6301 Z-0.142
G1 X2.6329 Y-0.621 Z-0.1423
G1 X2.6323 Y-0.6186 Z-0.1424
G1 X2.6309 Y-0.6119 Z-0.1432
G1 X2.6299 Y-0.6028 Z-0.1447
G1 X2.6297 Y-0.5966 Z-0.1461
G1 Y-0.596 Z-0.1462
G1 X2.6298 Y-0.5938 Z-0.1457
G1 X2.6305 Y-0.5847 Z-0.1439
G1 X2.632 Y-0.5756 Z-0.1427
G1 X2.6325 Y-0.5735 Z-0.1425
G1 X2.6344 Y-0.5665 Z-0.1421
G1 X2.6379 Y-0.5574
G1 X2.6414 Y-0.5502 Z-0.1423
G1 X2.6424 Y-0.5483 Z-0.1424
G1 X2.6529 Y-0.5302 Z-0.1442
G1 X2.6581 Y-0.5211 Z-0.1452
G1 X2.6596 Y-0.5187 Z-0.1456
G1 X2.6641 Y-0.512 Z-0.1467
G1 X2.6687 Y-0.5062 Z-0.1479
G1 X2.6717 Y-0.5029 Z-0.1488
G1 X2.6779 Y-0.497 Z-0.151
G1 X2.6817 Y-0.4938 Z-0.1524
G1 X2.687 Y-0.49 Z-0.1546
G1 X2.6961 Y-0.4846 Z-0.1587
G1 X2.7006 Y-0.4823 Z-0.161
G1 X2.7029 Y-0.4813 Z-0.1623
G1 X2.7052 Y-0.4804 Z-0.1618
G1 X2.7143 Y-0.4772 Z-0.1604
G1 X2.7203 Y-0.4757 Z-0.1598
G1 X2.7234 Y-0.4751 Z-0.1596
G1 X2.7325 Y-0.4738 Z-0.1591
G1 X2.7416 Y-0.4734
G1 X2.769 Z-0.1593
G1 X2.7781 Y-0.4736 Z-0.1595
G1 X2.7872 Y-0.4745 Z-0.16
G1 X2.7933 Y-0.4757 Z-0.1605
G1 X2.7963 Y-0.4763 Z-0.1609
G1 X2.8054 Y-0.4792 Z-0.1623
G1 X2.81 Y-0.4809 Z-0.1632
G1 X2.812 Y-0.4819 Z-0.1636
G1 X2.8178 Y-0.4847 Z-0.1607
G1 X2.8236 Y-0.4882 Z-0.1581
G1 X2.8315 Y-0.4938 Z-0.1551
G1 X2.8327 Y-0.4949 Z-0.1546
G1 X2.8413 Y-0.5029 Z-0.1516
G1 X2.8418 Y-0.5035 Z-0.1515
G1 X2.8487 Y-0.512 Z-0.1497
G1 X2.8509 Y-0.515 Z-0.1491
G1 X2.8548 Y-0.5211 Z-0.1483
G1 X2.8563 Y-0.5237 Z-0.148
G1 X2.8594 Y-0.529 Z-0.1475
G1 X2.8626 Y-0.5342 Z-0.1469
G1 X2.8659 Y-0.5394 Z-0.1462
G1 X2.8693 Y-0.5444 Z-0.1455
G1 X2.8728 Y-0.5495 Z-0.1448
G1 X2.8764 Y-0.5544 Z-0.144
G1 X2.88 Y-0.5593 Z-0.1433
G1 X2.8838 Y-0.5641 Z-0.1425
G1 X2.8876 Y-0.5689 Z-0.1418
G1 X2.8915 Y-0.5736 Z-0.141
G1 X2.8955 Y-0.5782 Z-0.1403
G1 X2.8995 Y-0.5828 Z-0.1396
G1 X2.9037 Y-0.5873 Z-0.1389
G1 X2.9079 Y-0.5917 Z-0.1383
G1 X2.9122 Y-0.5961 Z-0.1378
G1 X2.9167 Y-0.6005 Z-0.1373
G1 X2.921 Y-0.6047 Z-0.1359
G1 X2.9254 Y-0.6088 Z-0.1348
G1 X2.93 Y-0.6129 Z-0.134
G1 X2.9346 Y-0.617 Z-0.1335
G1 X2.9392 Y-0.6209 Z-0.1333
G1 X2.944 Y-0.6249 Z-0.1334
G1 X2.9488 Y-0.6287 Z-0.1336
G1 X2.9536 Y-0.6325 Z-0.1338
G1 X2.9585 Y-0.6362
G1 X2.9635 Y-0.6398 Z-0.134
G1 X2.9685 Y-0.6434 Z-0.1342
G1 X2.9735 Y-0.6469 Z-0.1346
G1 X2.9786 Y-0.6503 Z-0.1348
G1 X2.9838 Y-0.6536 Z-0.1351
G1 X2.989 Y-0.6569 Z-0.1354
G1 X2.9942 Y-0.6601 Z-0.1357
G1 X2.9995 Y-0.6632
G1 X3.0048 Y-0.6662
G1 X3.0102 Y-0.6692 Z-0.1358
G1 X3.0156 Y-0.672 Z-0.1359
G1 X3.021 Y-0.6748 Z-0.1361
G1 X3.0265 Y-0.6775 Z-0.1362
G1 X3.032 Y-0.6802 Z-0.1364
G1 X3.0376 Y-0.6827 Z-0.1366
G1 X3.0432 Y-0.6852 Z-0.1369
G1 X3.0488 Y-0.6875 Z-0.1371
G1 X3.0545 Y-0.6898 Z-0.1374
G1 X3.0602 Y-0.692 Z-0.1377
G1 X3.0659 Y-0.6941 Z-0.138
G1 X3.0717 Y-0.6961 Z-0.1383
G1 X3.0775 Y-0.6981 Z-0.1386
G1 X3.0833 Y-0.6999 Z-0.139
G1 X3.0892 Y-0.7016 Z-0.1393
G1 X3.095 Y-0.7032 Z-0.1396
G1 X3.1009 Y-0.7047 Z-0.1399
G1 X3.1069 Y-0.7061 Z-0.1402
G1 X3.1128 Y-0.7075 Z-0.1405
G1 X3.1188 Y-0.7087 Z-0.1408
G1 X3.1248 Y-0.7098 Z-0.1411
G1 X3.1308 Y-0.7107 Z-0.1414
G1 X3.1368 Y-0.7116 Z-0.1417
G1 X3.1428 Y-0.7123 Z-0.1419
G1 X3.1489 Y-0.713 Z-0.1421
G1 X3.1549 Y-0.7135 Z-0.1423
G1 X3.161 Y-0.7139 Z-0.1425
G1 X3.1671 Y-0.7141 Z-0.1426
G1 X3.1732 Y-0.7142 Z-0.1427
G1 X3.1793 Z-0.1428
G1 X3.2791 Y-0.7128 Z-0.1437
G1 X3.2974 Y-0.7125 Z-0.1443
G1 X3.3156 Y-0.7121 Z-0.1451
G1 X3.3338 Y-0.7116 Z-0.1463
G1 X3.352 Y-0.7112 Z-0.1477
G1 X3.3702 Y-0.7106 Z-0.1495
G1 X3.3885 Y-0.7101 Z-0.1515
G1 X3.3976 Y-0.7099 Z-0.1526
G1 X3.4158 Y-0.7093 Z-0.1553
G1 X3.434 Y-0.7088 Z-0.1584
G1 X3.4522 Y-0.7083 Z-0.1617
G1 X3.4567 Y-0.7082 Z-0.1625
G1 X3.4613 Y-0.7083 Z-0.1605
G1 X3.4704 Y-0.7084 Z-0.1569
G1 X3.4796 Y-0.7087 Z-0.154
G1 X3.4887 Y-0.7089 Z-0.1515
G1 X3.4978 Y-0.709 Z-0.1494
G1 X3.5069 Y-0.7092 Z-0.1479
G1 X3.516 Y-0.7093 Z-0.1467
G1 X3.5251 Z-0.1461
G1 X3.5342 Y-0.7092 Z-0.1459
G1 X3.844 Y-0.7049 Z-0.1485
G1 X4.0171 Y-0.7024 Z-0.15
G1 X4.0262 Y-0.7022 Z-0.1504
G1 X4.0353 Y-0.702 Z-0.151
G1 X4.0444 Y-0.7017 Z-0.152
G1 X4.0535 Y-0.7014 Z-0.1533
G1 X4.0626 Y-0.701 Z-0.1551
G1 X4.0717 Y-0.7006 Z-0.1573
G1 X4.0808 Y-0.7002 Z-0.1598
G1 X4.0899 Y-0.6998 Z-0.1628
G1 X4.0963 Y-0.6996 Z-0.165
G1 X4.0991 Z-0.1641
G1 X4.1082 Y-0.6997 Z-0.1612
G1 X4.1173 Y-0.6998 Z-0.1587
G1 X4.1264 Y-0.7 Z-0.1566
G1 X4.1355 Y-0.7001 Z-0.1548
G1 X4.1446 Y-0.7002 Z-0.1535
G1 X4.1537 Y-0.7003 Z-0.1525
G1 X4.1628 Z-0.1518
G1 X4.1719 Y-0.7002 Z-0.1515
G1 X4.181 Y-0.7001 Z-0.1514
G1 X4.6639 Y-0.6934 Z-0.1555
G1 X4.673 Y-0.6932 Z-0.1559
G1 X4.6821 Y-0.6929 Z-0.157
G1 X4.6912 Y-0.6925 Z-0.1587
G1 X4.7003 Y-0.692 Z-0.1611
G1 X4.7094 Y-0.6916 Z-0.1642
G1 X4.7195 Y-0.691 Z-0.1686
G1 X4.7277 Y-0.6911 Z-0.1668
G1 X4.7368 Z-0.1649
G1 X4.7459 Y-0.6912 Z-0.1633
G1 X4.755 Z-0.1618
G1 X4.7641 Y-0.6913 Z-0.1605
G1 X4.7732 Z-0.1595
G1 X4.7823 Z-0.1586
G1 X4.7914 Z-0.1579
G1 X4.8005 Z-0.1574
G1 X4.8097 Z-0.157
G1 X4.8188 Y-0.6912 Z-0.1568
G1 X4.8552 Y-0.6907 Z-0.157
G1 X5.0101 Y-0.6885 Z-0.1582
G1 X5.0192 Y-0.6883 Z-0.1587
G1 X5.0283 Y-0.6881 Z-0.1597
G1 X5.0374 Y-0.6877 Z-0.1614
G1 X5.0465 Y-0.6873 Z-0.1637
G1 X5.0556 Y-0.6868 Z-0.1667
G1 X5.0647 Y-0.6863 Z-0.1704
G1 X5.0738 Y-0.686 Z-0.1748
G1 X5.083 Y-0.6857 Z-0.1798
G1 X5.0875 Z-0.1823
G1 X5.0898 Z-0.1833
G1 X5.0909 Z-0.1837
G1 X5.0918
G1 X5.0932 Z-0.1833
G1 X5.0943 Y-0.6856 Z-0.1828
G1 X5.0966 Z-0.1817
G1 X5.1012 Y-0.6855 Z-0.1792
G1 X5.1103 Z-0.1745
G1 X5.1194 Y-0.6856 Z-0.1704
G1 X5.1285 Y-0.6858 Z-0.1669
G1 X5.1376 Y-0.686 Z-0.1642
G1 X5.1467 Y-0.6862 Z-0.1621
G1 X5.1558 Y-0.6863 Z-0.1606
G1 X5.165 Z-0.1597
G1 X5.1741 Z-0.1595
G1 X5.4474 Y-0.6825 Z-0.1616
G1 X5.4565 Y-0.6823 Z-0.1618
G1 X5.4656 Y-0.6821 Z-0.1624
G1 X5.4747 Y-0.6818 Z-0.1634
G1 X5.4838 Y-0.6815 Z-0.1649
G1 X5.4929 Y-0.6812 Z-0.1667
G1 X5.502 Y-0.6808 Z-0.1689
G1 X5.5111 Y-0.6804 Z-0.1713
G1 X5.5294 Y-0.6798 Z-0.1764
G1 X5.5385 Y-0.6795 Z-0.1788
G1 X5.5476 Y-0.6793 Z-0.1809
G1 X5.5567 Y-0.679 Z-0.1823
G1 X5.5658 Y-0.6788 Z-0.183
G1 X5.5749 Y-0.6782 Z-0.1829
G1 X5.584 Y-0.6766
G1 X5.5885 Y-0.6755
G1 X5.5931 Y-0.674
G1 X5.6022 Y-0.67
G1 X5.6087 Y-0.6664
G1 X5.6114 Y-0.6647
G1 X5.6208 Y-0.6573
G1 X5.6296 Y-0.6475 Z-0.183
G1 X5.6318 Y-0.6448
G1 X5.6355 Y-0.6392
G1 X5.6387 Y-0.6337 Z-0.1829
G1 X5.6405 Y-0.6301
G1 X5.6439 Y-0.621
G1 X5.6463 Y-0.6119
G1 X5.6474 Y-0.6028 Z-0.183
G1 X5.6478 Y-0.5975 Z-0.1829
G1 Y-0.5951
G1 X5.647 Y-0.5847
G1 X5.6453 Y-0.5756
G1 X5.6424 Y-0.5665
G1 X5.6387 Y-0.5585
G1 X5.6327 Y-0.5483
G1 X5.6296 Y-0.5446 Z-0.183
G1 X5.6248 Y-0.5392 Z-0.1831
G1 X5.6205 Y-0.5349
G1 X5.6152 Y-0.5302 Z-0.1829
G1 X5.6114 Y-0.5275
G1 X5.6022 Y-0.5222
G1 X5.5997 Y-0.5211 Z-0.183
G1 X5.5931 Y-0.5182 Z-0.1829
G1 X5.584 Y-0.5156 Z-0.183
G1 X5.5749 Y-0.5139 Z-0.1829
G1 X5.5658 Y-0.5134 Z-0.183
G1 X5.5567 Y-0.5131 Z-0.1823
G1 X5.5476 Y-0.5128 Z-0.1809
G1 X5.5385 Y-0.5126 Z-0.1788
G1 X5.5294 Y-0.5123 Z-0.1764
G1 X5.5111 Y-0.5117 Z-0.1713
G1 X5.502 Y-0.5114 Z-0.1689
G1 X5.4929 Y-0.511 Z-0.1667
G1 X5.4838 Y-0.5106 Z-0.1649
G1 X5.4747 Y-0.5103 Z-0.1634
G1 X5.4656 Y-0.51 Z-0.1624
G1 X5.4565 Y-0.5098 Z-0.1618
G1 X5.4474 Y-0.5096 Z-0.1616
G1 X4.8734 Y-0.5017 Z-0.1572
G1 X4.8279 Y-0.5011 Z-0.1568
G1 X4.8188 Y-0.5009
G1 X4.8097 Z-0.157
G1 X4.8005 Y-0.5008 Z-0.1574
G1 X4.7914 Z-0.1579
G1 X4.7823 Z-0.1586
G1 X4.7732 Z-0.1595
G1 X4.7641 Z-0.1605
G1 X4.755 Y-0.5009 Z-0.1618
G1 X4.7459 Z-0.1633
G1 X4.7368 Y-0.501 Z-0.1649
G1 X4.7277 Y-0.5011 Z-0.1668
G1 X4.7195 Z-0.1686
G1 X4.7094 Y-0.5006 Z-0.1642
G1 X4.7003 Y-0.5001 Z-0.1611
G1 X4.6912 Y-0.4996 Z-0.1587
G1 X4.6821 Y-0.4992 Z-0.157
G1 X4.673 Y-0.499 Z-0.1559
G1 X4.6639 Y-0.4988 Z-0.1555
G1 X4.4179 Y-0.4953 Z-0.1534
G1 X4.181 Y-0.492 Z-0.1514
G1 X4.1719 Y-0.4919 Z-0.1515
G1 X4.1628 Y-0.4918 Z-0.1518
G1 X4.1537 Z-0.1525
G1 X4.1446 Y-0.4919 Z-0.1535
G1 X4.1355 Y-0.492 Z-0.1548
G1 X4.1264 Y-0.4921 Z-0.1566
G1 X4.1173 Y-0.4923 Z-0.1587
G1 X4.1082 Y-0.4924 Z-0.1612
G1 X4.0991 Y-0.4925 Z-0.1641
G1 X4.0962 Y-0.4926 Z-0.165
G1 X4.0899 Y-0.4923 Z-0.1628
G1 X4.0808 Y-0.4919 Z-0.1598
G1 X4.0717 Y-0.4915 Z-0.1573
G1 X4.0626 Y-0.4911 Z-0.1551
G1 X4.0535 Y-0.4907 Z-0.1533
G1 X4.0444 Y-0.4904 Z-0.152
G1 X4.0353 Y-0.4901 Z-0.151
G1 X4.0262 Y-0.4899 Z-0.1504
G1 X4.0171 Y-0.4897 Z-0.15
G1 X3.5342 Y-0.4829 Z-0.1459
G1 X3.5251 Z-0.1461
G1 X3.516 Z-0.1467
G1 X3.5069 Z-0.1479
G1 X3.4978 Y-0.4831 Z-0.1494
G1 X3.4887 Y-0.4833 Z-0.1515
G1 X3.4796 Y-0.4835 Z-0.154
G1 X3.4704 Y-0.4837 Z-0.1569
G1 X3.4613 Y-0.4838 Z-0.1605
G1 X3.4566 Y-0.4839 Z-0.1625
G1 X3.4431 Y-0.4836 Z-0.16
G1 X3.4249 Y-0.4831 Z-0.1568
G1 X3.4067 Y-0.4825 Z-0.1539
G1 X3.3976 Y-0.4823 Z-0.1526
G1 X3.3793 Y-0.4817 Z-0.1504
G1 X3.3611 Y-0.4812 Z-0.1486
G1 X3.3429 Y-0.4807 Z-0.147
G1 X3.3247 Y-0.4803 Z-0.1457
G1 X3.3065 Y-0.4799 Z-0.1447
G1 X3.2882 Y-0.4795 Z-0.1439
G1 X3.2791 Y-0.4793 Z-0.1437
G1 X2.9733 Y-0.475 Z-0.141
G1 X2.9725 Y-0.4753 Z-0.1409
G1 X2.9785 Y-0.4858 Z-0.1398
G1 X2.9828 Y-0.4938 Z-0.1389
G1 X2.9876 Y-0.5033 Z-0.138
G1 X2.9913 Y-0.512 Z-0.1372
G1 X2.9949 Y-0.5211 Z-0.1364
G1 X2.9967 Y-0.5264 Z-0.1361
G1 X2.9979 Y-0.5302 Z-0.1358
G1 X3.0004 Y-0.5392 Z-0.1352
G1 X3.0027 Y-0.5483 Z-0.1348
G1 X3.0044 Y-0.5574 Z-0.1344
G1 X3.0059 Y-0.5665 Z-0.134
G1 X3.0068 Y-0.5756 Z-0.1338
G1 X3.0073 Y-0.5847 Z-0.1337
G1 X3.0076 Y-0.5938 Z-0.1336
G1 X3.0075 Y-0.6028 Z-0.1337
G1 X3.0071 Y-0.6119 Z-0.1338
G1 X3.0063 Y-0.621 Z-0.1339
G1 X3.0058 Y-0.6253 Z-0.134
G1 X3.0052 Y-0.6301 Z-0.1342
G1 X3.0036 Y-0.6392 Z-0.1346
G1 X3.0017 Y-0.6483 Z-0.135
G1 X2.9993 Y-0.6573 Z-0.1355
G1 X2.9965 Y-0.6664 Z-0.1361
G1 X2.9933 Y-0.6755 Z-0.1368
G1 X2.9894 Y-0.6846 Z-0.1376
G1 X2.9853 Y-0.6937 Z-0.1384
G1 X2.9805 Y-0.7028 Z-0.1394
G1 X2.9785 Y-0.7064 Z-0.1398
G1 X2.9726 Y-0.7167 Z-0.1409
G1 X2.9736 Y-0.7171 Z-0.141
G1 X3.1793 Y-0.7142 Z-0.1428
G1 X3.1857 Y-0.7141
G1 X3.1922 Y-0.7138 Z-0.1427
G1 X3.1987 Y-0.7134 Z-0.1426
G1 X3.2051 Y-0.713 Z-0.1424
G1 X3.2115 Y-0.7124 Z-0.1422
G1 X3.218 Y-0.7117 Z-0.1419
G1 X3.2244 Y-0.711 Z-0.1417
G1 X3.2308 Y-0.7101 Z-0.1415
G1 X3.2372 Y-0.7092 Z-0.1413
G1 X3.2436 Y-0.7082 Z-0.1411
G1 X3.25 Y-0.7071
G1 X3.2563 Y-0.7059
G1 X3.2626 Y-0.7046 Z-0.1412
G1 X3.269 Y-0.7033 Z-0.1414
G1 X3.2753 Y-0.7019 Z-0.1418
G1 X3.2815 Y-0.7004 Z-0.1423
G1 X3.2878 Y-0.6988
G1 X3.2941 Y-0.6972 Z-0.1427
G1 X3.3004 Y-0.6955 Z-0.1433
G1 X3.3128 Y-0.692 Z-0.1452
G1 X3.319 Y-0.6901 Z-0.1464
G1 X3.3251 Y-0.6882 Z-0.1477
G1 X3.3312 Y-0.6863 Z-0.1491
G1 X3.3373 Y-0.6843 Z-0.1504
G1 X3.3434 Y-0.6823 Z-0.1518
G1 X3.3495 Y-0.6802 Z-0.1533
G1 X3.3555 Y-0.6781 Z-0.155
G1 X3.3615 Y-0.6759 Z-0.1568
G1 X3.3675 Y-0.6737 Z-0.1588
G1 X3.3735 Y-0.6714 Z-0.1606
G1 X3.3796 Y-0.6691 Z-0.162
G1 X3.3877 Y-0.6657 Z-0.1638
G1 X3.3956 Y-0.662 Z-0.1659
G1 X3.4031 Y-0.6579 Z-0.1684
G1 X3.4104 Y-0.6534 Z-0.1712
G1 X3.4174 Y-0.6487 Z-0.1743
G1 X3.4241 Y-0.6437 Z-0.1776
G1 X3.4305 Y-0.6385 Z-0.1812
G1 X3.4366 Y-0.6331 Z-0.1851
G1 X3.441 Y-0.6285 Z-0.1884
G1 X3.443 Y-0.6261 Z-0.1902
G1 X3.4447 Y-0.6236 Z-0.1922
G1 X3.4478 Y-0.6185 Z-0.1962
G1 X3.449 Y-0.6158 Z-0.1984
G1 X3.45 Y-0.6132 Z-0.2006
G1 X3.4507 Y-0.6108 Z-0.2025
G1 X3.4511 Y-0.6083 Z-0.2044
G1 X3.4512 Y-0.6059 Z-0.2063
G1 X3.4511 Y-0.6047 Z-0.2073
G1 X3.4509 Y-0.6033 Z-0.2086
G1 X3.4507 Y-0.6025 Z-0.2092
G1 X3.4503 Y-0.6013 Z-0.2101
G1 X3.4496 Y-0.5998 Z-0.2115
G1 X3.4485 Y-0.5983 Z-0.213
G1 X3.4477 Y-0.5975 Z-0.2141
G1 X3.4468 Y-0.5967 Z-0.2153
G1 X3.4456 Y-0.5961 Z-0.2166
G1 X3.4399 Y-0.5938 Z-0.2199
G1 X3.434 Y-0.5911 Z-0.2232
G1 X3.4272 Y-0.5878 Z-0.2271
G1 X3.4267 Y-0.5875 Z-0.2274
G1 X3.4227 Y-0.5878 Z-0.2262
G1 X3.4203 Y-0.5891 Z-0.2236
G1 X3.4158 Y-0.5913 Z-0.2189
G1 X3.41 Y-0.5938 Z-0.213
G1 X3.4067 Y-0.5951 Z-0.2097
G1 X3.4039 Y-0.5961 Z-0.2069
G1 X3.4067 Y-0.5971 Z-0.2097
G1 X3.4108 Y-0.5987 Z-0.2138
G1 X3.4158 Y-0.6008 Z-0.2189
G1 X3.4199 Y-0.6028 Z-0.2231
G1 X3.4228 Y-0.6044 Z-0.2262
G1 X3.4267 Y-0.6046 Z-0.2274
G1 X3.4301 Y-0.6028 Z-0.2254
G1 X3.434 Y-0.601 Z-0.2232
G1 X3.4443 Y-0.5966 Z-0.2174
G1 X3.4456 Y-0.5961 Z-0.2166
G1 X3.4468 Y-0.5956 Z-0.2155
G1 X3.4476 Y-0.5953 Z-0.2141
G1 X3.4479 Y-0.5952 Z-0.2124
G1 Z0.2
G1 X2.2123 Y-0.5879
G1 Z-0.0541
G1 Z-0.1326 F13.333
G1 Y-0.5882 Z-0.1347 F30.
G1 Y-0.589 Z-0.1367
G1 Y-0.5903 Z-0.1384
G1 X2.2122 Y-0.5919 Z-0.1398
G1 Y-0.5939 Z-0.1406
G1 X2.2121 Y-0.596 Z-0.141
G1 X2.2118 Y-0.6028 Z-0.1398
G1 X2.2107 Y-0.6119 Z-0.1386
G1 X2.2087 Y-0.621 Z-0.138
G1 X2.2058 Y-0.6301 Z-0.1379
G1 X2.2041 Y-0.6341 Z-0.138
G1 X2.2018 Y-0.6392 Z-0.1383
G1 X2.1931 Y-0.6573 Z-0.1396
G1 X2.1884 Y-0.6664 Z-0.1406
G1 X2.1859 Y-0.6705 Z-0.1413
G1 X2.1824 Y-0.6755 Z-0.1422
G1 X2.1768 Y-0.6824 Z-0.144
G1 X2.1747 Y-0.6846 Z-0.1448
G1 X2.1677 Y-0.6914 Z-0.1474
G1 X2.165 Y-0.6937 Z-0.1485
G1 X2.1586 Y-0.6984 Z-0.1514
G1 X2.1563 Y-0.6999 Z-0.1525
G1 X2.155 Y-0.7007 Z-0.1523
G1 X2.1495 Y-0.7038 Z-0.1517
G1 X2.1404 Y-0.708 Z-0.1511
G1 X2.1312 Y-0.711 Z-0.151
G1 X2.1281 Y-0.7118 Z-0.1511
G1 X2.1039 Y-0.7174 Z-0.1519
G1 X2.0948 Y-0.7192 Z-0.1524
G1 X2.0857 Y-0.7203 Z-0.1531
G1 X2.0766 Z-0.1543
G1 X2.0675 Y-0.7195 Z-0.1559
G1 X2.0653 Y-0.7192 Z-0.1564
G1 X2.0629 Y-0.7188 Z-0.1554
G1 X2.0584 Y-0.7178 Z-0.1538
G1 X2.0492 Y-0.7152 Z-0.151
G1 X2.041 Y-0.7118 Z-0.1488
G1 X2.031 Y-0.7064 Z-0.1466
G1 X2.0256 Y-0.7028 Z-0.1456
G1 X2.0219 Y-0.7001 Z-0.1449
G1 X2.0025 Y-0.6846 Z-0.1424
G1 X1.9946 Y-0.6775 Z-0.1416
G1 X1.9926 Y-0.6755 Z-0.1415
G1 X1.9855 Y-0.6675 Z-0.1413
G1 X1.9813 Y-0.6619 Z-0.1416
G1 X1.9796 Y-0.6592 Z-0.1418
G1 X1.9784 Y-0.6573 Z-0.141
G1 X1.9764 Y-0.6537 Z-0.1397
G1 X1.9737 Y-0.6483 Z-0.1379
G1 X1.97 Y-0.6392 Z-0.1357
G1 X1.9675 Y-0.6301 Z-0.1342
G1 X1.9659 Y-0.621 Z-0.1332
G1 X1.9652 Y-0.6119 Z-0.1327
G1 X1.9651 Y-0.6028 Z-0.1326
G1 Y-0.5938 Z-0.1325
G1 Y-0.5847 Z-0.1326
G1 X1.9655 Y-0.5756 Z-0.1329
G1 X1.9667 Y-0.5665 Z-0.1337
G1 X1.9673 Y-0.5639 Z-0.134
G1 X1.9688 Y-0.5574 Z-0.135
G1 X1.9718 Y-0.5483 Z-0.1367
G1 X1.9758 Y-0.5392 Z-0.1394
G1 X1.9764 Y-0.5382 Z-0.1397
G1 X1.9795 Y-0.5328 Z-0.1418
G1 X1.9799 Y-0.5322 Z-0.1417
G1 X1.9812 Y-0.5302 Z-0.1416
G1 X1.9855 Y-0.5243 Z-0.1412
G1 X1.9881 Y-0.5211
G1 X1.9946 Y-0.5143 Z-0.1416
G1 X1.9972 Y-0.512 Z-0.1418
G1 X2.0037 Y-0.5066 Z-0.1426
G1 X2.0219 Y-0.4921 Z-0.1449
G1 X2.031 Y-0.4857 Z-0.1466
G1 X2.0326 Y-0.4847 Z-0.1469
G1 X2.0401 Y-0.4807 Z-0.1486
G1 X2.0492 Y-0.477 Z-0.151
G1 X2.0534 Y-0.4757 Z-0.1522
G1 X2.0584 Y-0.4743 Z-0.1538
G1 X2.0629 Y-0.4733 Z-0.1554
G1 X2.0654 Y-0.4729 Z-0.1564
G1 X2.0675 Y-0.4726 Z-0.1559
G1 X2.0766 Y-0.4718 Z-0.1543
G1 X2.0857 Z-0.1531
G1 X2.0948 Y-0.4729 Z-0.1524
G1 X2.1039 Y-0.4747 Z-0.1519
G1 X2.1221 Y-0.4789 Z-0.1513
G1 X2.1312 Y-0.4811 Z-0.151
G1 X2.1404 Y-0.4841 Z-0.1511
G1 X2.1421 Y-0.4847
G1 X2.1495 Y-0.4882 Z-0.1516
G1 X2.154 Y-0.4907 Z-0.1521
G1 X2.1565 Y-0.4922 Z-0.1524
G1 X2.1589 Y-0.4938 Z-0.1513
G1 X2.1677 Y-0.5005 Z-0.1474
G1 X2.1703 Y-0.5029 Z-0.1464
G1 X2.1768 Y-0.5096 Z-0.144
G1 X2.1788 Y-0.512 Z-0.1433
G1 X2.1859 Y-0.5216 Z-0.1413
G1 X2.1908 Y-0.5302 Z-0.1401
G1 X2.1952 Y-0.5392 Z-0.1393
G1 X2.1996 Y-0.5483 Z-0.1386
G1 X2.2041 Y-0.5579 Z-0.138
G1 X2.2074 Y-0.5665 Z-0.1379
G1 X2.2099 Y-0.5756 Z-0.1382
G1 X2.2114 Y-0.5847 Z-0.1391
G1 X2.2121 Y-0.5938 Z-0.1405
G1 Y-0.596 Z-0.141
G1 X2.2119 Y-0.5992 Z-0.1404
G1 X2.2116 Y-0.6023 Z-0.14
G1 X2.2105 Y-0.6085 Z-0.1393
G1 X2.2098 Y-0.6115 Z-0.139
G1 X2.2089 Y-0.6146 Z-0.1389
G1 X2.2068 Y-0.6205
G1 X2.2043 Y-0.6264 Z-0.139
G1 X2.2029 Y-0.6292 Z-0.1392
G1 X2.2014 Y-0.632 Z-0.1395
G1 X2.1981 Y-0.6374 Z-0.1401
G1 X2.1944 Y-0.6429 Z-0.1409
G1 X2.1906 Y-0.6479 Z-0.141
G1 X2.1864 Y-0.6529
G1 X2.182 Y-0.6576
G1 X2.1774 Y-0.6622 Z-0.1411
G1 X2.1726 Y-0.6666
G1 X2.1676 Y-0.6708
G1 X2.1625 Y-0.6748
G1 X2.1572 Y-0.6786 Z-0.141
G1 X2.1514 Y-0.6824 Z-0.1409
G1 X2.1454 Y-0.6861 Z-0.1407
G1 X2.1394 Y-0.6896 Z-0.1406
G1 X2.1333 Y-0.6929 Z-0.1404
G1 X2.127 Y-0.6961 Z-0.1402
G1 X2.1207 Y-0.6991 Z-0.1401
G1 X2.1144 Y-0.7019 Z-0.1399
G1 X2.1079 Y-0.7045 Z-0.1397
G1 X2.1014 Y-0.707 Z-0.1395
G1 X2.0948 Y-0.7094 Z-0.1393
G1 X2.0882 Y-0.7115 Z-0.1391
G1 X2.0815 Y-0.7135 Z-0.1389
G1 X2.0747 Y-0.7154 Z-0.1387
G1 X2.068 Y-0.717 Z-0.1384
G1 X2.0611 Y-0.7185 Z-0.1382
G1 X2.0543 Y-0.7198 Z-0.138
G1 X2.0461 Y-0.7212 Z-0.1377
G1 X2.0378 Y-0.7226 Z-0.1372
G1 X2.0296 Y-0.7238 Z-0.1367
G1 X2.0214 Y-0.7249 Z-0.1362
G1 X2.0131 Y-0.7259 Z-0.1356
G1 X2.0048 Y-0.7268 Z-0.135
G1 X1.9965 Y-0.7277 Z-0.1345
G1 X1.9883 Y-0.7285 Z-0.1341
G1 X1.98 Y-0.7292 Z-0.1333
G1 X1.9717 Y-0.7298 Z-0.1327
G1 X1.9633 Y-0.7303 Z-0.1324
G1 X1.9467 Y-0.7313 Z-0.1322
G1 X1.93 Y-0.732
G1 X1.9217 Y-0.7322 Z-0.1321
G1 X1.905 Y-0.7327 Z-0.1317
G1 X1.88 Y-0.7331 Z-0.1313
G1 X1.8465 Y-0.7333 Z-0.1312
G1 X1.8048 Y-0.7336 Z-0.1311
G1 X1.7881 Y-0.7338 Z-0.131
G1 X1.6353 Y-0.7359 Z-0.1297
G1 X1.6344 Y-0.7357
G1 X1.6378 Y-0.73 Z-0.1289
G1 X1.6393 Y-0.7274 Z-0.1286
G1 X1.6426 Y-0.7209 Z-0.1277
G1 X1.6484 Y-0.7082 Z-0.1262
G1 X1.6544 Y-0.6937 Z-0.1247
G1 X1.6581 Y-0.6846 Z-0.1238
G1 X1.6618 Y-0.6755 Z-0.123
G1 X1.665 Y-0.6664 Z-0.1224
G1 X1.6666 Y-0.6615 Z-0.122
G1 X1.6679 Y-0.6573 Z-0.1218
G1 X1.6702 Y-0.6483 Z-0.1212
G1 X1.6722 Y-0.6392 Z-0.1208
G1 X1.6739 Y-0.6301 Z-0.1205
G1 X1.6749 Y-0.621 Z-0.1202
G1 X1.6758 Y-0.6119 Z-0.1201
G1 X1.6762 Y-0.6028 Z-0.1199
G1 X1.6763 Y-0.5938
G1 X1.676 Y-0.5847 Z-0.1201
G1 X1.6754 Y-0.5756 Z-0.1202
G1 X1.6745 Y-0.5665 Z-0.1204
G1 X1.673 Y-0.5574 Z-0.1206
G1 X1.6713 Y-0.5483 Z-0.1211
G1 X1.6691 Y-0.5392 Z-0.1216
G1 X1.6664 Y-0.5302 Z-0.1222
G1 X1.6633 Y-0.5211 Z-0.1228
G1 X1.66 Y-0.512 Z-0.1236
G1 X1.6525 Y-0.4938 Z-0.1252
G1 X1.6484 Y-0.4841 Z-0.1262
G1 X1.6447 Y-0.4757 Z-0.1271
G1 X1.6402 Y-0.4666 Z-0.1283
G1 X1.6349 Y-0.4568 Z-0.1296
G1 X1.6346 Y-0.4565 Z-0.1297
G1 X1.6354 Y-0.4562
G1 X1.8777 Y-0.4596 Z-0.1317
G1 X1.8783 Y-0.4599
G1 X1.874 Y-0.4666 Z-0.1307
G1 X1.8686 Y-0.4757 Z-0.1295
G1 X1.867 Y-0.4785 Z-0.1291
G1 X1.8639 Y-0.4847 Z-0.1284
G1 X1.8579 Y-0.4977 Z-0.1269
G1 X1.8558 Y-0.5029 Z-0.1264
G1 X1.8526 Y-0.512 Z-0.1255
G1 X1.8496 Y-0.5211 Z-0.1246
G1 X1.8488 Y-0.5239 Z-0.1244
G1 X1.8473 Y-0.5302 Z-0.1239
G1 X1.8452 Y-0.5392 Z-0.1233
G1 X1.8436 Y-0.5483 Z-0.1227
G1 X1.8423 Y-0.5574 Z-0.1223
G1 X1.8413 Y-0.5665 Z-0.122
G1 X1.8409 Y-0.5756 Z-0.1218
G1 X1.8406 Y-0.5847 Z-0.1217
G1 Y-0.5938 Z-0.1215
G1 Y-0.6028 Z-0.1216
G1 X1.8407 Y-0.6119 Z-0.1217
G1 X1.841 Y-0.621 Z-0.1218
G1 X1.8417 Y-0.6301 Z-0.1222
G1 X1.8427 Y-0.6392 Z-0.1225
G1 X1.8442 Y-0.6483 Z-0.123
G1 X1.8459 Y-0.6573 Z-0.1236
G1 X1.8483 Y-0.6664 Z-0.1242
G1 X1.8509 Y-0.6755 Z-0.1249
G1 X1.854 Y-0.6846 Z-0.1258
G1 X1.8579 Y-0.6942 Z-0.1267
G1 X1.8616 Y-0.7028 Z-0.1278
G1 X1.867 Y-0.7134 Z-0.1291
G1 X1.8713 Y-0.7209 Z-0.13
G1 X1.8783 Y-0.7319 Z-0.1316
G1 X1.8773 Y-0.7325 Z-0.1317
G1 X1.7881 Y-0.7338 Z-0.131
G1 X1.7762 Y-0.734 Z-0.1308
G1 X1.7585 Y-0.7342 Z-0.1302
G1 X1.7349 Y-0.7345 Z-0.129
G1 X1.6994 Y-0.7348 Z-0.127
G1 X1.6817 Y-0.7349 Z-0.1263
G1 X1.6699 Y-0.735 Z-0.1259
G1 X1.6581 Z-0.1258
G1 X1.6464 Z-0.1259
G1 X1.6346 Z-0.1262
G1 X1.6228 Z-0.1269
G1 X1.6169 Z-0.1273
G1 X1.6111 Z-0.1279
G1 X1.6052 Y-0.7349 Z-0.1285
G1 X1.5992 Z-0.1293
G1 X1.576 Y-0.7347 Z-0.1291
G1 X1.5702 Z-0.1289
G1 X1.5584 Y-0.7345 Z-0.1291
G1 X1.5526 Y-0.7344 Z-0.1294
G1 X1.5467 Y-0.7343 Z-0.1295
G1 X1.5409 Y-0.7342 Z-0.1298
G1 X1.535 Y-0.7341 Z-0.1303
G1 X1.5292 Y-0.734 Z-0.1309
G1 X1.5233 Y-0.7339 Z-0.1316
G1 X1.5175 Y-0.7338 Z-0.1325
G1 X1.5118 Y-0.7337 Z-0.1335
G1 X1.506 Y-0.7335 Z-0.1345
G1 X1.4944 Y-0.7332 Z-0.136
G1 X1.4827 Y-0.7329 Z-0.1377
G1 X1.4769 Y-0.7327 Z-0.1384
G1 X1.4711 Y-0.7325 Z-0.1393
G1 X1.4653 Y-0.7323 Z-0.1404
G1 X1.4596 Y-0.7321 Z-0.1417
G1 X1.4423 Y-0.7314 Z-0.1453
G1 X1.4251 Y-0.7306 Z-0.1496
G1 X1.4222 Y-0.7305 Z-0.1501
G1 X1.4193 Y-0.7303 Z-0.1504
G1 X1.4179
G1 X1.4164 Y-0.7302 Z-0.1503
G1 X1.415 Y-0.7301 Z-0.1502
G1 X1.4136 Z-0.1499
G1 X1.4115 Y-0.7299 Z-0.1494
G1 X1.4024 Y-0.7289 Z-0.1474
G1 X1.3933 Y-0.7269 Z-0.1459
G1 X1.3842 Y-0.7239 Z-0.1447
G1 X1.3751 Y-0.7202 Z-0.1438
G1 X1.3549 Y-0.7118 Z-0.1421
G1 X1.3478 Y-0.7085 Z-0.1416
G1 X1.3381 Y-0.7028 Z-0.1414
G1 X1.3332 Y-0.6992 Z-0.1416
G1 X1.3317 Y-0.698 Z-0.1408
G1 X1.3267 Y-0.6937 Z-0.1384
G1 X1.3204 Y-0.6875 Z-0.1357
G1 X1.3178 Y-0.6846 Z-0.1347
G1 X1.3113 Y-0.6762 Z-0.1324
G1 X1.3055 Y-0.6664 Z-0.1306
G1 X1.3022 Y-0.6593 Z-0.1296
G1 X1.3014 Y-0.6573 Z-0.1294
G1 X1.2976 Y-0.6483 Z-0.1287
G1 X1.2931 Y-0.6373 Z-0.128
G1 X1.2902 Y-0.6301 Z-0.1276
G1 X1.2873 Y-0.621 Z-0.1273
G1 X1.2852 Y-0.6119 Z-0.1276
G1 X1.2841 Y-0.6028 Z-0.1285
G1 X1.2838 Y-0.596 Z-0.1295
G1 X1.284 Y-0.5904 Z-0.1286
G1 X1.2845 Y-0.5847 Z-0.128
G1 X1.286 Y-0.5756 Z-0.1273
G1 X1.2885 Y-0.5665
G1 X1.292 Y-0.5574 Z-0.1278
G1 X1.2995 Y-0.5392 Z-0.129
G1 X1.3022 Y-0.5328 Z-0.1296
G1 X1.3034 Y-0.5302 Z-0.13
G1 X1.308 Y-0.5211 Z-0.1313
G1 X1.3113 Y-0.5159 Z-0.1324
G1 X1.3142 Y-0.512 Z-0.1334
G1 X1.3204 Y-0.5045 Z-0.1357
G1 X1.3221 Y-0.5029 Z-0.1363
G1 X1.3295 Y-0.4959 Z-0.1397
G1 X1.332 Y-0.4938 Z-0.1409
G1 X1.3333 Y-0.4929 Z-0.1416
G1 X1.3353 Y-0.4913 Z-0.1415
G1 X1.3386 Y-0.489 Z-0.1414
G1 X1.3457 Y-0.4847 Z-0.1415
G1 X1.3478 Y-0.4836 Z-0.1416
G1 X1.3569 Y-0.4795 Z-0.1422
G1 X1.3751 Y-0.4719 Z-0.1438
G1 X1.3842 Y-0.4682 Z-0.1447
G1 X1.3887 Y-0.4666 Z-0.1452
G1 X1.3933 Y-0.4653 Z-0.1459
G1 X1.4024 Y-0.4632 Z-0.1474
G1 X1.4115 Y-0.4622 Z-0.1494
G1 X1.4161 Y-0.462 Z-0.1505
G1 X1.4191 Y-0.4621 Z-0.1513
G1 X1.4206 Z-0.151
G1 X1.4298 Y-0.4628 Z-0.149
G1 X1.4389 Y-0.4644 Z-0.1475
G1 X1.4467 Y-0.4666 Z-0.1464
G1 X1.448 Y-0.467 Z-0.1463
G1 X1.4571 Y-0.4704 Z-0.1455
G1 X1.4753 Y-0.478 Z-0.1442
G1 X1.4844 Y-0.4819 Z-0.1437
G1 X1.4901 Y-0.4847 Z-0.1435
G1 X1.4935 Y-0.4866 Z-0.1434
G1 X1.5033 Y-0.4934 Z-0.1438
G1 X1.5039 Y-0.4938
G1 X1.5117 Y-0.5009 Z-0.1402
G1 X1.5138 Y-0.5029 Z-0.1393
G1 X1.5209 Y-0.511 Z-0.1367
G1 X1.5216 Y-0.512 Z-0.1364
G1 X1.5277 Y-0.5211 Z-0.1345
G1 X1.53 Y-0.5252 Z-0.1338
G1 X1.5324 Y-0.5302 Z-0.1332
G1 X1.5362 Y-0.5392 Z-0.1323
G1 X1.5438 Y-0.5574 Z-0.1312
G1 X1.5471 Y-0.5665 Z-0.1309
G1 X1.5482 Y-0.5697 Z-0.1308
G1 X1.5497 Y-0.5756 Z-0.1309
G1 X1.5513 Y-0.5847 Z-0.1315
G1 X1.5519 Y-0.5938 Z-0.1328
G1 X1.552 Y-0.5962 Z-0.1331
G1 Y-0.5983 Z-0.1327
G1 X1.5517 Y-0.6028 Z-0.1321
G1 X1.5507 Y-0.6119 Z-0.1311
G1 X1.5486 Y-0.621 Z-0.1308
G1 X1.5482 Y-0.6225
G1 X1.5456 Y-0.6301 Z-0.131
G1 X1.5381 Y-0.6483 Z-0.132
G1 X1.5344 Y-0.6573 Z-0.1327
G1 X1.5303 Y-0.6664 Z-0.1338
G1 X1.5249 Y-0.6755 Z-0.1354
G1 X1.5209 Y-0.6811 Z-0.1367
G1 X1.5181 Y-0.6846 Z-0.1377
G1 X1.5117 Y-0.6914 Z-0.1401
G1 X1.5059 Y-0.6967 Z-0.1428
G1 X1.5038 Y-0.6984 Z-0.1439
G1 X1.5026 Y-0.6993 Z-0.1438
G1 X1.4978 Y-0.7028 Z-0.1435
G1 X1.4935 Y-0.7055 Z-0.1434
G1 X1.4844 Y-0.7102 Z-0.1437
G1 X1.4809 Y-0.7118 Z-0.1439
G1 X1.4571 Y-0.7217 Z-0.1455
G1 X1.448 Y-0.7252 Z-0.1463
G1 X1.4389 Y-0.7278 Z-0.1474
G1 X1.4298 Y-0.7294 Z-0.149
G1 X1.4242 Y-0.73 Z-0.1501
G1 X1.4189 Y-0.7302 Z-0.1513
G1 X1.4167 Z-0.1507
G1 X1.4136 Y-0.7301 Z-0.1499
G1 X1.4071 Y-0.7295 Z-0.1483
G1 X1.4006 Y-0.7284 Z-0.1467
G1 X1.3943 Y-0.7269 Z-0.1451
G1 X1.388 Y-0.725 Z-0.1436
G1 X1.3818 Y-0.7227 Z-0.1421
G1 X1.3758 Y-0.7201 Z-0.1406
G1 X1.3699 Y-0.7171 Z-0.1392
G1 X1.3641 Y-0.7139 Z-0.1378
G1 X1.3584 Y-0.7104 Z-0.1364
G1 X1.3528 Y-0.7066 Z-0.1351
G1 X1.3474 Y-0.7026 Z-0.1339
G1 X1.3421 Y-0.6985 Z-0.1327
G1 X1.3369 Y-0.6941 Z-0.1315
G1 X1.3319 Y-0.6896 Z-0.1304
G1 X1.327 Y-0.6848 Z-0.1293
G1 X1.3223 Y-0.68 Z-0.1283
G1 X1.3174 Y-0.6747 Z-0.1273
G1 X1.3127 Y-0.6694 Z-0.1264
G1 X1.308 Y-0.6639 Z-0.1255
G1 X1.3035 Y-0.6584 Z-0.1246
G1 X1.299 Y-0.6527 Z-0.1238
G1 X1.2947 Y-0.647 Z-0.1231
G1 X1.2904 Y-0.6412 Z-0.1224
G1 X1.2861 Y-0.6354 Z-0.1217
G1 X1.282 Y-0.6295 Z-0.1211
G1 X1.2738 Y-0.6176 Z-0.1201
G1 X1.2657 Y-0.6056 Z-0.1193
G1 X1.2578 Y-0.5935 Z-0.1188
G1 X1.2537 Y-0.5872 Z-0.1186
G1 X1.2498 Y-0.5814 Z-0.1176
G1 X1.2459 Y-0.5754 Z-0.1169
G1 X1.2419 Y-0.5694 Z-0.1164
G1 X1.2379 Y-0.5634 Z-0.1162
G1 X1.2338 Y-0.5575
G1 X1.2255 Y-0.5457 Z-0.1169
G1 X1.2213 Y-0.5399 Z-0.1172
G1 X1.217 Y-0.5341 Z-0.1174
G1 X1.2126 Y-0.5284 Z-0.1177
G1 X1.2082 Y-0.5228 Z-0.118
G1 X1.2036 Y-0.5173 Z-0.1184
G1 X1.199 Y-0.5118 Z-0.1189
G1 X1.1942 Y-0.5064 Z-0.1194
G1 X1.1894 Y-0.5012 Z-0.1198
G1 X1.1844 Y-0.496 Z-0.1203
G1 X1.1795 Y-0.4913 Z-0.1207
G1 X1.1745 Y-0.4867 Z-0.1211
G1 X1.1694 Y-0.4823 Z-0.1215
G1 X1.1641 Y-0.478 Z-0.1219
G1 X1.1586 Y-0.474 Z-0.1224
G1 X1.1531 Y-0.4701 Z-0.1228
G1 X1.1473 Y-0.4665 Z-0.1232
G1 X1.1415 Y-0.4632 Z-0.1236
G1 X1.1355 Y-0.4601 Z-0.124
G1 X1.1295 Y-0.4574 Z-0.1244
G1 X1.1233 Y-0.4549 Z-0.1247
G1 X1.1169 Y-0.4528 Z-0.1249
G1 X1.1105 Y-0.4511 Z-0.1252
G1 X1.104 Y-0.4498 Z-0.1253
G1 X1.0974 Y-0.4489 Z-0.1254
G1 X1.0908 Y-0.4486
G1 X0.5369 Y-0.4409 Z-0.1213
G1 X0.3821 Y-0.4387 Z-0.1202
G1 X0.3803 Y-0.4393 Z-0.1201
G1 Y-0.4575 Z-0.1174
G1 Y-0.4666 Z-0.1162
G1 X0.3802 Y-0.4938 Z-0.113
G1 X0.3803 Y-0.512 Z-0.1114
G1 Y-0.5302 Z-0.11
G1 Y-0.5574 Z-0.1086
G1 X0.3802 Y-0.5665 Z-0.1083
G1 Y-0.5938 Z-0.1078
G1 X0.3803 Y-0.6028 Z-0.1079
G1 Y-0.6301 Z-0.1084
G1 Y-0.6573 Z-0.1097
G1 X0.3802 Y-0.6664 Z-0.1103
G1 Y-0.6937 Z-0.1125
G1 X0.3803 Y-0.7028 Z-0.1135
G1 Y-0.73 Z-0.1167
G1 X0.3802 Y-0.7527 Z-0.1201
G1 X0.3806 Y-0.7534 Z-0.1202
G1 X0.7465 Y-0.7484 Z-0.1228
G1 X1.0562 Y-0.744 Z-0.1252
G1 X1.2032 Y-0.742 Z-0.1264
G1 X1.2049 Y-0.7415 Z-0.1263
G1 X1.1981 Y-0.73 Z-0.1246
G1 X1.1929 Y-0.7201 Z-0.1231
G1 X1.189 Y-0.7118 Z-0.122
G1 X1.1838 Y-0.6993 Z-0.1206
G1 X1.1777 Y-0.6846 Z-0.1191
G1 X1.1741 Y-0.6755 Z-0.1182
G1 X1.171 Y-0.6664 Z-0.1175
G1 X1.1681 Y-0.6573 Z-0.1169
G1 X1.1656 Y-0.6472 Z-0.1163
G1 X1.1638 Y-0.6392 Z-0.1158
G1 X1.1622 Y-0.6301 Z-0.1155
G1 X1.1611 Y-0.621 Z-0.1152
G1 X1.1601 Y-0.6119 Z-0.115
G1 X1.1598 Y-0.6028 Z-0.1149
G1 X1.1597 Y-0.5938 Z-0.1148
G1 X1.1599 Y-0.5847 Z-0.115
G1 X1.1605 Y-0.5756 Z-0.1151
G1 X1.1615 Y-0.5665 Z-0.1154
G1 X1.1629 Y-0.5574 Z-0.1156
G1 X1.1646 Y-0.5483 Z-0.1161
G1 X1.1656 Y-0.5442 Z-0.1163
G1 X1.1694 Y-0.5302 Z-0.1173
G1 X1.1725 Y-0.5211 Z-0.118
G1 X1.1747 Y-0.5153 Z-0.1183
G1 X1.1759 Y-0.512 Z-0.1186
G1 X1.1871 Y-0.4847 Z-0.1215
G1 X1.1912 Y-0.4757 Z-0.1226
G1 X1.1958 Y-0.4666 Z-0.1239
G1 X1.2006 Y-0.4575 Z-0.1252
G1 X1.2036 Y-0.4526 Z-0.1259
G1 X1.2049 Y-0.4506 Z-0.1262
G1 X1.2032 Y-0.4501 Z-0.1263
G1 X1.0908 Y-0.4486 Z-0.1254
G1 X1.0849 Z-0.1253
G1 X1.079 Y-0.4487 Z-0.1252
G1 X1.0731 Y-0.4491 Z-0.125
G1 X1.0672 Y-0.4496 Z-0.1247
G1 X1.0613 Y-0.4503 Z-0.1244
G1 X1.0555 Y-0.4511 Z-0.1241
G1 X1.0496 Y-0.452 Z-0.1237
G1 X1.0438 Y-0.4531 Z-0.1233
G1 X1.038 Y-0.4544 Z-0.1229
G1 X1.0323 Y-0.4557 Z-0.1224
G1 X1.0265 Y-0.4572 Z-0.122
G1 X1.0208 Y-0.4587 Z-0.1216
G1 X1.0152 Y-0.4604 Z-0.1211
G1 X1.0095 Y-0.4622 Z-0.1207
G1 X1.0039 Y-0.464 Z-0.1203
G1 X0.9983 Y-0.466 Z-0.1199
G1 X0.9927 Y-0.468 Z-0.1196
G1 X0.9871 Y-0.4701 Z-0.1192
G1 X0.976 Y-0.4745 Z-0.1187
G1 X0.9705 Y-0.4769 Z-0.1185
G1 X0.965 Y-0.4792 Z-0.1184
G1 X0.9595 Y-0.4816
G1 X0.9541 Y-0.4841
G1 X0.9487 Y-0.4866 Z-0.1185
G1 X0.9433 Y-0.4891 Z-0.1186
G1 X0.9379 Y-0.4917 Z-0.1189
G1 X0.9325 Y-0.4943 Z-0.1193
G1 X0.9271 Y-0.4969 Z-0.1198
G1 X0.9218 Y-0.4995 Z-0.1204
G1 X0.9165 Y-0.5021 Z-0.1211
G1 X0.9112 Y-0.5048 Z-0.1219
G1 X0.9006 Y-0.5101 Z-0.1228
G1 X0.8899 Y-0.5154 Z-0.124
G1 X0.8845 Y-0.518 Z-0.1246
G1 X0.8738 Y-0.5233 Z-0.1261
G1 X0.8684 Y-0.5258 Z-0.1269
G1 X0.863 Y-0.5284 Z-0.1276
G1 X0.8576 Y-0.5309 Z-0.1284
G1 X0.8522 Y-0.5334 Z-0.1293
G1 X0.8468 Y-0.5358 Z-0.1303
G1 X0.8414 Y-0.5382 Z-0.1313
G1 X0.8359 Y-0.5405 Z-0.1324
G1 X0.8305 Y-0.5427 Z-0.1337
G1 X0.825 Y-0.5449 Z-0.135
G1 X0.8142 Y-0.549 Z-0.1372
G1 X0.8087 Y-0.5509 Z-0.1383
G1 X0.8032 Y-0.5527 Z-0.1394
G1 X0.7976 Y-0.5545 Z-0.1404
G1 X0.792 Y-0.5562 Z-0.1414
G1 X0.7864 Y-0.5578 Z-0.1424
G1 X0.7808 Y-0.5592 Z-0.1436
G1 X0.7752 Y-0.5605 Z-0.1445
G1 X0.7696 Y-0.5618 Z-0.1454
G1 X0.7639 Y-0.5629 Z-0.1461
G1 X0.7582 Y-0.5638 Z-0.1469
G1 X0.7525 Y-0.5647 Z-0.1475
G1 X0.7467 Y-0.5654 Z-0.148
G1 X0.741 Y-0.5659
G1 X0.7382 Y-0.5661 Z-0.1477
G1 X0.7368 Z-0.1475
G1 X0.7354 Y-0.5662 Z-0.1471
G1 X0.7305 Y-0.5665 Z-0.1452
G1 X0.7283 Y-0.5667 Z-0.1441
G1 X0.7192 Y-0.5673 Z-0.1391
G1 X0.71 Y-0.5678 Z-0.1338
G1 X0.7009 Y-0.568 Z-0.1287
G1 X0.6918 Z-0.1242
G1 X0.6827 Y-0.5679 Z-0.1203
G1 X0.6736 Y-0.5677 Z-0.1171
G1 X0.6645 Y-0.5674 Z-0.1145
G1 X0.6554 Y-0.5671 Z-0.1125
G1 X0.6463 Y-0.5669 Z-0.1112
G1 X0.6372 Y-0.5667 Z-0.1105
G1 X0.5063 Y-0.5649 Z-0.1094
G1 X0.5052 Y-0.5654
G1 X0.5053 Y-0.5847 Z-0.109
G1 X0.5052 Y-0.5938 Z-0.1089
G1 X0.5053 Y-0.6028
G1 X0.5052 Y-0.6262 Z-0.1093
G1 X0.5056 Y-0.6272 Z-0.1094
G1 X0.6281 Y-0.6255 Z-0.1104
G1 X0.6372 Y-0.6254 Z-0.1105
G1 X0.6463 Y-0.6252 Z-0.1112
G1 X0.6554 Y-0.625 Z-0.1125
G1 X0.6645 Y-0.6248 Z-0.1145
G1 X0.6736 Y-0.6245 Z-0.1171
G1 X0.6827 Y-0.6243 Z-0.1203
G1 X0.6918 Y-0.6241 Z-0.1242
G1 X0.7009 Z-0.1287
G1 X0.71 Y-0.6244 Z-0.1338
G1 X0.7192 Y-0.6248 Z-0.1391
G1 X0.7283 Y-0.6255 Z-0.1441
G1 X0.7328 Y-0.6258 Z-0.1462
G1 X0.7374 Y-0.626 Z-0.1477
G1 X0.7419 Y-0.6261 Z-0.1484
G1 X0.7465 Y-0.626 Z-0.1486
G1 X0.9833 Y-0.6234 Z-0.1531
G1 X0.9925 Y-0.6232 Z-0.1533
G1 X0.997 Y-0.6231 Z-0.1529
G1 X0.9993 Y-0.6229 Z-0.1523
G1 X1.0016 Y-0.6227 Z-0.1516
G1 X1.0061 Y-0.6222 Z-0.1495
G1 X1.0107 Y-0.6217 Z-0.147
G1 X1.0198 Y-0.6207 Z-0.1415
G1 X1.0289 Y-0.6199 Z-0.1361
G1 X1.035 Y-0.6196 Z-0.1327
G1 X1.0357 Y-0.6195 Z-0.1323
G1 X1.0365 Y-0.6189 Z-0.132
G1 X1.0364 Y-0.6119 Z-0.1331
G1 X1.0362 Y-0.6028 Z-0.134
G1 Y-0.5938 Z-0.1342
G1 X1.0363 Y-0.5847 Z-0.1337
G1 X1.0364 Y-0.5756 Z-0.1324
G1 X1.0365 Y-0.5733 Z-0.132
G1 X1.0363 Y-0.5726
G1 X1.0335 Y-0.5725 Z-0.1335
G1 X1.0289 Y-0.5722 Z-0.1361
G1 X1.0198 Y-0.5715 Z-0.1415
G1 X1.0107 Y-0.5705 Z-0.147
G1 X1.0061 Y-0.5699 Z-0.1495
G1 X1.0016 Y-0.5694 Z-0.1515
G1 X0.9993 Y-0.5692 Z-0.1523
G1 X0.997 Y-0.569 Z-0.1529
G1 X0.9925 Y-0.5689 Z-0.1532
G1 X0.9742 Y-0.5686 Z-0.153
G1 X0.7465 Y-0.5661 Z-0.1486
G1 X0.7419 Z-0.1484
G1 X0.7374 Z-0.1477
G1 X0.7354 Y-0.5662 Z-0.1471
G1 X0.732 Y-0.5664 Z-0.1459
G1 X0.7289 Y-0.5665 Z-0.1441
G1 X0.7261 Y-0.5666 Z-0.1418
G1 X0.7237 Y-0.5667 Z-0.1391
G1 X0.7218 Y-0.5668 Z-0.1361
G1 X0.7204 Y-0.5669 Z-0.1328
G1 X0.7196 Z-0.1293
G1 X0.7193 Z-0.1257
G1 Z0.2
G1 X4.9924 Y-1.3927
G1 Z-0.0432
G1 Z-0.1073 F13.333
G1 Y-1.393 Z-0.1112 F30.
G1 X4.9925 Y-1.3939 Z-0.115
G1 Y-1.3954 Z-0.1186
G1 X4.9926 Y-1.3974 Z-0.1219
G1 Y-1.3999 Z-0.1249
G1 X4.9927 Y-1.4029 Z-0.1274
G1 X4.9928 Y-1.4062 Z-0.1295
G1 X4.9929 Y-1.4098 Z-0.131
G1 X4.993 Y-1.4135 Z-0.132
G1 X4.9932 Y-1.4204 Z-0.1331
G1 X4.9933 Y-1.4295 Z-0.134
G1 Y-1.4386 Z-0.1342
G1 X4.9932 Y-1.4477 Z-0.1337
G1 X4.993 Y-1.4568 Z-0.1324
G1 X4.9929 Y-1.4596 Z-0.1319
G1 X4.9939 Y-1.4601 Z-0.1324
G1 X4.996 Y-1.4602 Z-0.1335
G1 X5.001 Y-1.4605 Z-0.1363
G1 X5.0101 Y-1.4612 Z-0.1417
G1 X5.0192 Y-1.4622 Z-0.1472
G1 X5.0237 Y-1.4628 Z-0.1497
G1 X5.0283 Y-1.4633 Z-0.1517
G1 X5.0329 Y-1.4636 Z-0.153
G1 X5.0374 Y-1.4638 Z-0.1533
G1 X5.0738 Y-1.4642 Z-0.1526
G1 X5.2834 Y-1.4666 Z-0.1486
G1 X5.2879 Z-0.1484
G1 X5.2902 Z-0.1481
G1 X5.2925 Y-1.4665 Z-0.1476
G1 X5.297 Y-1.4663 Z-0.1461
G1 X5.3016 Y-1.466 Z-0.144
G1 X5.3038 Y-1.4658 Z-0.1428
G1 X5.3107 Y-1.4654 Z-0.1389
G1 X5.3198 Y-1.4649 Z-0.1336
G1 X5.3289 Y-1.4647 Z-0.1285
G1 X5.338 Z-0.124
G1 X5.3472 Y-1.4648 Z-0.1202
G1 X5.3563 Y-1.465 Z-0.117
G1 X5.3654 Y-1.4653 Z-0.1144
G1 X5.3745 Y-1.4656 Z-0.1125
G1 X5.3836 Y-1.4658 Z-0.1112
G1 X5.3861 Z-0.111
G1 X5.3927 Y-1.466 Z-0.1105
G1 X5.4109 Y-1.4662 Z-0.1103
G1 X5.5239 Y-1.4678 Z-0.1094
G1 X5.5243 Y-1.467 Z-0.1093
G1 Y-1.4477 Z-0.109
G1 Y-1.4386 Z-0.1089
G1 Y-1.4295
G1 Y-1.4062 Z-0.1094
G1 X5.5238 Y-1.4054
G1 X5.3927 Y-1.4073 Z-0.1105
G1 X5.3836 Y-1.4075 Z-0.1112
G1 X5.3745 Y-1.4077 Z-0.1125
G1 X5.3654 Y-1.4079 Z-0.1144
G1 X5.3563 Y-1.4082 Z-0.1169
G1 X5.3472 Y-1.4084 Z-0.1202
G1 X5.338 Y-1.4085 Z-0.124
G1 X5.3289 Z-0.1285
G1 X5.3198 Y-1.4083 Z-0.1336
G1 X5.3107 Y-1.4079 Z-0.1389
G1 X5.3016 Y-1.4072 Z-0.1439
G1 X5.297 Y-1.4069 Z-0.1461
G1 X5.2925 Y-1.4067 Z-0.1476
G1 X5.2902 Y-1.4066 Z-0.1481
G1 X5.2879 Z-0.1484
G1 X5.2834 Z-0.1486
G1 X5.0465 Y-1.4093 Z-0.1531
G1 X5.0374 Y-1.4094 Z-0.1532
G1 X5.0329 Y-1.4096 Z-0.1529
G1 X5.0283 Y-1.4099 Z-0.1517
G1 X5.0237 Y-1.4104 Z-0.1497
G1 X5.0192 Y-1.411 Z-0.1472
G1 X5.016 Y-1.4113 Z-0.1454
G1 X5.0101 Y-1.412 Z-0.1417
G1 X5.001 Y-1.4127 Z-0.1363
G1 X4.9951 Y-1.4131 Z-0.133
G1 X4.9941 Z-0.1325
G1 X4.993 Y-1.4135 Z-0.132
G1 X4.9901 Y-1.4147 Z-0.1303
G1 X4.9874 Y-1.4157 Z-0.1281
G1 X4.985 Y-1.4167 Z-0.1256
G1 X4.9829 Y-1.4174 Z-0.1227
G1 X4.9813 Y-1.4181 Z-0.1196
G1 X4.9801 Y-1.4185 Z-0.1162
G1 X4.9794 Y-1.4188 Z-0.1127
G1 X4.9792 Y-1.4189 Z-0.1091
G1 Z0.6
M5 M9

G30
M30
%
