%
(6 contour inside corners)
(T260 D=0.0394 CR=0. - ZMIN=-0.01 - flat end mill)
G90 G54 G64 G50 G17 G40 G80 G94 G91.1 G49
G20 (Inch)
G30
(When using Fusion for Personal Use, the feedrate of rapid)
(moves is reduced to match the feedrate of cutting moves,)
(which can increase machining time. Unrestricted rapid moves)
(are available with a Fusion Subscription.)

N10 (6 contour inside corners)
T260 G43 H260 M6
S5140 M3 M8
G17 G90 G94
G54
G0 X3.2487 Y-1.5293
G0 Z0.8539
G1 Z0.2976 F10.
G1 Z0.1055 F13.333
G1 Z0.0622
G1 Y-1.5296 Z0.0607 F6.
G1 Y-1.5305 Z0.0594
G1 Y-1.5318 Z0.0585
G1 Y-1.5333 Z0.0582
G1 Y-1.5372
G1 X3.249 Y-1.5387
G1 X3.2498 Y-1.54
G1 X3.2511 Y-1.5408
G1 X3.2526 Y-1.5411
G1 X3.3072 F10.
G1 X3.3151 F2.5
G1 X3.3737 Y-1.4397 F10.
G1 X3.3776 Y-1.4329 F2.5
G1 X3.319 Y-1.3314 F10.
G1 X3.3151 Y-1.3246 F2.5
G1 X3.198 F10.
G1 X3.1901 F2.5
G1 X3.1315 Y-1.4261 F10.
G1 X3.1276 Y-1.4329 F2.5
G1 X3.1861 Y-1.5343 F10.
G1 X3.1901 Y-1.5411 F2.5
G1 X3.2526 F10.
G1 X3.2541 Y-1.5408
G1 X3.2554 Y-1.54
G1 X3.2562 Y-1.5387
G1 X3.2565 Y-1.5372
G1 Y-1.5333
G1 Y-1.5318 Z0.0585
G1 Y-1.5305 Z0.0594
G1 Y-1.5296 Z0.0607
G1 Y-1.5293 Z0.0622
G1 X3.2487
G1 Z0.0228 F13.333
G1 Y-1.5296 Z0.0213 F6.
G1 Y-1.5305 Z0.02
G1 Y-1.5318 Z0.0192
G1 Y-1.5333 Z0.0189
G1 Y-1.5372
G1 X3.249 Y-1.5387
G1 X3.2498 Y-1.54
G1 X3.2511 Y-1.5408
G1 X3.2526 Y-1.5411
G1 X3.3072 F10.
G1 X3.3151 F2.5
G1 X3.3737 Y-1.4397 F10.
G1 X3.3776 Y-1.4329 F2.5
G1 X3.319 Y-1.3314 F10.
G1 X3.3151 Y-1.3246 F2.5
G1 X3.198 F10.
G1 X3.1901 F2.5
G1 X3.1315 Y-1.4261 F10.
G1 X3.1276 Y-1.4329 F2.5
G1 X3.1861 Y-1.5343 F10.
G1 X3.1901 Y-1.5411 F2.5
G1 X3.2526 F10.
G1 X3.2541 Y-1.5408
G1 X3.2554 Y-1.54
G1 X3.2562 Y-1.5387
G1 X3.2565 Y-1.5372
G1 Y-1.5333
G1 Y-1.5318 Z0.0192
G1 Y-1.5305 Z0.02
G1 Y-1.5296 Z0.0213
G1 Y-1.5293 Z0.0228
G1 X3.2487
G1 Z-0.0061 F13.333
G1 Y-1.5296 Z-0.0076 F6.
G1 Y-1.5305 Z-0.0088
G1 Y-1.5318 Z-0.0097
G1 Y-1.5333 Z-0.01
G1 Y-1.5372
G1 X3.249 Y-1.5387
G1 X3.2498 Y-1.54
G1 X3.2511 Y-1.5408
G1 X3.2526 Y-1.5411
G1 X3.3072 F10.
G1 X3.3151 F2.5
G1 X3.3737 Y-1.4397 F10.
G1 X3.3776 Y-1.4329 F2.5
G1 X3.319 Y-1.3314 F10.
G1 X3.3151 Y-1.3246 F2.5
G1 X3.198 F10.
G1 X3.1901 F2.5
G1 X3.1315 Y-1.4261 F10.
G1 X3.1276 Y-1.4329 F2.5
G1 X3.1861 Y-1.5343 F10.
G1 X3.1901 Y-1.5411 F2.5
G1 X3.2526 F10.
G1 X3.2541 Y-1.5408
G1 X3.2554 Y-1.54
G1 X3.2562 Y-1.5387
G1 X3.2565 Y-1.5372
G1 Y-1.5333
G1 Y-1.5318 Z-0.0097
G1 Y-1.5305 Z-0.0088
G1 Y-1.5296 Z-0.0076
G1 Y-1.5293 Z-0.0061
G1 Z0.4539
G1 X4.0177 Y-1.4368
G1 Z0.2976
G1 Z0.1055 F13.333
G1 Z0.0622
G1 X4.018 Z0.0607 F6.
G1 X4.0189 Z0.0594
G1 X4.0201 Z0.0585
G1 X4.0217 Z0.0582
G1 X4.0256
G1 X4.0271 Y-1.4365
G1 X4.0284 Y-1.4357
G1 X4.0292 Y-1.4344
G1 X4.0295 Y-1.4329
G1 Y-1.3889 F10.
G1 Y-1.381 F2.5
G1 X3.9546 Y-1.3213 F10.
G1 X3.9485 Y-1.3164 F2.5
G1 X3.8551 Y-1.3377 F10.
G1 X3.8474 Y-1.3395 F2.5
G1 X3.8058 Y-1.4258 F10.
G1 X3.8024 Y-1.4329 F2.5
G1 X3.844 Y-1.5192 F10.
G1 X3.8474 Y-1.5263 F2.5
G1 X3.9408 Y-1.5476 F10.
G1 X3.9485 Y-1.5494 F2.5
G1 X4.0234 Y-1.4896 F10.
G1 X4.0295 Y-1.4847 F2.5
G1 Y-1.4329 F10.
G1 X4.0292 Y-1.4314
G1 X4.0284 Y-1.4301
G1 X4.0271 Y-1.4292
G1 X4.0256 Y-1.4289
G1 X4.0217
G1 X4.0201 Z0.0585
G1 X4.0189 Z0.0594
G1 X4.018 Z0.0607
G1 X4.0177 Z0.0622
G1 Y-1.4368
G1 Z0.0228 F13.333
G1 X4.018 Z0.0213 F6.
G1 X4.0189 Z0.02
G1 X4.0201 Z0.0192
G1 X4.0217 Z0.0189
G1 X4.0256
G1 X4.0271 Y-1.4365
G1 X4.0284 Y-1.4357
G1 X4.0292 Y-1.4344
G1 X4.0295 Y-1.4329
G1 Y-1.3889 F10.
G1 Y-1.381 F2.5
G1 X3.9546 Y-1.3213 F10.
G1 X3.9485 Y-1.3164 F2.5
G1 X3.8551 Y-1.3377 F10.
G1 X3.8474 Y-1.3395 F2.5
G1 X3.8058 Y-1.4258 F10.
G1 X3.8024 Y-1.4329 F2.5
G1 X3.844 Y-1.5192 F10.
G1 X3.8474 Y-1.5263 F2.5
G1 X3.9408 Y-1.5476 F10.
G1 X3.9485 Y-1.5494 F2.5
G1 X4.0234 Y-1.4896 F10.
G1 X4.0295 Y-1.4847 F2.5
G1 Y-1.4329 F10.
G1 X4.0292 Y-1.4314
G1 X4.0284 Y-1.4301
G1 X4.0271 Y-1.4292
G1 X4.0256 Y-1.4289
G1 X4.0217
G1 X4.0201 Z0.0192
G1 X4.0189 Z0.02
G1 X4.018 Z0.0213
G1 X4.0177 Z0.0228
G1 Y-1.4368
G1 Z-0.0061 F13.333
G1 X4.018 Z-0.0076 F6.
G1 X4.0189 Z-0.0088
G1 X4.0201 Z-0.0097
G1 X4.0217 Z-0.01
G1 X4.0256
G1 X4.0271 Y-1.4365
G1 X4.0284 Y-1.4357
G1 X4.0292 Y-1.4344
G1 X4.0295 Y-1.4329
G1 Y-1.3889 F10.
G1 Y-1.381 F2.5
G1 X3.9546 Y-1.3213 F10.
G1 X3.9485 Y-1.3164 F2.5
G1 X3.8551 Y-1.3377 F10.
G1 X3.8474 Y-1.3395 F2.5
G1 X3.8058 Y-1.4258 F10.
G1 X3.8024 Y-1.4329 F2.5
G1 X3.844 Y-1.5192 F10.
G1 X3.8474 Y-1.5263 F2.5
G1 X3.9408 Y-1.5476 F10.
G1 X3.9485 Y-1.5494 F2.5
G1 X4.0234 Y-1.4896 F10.
G1 X4.0295 Y-1.4847 F2.5
G1 Y-1.4329 F10.
G1 X4.0292 Y-1.4314
G1 X4.0284 Y-1.4301
G1 X4.0271 Y-1.4292
G1 X4.0256 Y-1.4289
G1 X4.0217
G1 X4.0201 Z-0.0097
G1 X4.0189 Z-0.0088
G1 X4.018 Z-0.0076
G1 X4.0177 Z-0.0061
G1 Z0.4539
G1 X4.635 Y-1.3375
G1 Z0.2976
G1 Z0.1055 F13.333
G1 Z0.0622
G1 X4.6351 Y-1.3372 Z0.0607 F6.
G1 X4.6354 Y-1.3364 Z0.0594
G1 X4.6359 Y-1.3352 Z0.0585
G1 X4.6365 Y-1.3338 Z0.0582
G1 X4.638 Y-1.3302
G1 X4.6383 Y-1.3287
G1 X4.638 Y-1.3272
G1 X4.6371 Y-1.3259
G1 X4.6358 Y-1.325
G1 X4.5985 Y-1.3096 F10.
G1 X4.5912 Y-1.3065 F2.5
G1 X4.5091 Y-1.3405 F10.
G1 X4.5018 Y-1.3435 F2.5
G1 X4.4679 Y-1.4256 F10.
G1 X4.4648 Y-1.4329 F2.5
G1 X4.4988 Y-1.5149 F10.
G1 X4.5018 Y-1.5222 F2.5
G1 X4.5839 Y-1.5562 F10.
G1 X4.5912 Y-1.5592 F2.5
G1 X4.6732 Y-1.5252 F10.
G1 X4.6805 Y-1.5222 F2.5
G1 X4.7145 Y-1.4401 F10.
G1 X4.7175 Y-1.4329 F2.5
G1 X4.6835 Y-1.3508 F10.
G1 X4.6805 Y-1.3435 F2.5
G1 X4.6358 Y-1.325 F10.
G1 X4.6343 Y-1.3247
G1 X4.6328 Y-1.325
G1 X4.6316 Y-1.3259
G1 X4.6307 Y-1.3272
G1 X4.6292 Y-1.3308
G1 X4.6286 Y-1.3322 Z0.0585
G1 X4.6281 Y-1.3334 Z0.0594
G1 X4.6278 Y-1.3342 Z0.0607
G1 X4.6277 Y-1.3344 Z0.0622
G1 X4.635 Y-1.3375
G1 Z0.0228 F13.333
G1 X4.6351 Y-1.3372 Z0.0213 F6.
G1 X4.6354 Y-1.3364 Z0.02
G1 X4.6359 Y-1.3352 Z0.0192
G1 X4.6365 Y-1.3338 Z0.0189
G1 X4.638 Y-1.3302
G1 X4.6383 Y-1.3287
G1 X4.638 Y-1.3272
G1 X4.6371 Y-1.3259
G1 X4.6358 Y-1.325
G1 X4.5985 Y-1.3096 F10.
G1 X4.5912 Y-1.3065 F2.5
G1 X4.5091 Y-1.3405 F10.
G1 X4.5018 Y-1.3435 F2.5
G1 X4.4679 Y-1.4256 F10.
G1 X4.4648 Y-1.4329 F2.5
G1 X4.4988 Y-1.5149 F10.
G1 X4.5018 Y-1.5222 F2.5
G1 X4.5839 Y-1.5562 F10.
G1 X4.5912 Y-1.5592 F2.5
G1 X4.6732 Y-1.5252 F10.
G1 X4.6805 Y-1.5222 F2.5
G1 X4.7145 Y-1.4401 F10.
G1 X4.7175 Y-1.4329 F2.5
G1 X4.6835 Y-1.3508 F10.
G1 X4.6805 Y-1.3435 F2.5
G1 X4.6358 Y-1.325 F10.
G1 X4.6343 Y-1.3247
G1 X4.6328 Y-1.325
G1 X4.6316 Y-1.3259
G1 X4.6307 Y-1.3272
G1 X4.6292 Y-1.3308
G1 X4.6286 Y-1.3322 Z0.0192
G1 X4.6281 Y-1.3334 Z0.02
G1 X4.6278 Y-1.3342 Z0.0213
G1 X4.6277 Y-1.3344 Z0.0228
G1 X4.635 Y-1.3375
G1 Z-0.0061 F13.333
G1 X4.6351 Y-1.3372 Z-0.0076 F6.
G1 X4.6354 Y-1.3364 Z-0.0088
G1 X4.6359 Y-1.3352 Z-0.0097
G1 X4.6365 Y-1.3338 Z-0.01
G1 X4.638 Y-1.3302
G1 X4.6383 Y-1.3287
G1 X4.638 Y-1.3272
G1 X4.6371 Y-1.3259
G1 X4.6358 Y-1.325
G1 X4.5985 Y-1.3096 F10.
G1 X4.5912 Y-1.3065 F2.5
G1 X4.5091 Y-1.3405 F10.
G1 X4.5018 Y-1.3435 F2.5
G1 X4.4679 Y-1.4256 F10.
G1 X4.4648 Y-1.4329 F2.5
G1 X4.4988 Y-1.5149 F10.
G1 X4.5018 Y-1.5222 F2.5
G1 X4.5839 Y-1.5562 F10.
G1 X4.5912 Y-1.5592 F2.5
G1 X4.6732 Y-1.5252 F10.
G1 X4.6805 Y-1.5222 F2.5
G1 X4.7145 Y-1.4401 F10.
G1 X4.7175 Y-1.4329 F2.5
G1 X4.6835 Y-1.3508 F10.
G1 X4.6805 Y-1.3435 F2.5
G1 X4.6358 Y-1.325 F10.
G1 X4.6343 Y-1.3247
G1 X4.6328 Y-1.325
G1 X4.6316 Y-1.3259
G1 X4.6307 Y-1.3272
G1 X4.6292 Y-1.3308
G1 X4.6286 Y-1.3322 Z-0.0097
G1 X4.6281 Y-1.3334 Z-0.0088
G1 X4.6278 Y-1.3342 Z-0.0076
G1 X4.6277 Y-1.3344 Z-0.0061
G1 Z0.4539
G1 X4.7607 Y-0.5724
G1 Z0.2976
G1 Z0.1055 F13.333
G1 Z0.0622
G1 X4.7609 Y-0.5721 Z0.0607 F6.
G1 X4.7613 Y-0.5714 Z0.0594
G1 X4.7619 Y-0.5703 Z0.0585
G1 X4.7627 Y-0.5689 Z0.0582
G1 X4.7647 Y-0.5655
G1 X4.7652 Y-0.5641
G1 X4.7651 Y-0.5625
G1 X4.7644 Y-0.5612
G1 X4.7632 Y-0.5602
G1 X4.7143 Y-0.5319 F10.
G1 X4.7075 Y-0.528 F2.5
G1 Y-0.6488 F10.
G1 Y-0.6567 F2.5
G1 X4.8121 Y-0.5963 F10.
G1 X4.8189 Y-0.5923 F2.5
G1 X4.7632 Y-0.5602 F10.
G1 X4.7618 Y-0.5597
G1 X4.7602 Y-0.5598
G1 X4.7589 Y-0.5604
G1 X4.7579 Y-0.5616
G1 X4.7559 Y-0.565
G1 X4.7551 Y-0.5663 Z0.0585
G1 X4.7545 Y-0.5674 Z0.0594
G1 X4.7541 Y-0.5682 Z0.0607
G1 X4.7539 Y-0.5684 Z0.0622
G1 X4.7607 Y-0.5724
G1 Z0.0228 F13.333
G1 X4.7609 Y-0.5721 Z0.0213 F6.
G1 X4.7613 Y-0.5714 Z0.02
G1 X4.7619 Y-0.5703 Z0.0192
G1 X4.7627 Y-0.5689 Z0.0189
G1 X4.7647 Y-0.5655
G1 X4.7652 Y-0.5641
G1 X4.7651 Y-0.5625
G1 X4.7644 Y-0.5612
G1 X4.7632 Y-0.5602
G1 X4.7143 Y-0.5319 F10.
G1 X4.7075 Y-0.528 F2.5
G1 Y-0.6488 F10.
G1 Y-0.6567 F2.5
G1 X4.8121 Y-0.5963 F10.
G1 X4.8189 Y-0.5923 F2.5
G1 X4.7632 Y-0.5602 F10.
G1 X4.7618 Y-0.5597
G1 X4.7602 Y-0.5598
G1 X4.7589 Y-0.5604
G1 X4.7579 Y-0.5616
G1 X4.7559 Y-0.565
G1 X4.7551 Y-0.5663 Z0.0192
G1 X4.7545 Y-0.5674 Z0.02
G1 X4.7541 Y-0.5682 Z0.0213
G1 X4.7539 Y-0.5684 Z0.0228
G1 X4.7607 Y-0.5724
G1 Z-0.0061 F13.333
G1 X4.7609 Y-0.5721 Z-0.0076 F6.
G1 X4.7613 Y-0.5714 Z-0.0088
G1 X4.7619 Y-0.5703 Z-0.0097
G1 X4.7627 Y-0.5689 Z-0.01
G1 X4.7647 Y-0.5655
G1 X4.7652 Y-0.5641
G1 X4.7651 Y-0.5625
G1 X4.7644 Y-0.5612
G1 X4.7632 Y-0.5602
G1 X4.7143 Y-0.5319 F10.
G1 X4.7075 Y-0.528 F2.5
G1 Y-0.6488 F10.
G1 Y-0.6567 F2.5
G1 X4.8121 Y-0.5963 F10.
G1 X4.8189 Y-0.5923 F2.5
G1 X4.7632 Y-0.5602 F10.
G1 X4.7618 Y-0.5597
G1 X4.7602 Y-0.5598
G1 X4.7589 Y-0.5604
G1 X4.7579 Y-0.5616
G1 X4.7559 Y-0.565
G1 X4.7551 Y-0.5663 Z-0.0097
G1 X4.7545 Y-0.5674 Z-0.0088
G1 X4.7541 Y-0.5682 Z-0.0076
G1 X4.7539 Y-0.5684 Z-0.0061
G1 Z0.4539
G1 X4.11 Y-0.5632
G1 Z0.2976
G1 Z0.1055 F13.333
G1 Z0.0622
G1 X4.1102 Y-0.563 Z0.0607 F6.
G1 X4.1108 Y-0.5624 Z0.0594
G1 X4.1117 Y-0.5615 Z0.0585
G1 X4.1128 Y-0.5605 Z0.0582
G1 X4.1156 Y-0.5577
G1 X4.1164 Y-0.5564
G1 X4.1167 Y-0.5549
G1 X4.1164 Y-0.5534
G1 X4.1156 Y-0.5521
G1 X4.0809 Y-0.5175 F10.
G1 X4.0754 Y-0.5119 F2.5
G1 X4.0005 Y-0.5868 F10.
G1 X3.9949 Y-0.5923 F2.5
G1 X4.0698 Y-0.6672 F10.
G1 X4.0754 Y-0.6728 F2.5
G1 X4.1502 Y-0.5979 F10.
G1 X4.1558 Y-0.5923 F2.5
G1 X4.1156 Y-0.5521 F10.
G1 X4.1143 Y-0.5513
G1 X4.1128 Y-0.551
G1 X4.1113 Y-0.5513
G1 X4.11 Y-0.5521
G1 X4.1072 Y-0.5549
G1 X4.1062 Y-0.556 Z0.0585
G1 X4.1052 Y-0.5569 Z0.0594
G1 X4.1046 Y-0.5575 Z0.0607
G1 X4.1044 Y-0.5577 Z0.0622
G1 X4.11 Y-0.5632
G1 Z0.0228 F13.333
G1 X4.1102 Y-0.563 Z0.0213 F6.
G1 X4.1108 Y-0.5624 Z0.02
G1 X4.1117 Y-0.5615 Z0.0192
G1 X4.1128 Y-0.5605 Z0.0189
G1 X4.1156 Y-0.5577
G1 X4.1164 Y-0.5564
G1 X4.1167 Y-0.5549
G1 X4.1164 Y-0.5534
G1 X4.1156 Y-0.5521
G1 X4.0809 Y-0.5175 F10.
G1 X4.0754 Y-0.5119 F2.5
G1 X4.0005 Y-0.5868 F10.
G1 X3.9949 Y-0.5923 F2.5
G1 X4.0698 Y-0.6672 F10.
G1 X4.0754 Y-0.6728 F2.5
G1 X4.1502 Y-0.5979 F10.
G1 X4.1558 Y-0.5923 F2.5
G1 X4.1156 Y-0.5521 F10.
G1 X4.1143 Y-0.5513
G1 X4.1128 Y-0.551
G1 X4.1113 Y-0.5513
G1 X4.11 Y-0.5521
G1 X4.1072 Y-0.5549
G1 X4.1062 Y-0.556 Z0.0192
G1 X4.1052 Y-0.5569 Z0.02
G1 X4.1046 Y-0.5575 Z0.0213
G1 X4.1044 Y-0.5577 Z0.0228
G1 X4.11 Y-0.5632
G1 Z-0.0061 F13.333
G1 X4.1102 Y-0.563 Z-0.0076 F6.
G1 X4.1108 Y-0.5624 Z-0.0088
G1 X4.1117 Y-0.5615 Z-0.0097
G1 X4.1128 Y-0.5605 Z-0.01
G1 X4.1156 Y-0.5577
G1 X4.1164 Y-0.5564
G1 X4.1167 Y-0.5549
G1 X4.1164 Y-0.5534
G1 X4.1156 Y-0.5521
G1 X4.0809 Y-0.5175 F10.
G1 X4.0754 Y-0.5119 F2.5
G1 X4.0005 Y-0.5868 F10.
G1 X3.9949 Y-0.5923 F2.5
G1 X4.0698 Y-0.6672 F10.
G1 X4.0754 Y-0.6728 F2.5
G1 X4.1502 Y-0.5979 F10.
G1 X4.1558 Y-0.5923 F2.5
G1 X4.1156 Y-0.5521 F10.
G1 X4.1143 Y-0.5513
G1 X4.1128 Y-0.551
G1 X4.1113 Y-0.5513
G1 X4.11 Y-0.5521
G1 X4.1072 Y-0.5549
G1 X4.1062 Y-0.556 Z-0.0097
G1 X4.1052 Y-0.5569 Z-0.0088
G1 X4.1046 Y-0.5575 Z-0.0076
G1 X4.1044 Y-0.5577 Z-0.0061
G1 Z0.4539
G1 X3.4596 Y-0.636
G1 Z0.2976
G1 Z0.1055 F13.333
G1 Z0.0622
G1 X3.4598 Y-0.6362 Z0.0607 F6.
G1 X3.4605 Y-0.6367 Z0.0594
G1 X3.4615 Y-0.6375 Z0.0585
G1 X3.4627 Y-0.6384 Z0.0582
G1 X3.4659 Y-0.6407
G1 X3.4673 Y-0.6413
G1 X3.4689 Y-0.6414
G1 X3.4703 Y-0.6408
G1 X3.4714 Y-0.6398
G1 X3.5013 Y-0.5987 F10.
G1 X3.5059 Y-0.5923 F2.5
G1 X3.4416 Y-0.5037 F10.
G1 X3.4369 Y-0.4974 F2.5
G1 X3.3328 Y-0.5312 F10.
G1 X3.3253 Y-0.5336 F2.5
G1 Y-0.6431 F10.
G1 Y-0.651 F2.5
G1 X3.4294 Y-0.6849 F10.
G1 X3.4369 Y-0.6873 F2.5
G1 X3.4714 Y-0.6398 F10.
G1 X3.4721 Y-0.6384
G1 Y-0.6369
G1 X3.4716 Y-0.6354
G1 X3.4706 Y-0.6343
G1 X3.4674 Y-0.632
G1 X3.4662 Y-0.6311 Z0.0585
G1 X3.4651 Y-0.6304 Z0.0594
G1 X3.4644 Y-0.6299 Z0.0607
G1 X3.4642 Y-0.6297 Z0.0622
G1 X3.4596 Y-0.636
G1 Z0.0228 F13.333
G1 X3.4598 Y-0.6362 Z0.0213 F6.
G1 X3.4605 Y-0.6367 Z0.02
G1 X3.4615 Y-0.6375 Z0.0192
G1 X3.4627 Y-0.6384 Z0.0189
G1 X3.4659 Y-0.6407
G1 X3.4673 Y-0.6413
G1 X3.4689 Y-0.6414
G1 X3.4703 Y-0.6408
G1 X3.4714 Y-0.6398
G1 X3.5013 Y-0.5987 F10.
G1 X3.5059 Y-0.5923 F2.5
G1 X3.4416 Y-0.5037 F10.
G1 X3.4369 Y-0.4974 F2.5
G1 X3.3328 Y-0.5312 F10.
G1 X3.3253 Y-0.5336 F2.5
G1 Y-0.6431 F10.
G1 Y-0.651 F2.5
G1 X3.4294 Y-0.6849 F10.
G1 X3.4369 Y-0.6873 F2.5
G1 X3.4714 Y-0.6398 F10.
G1 X3.4721 Y-0.6384
G1 Y-0.6369
G1 X3.4716 Y-0.6354
G1 X3.4706 Y-0.6343
G1 X3.4674 Y-0.632
G1 X3.4662 Y-0.6311 Z0.0192
G1 X3.4651 Y-0.6304 Z0.02
G1 X3.4644 Y-0.6299 Z0.0213
G1 X3.4642 Y-0.6297 Z0.0228
G1 X3.4596 Y-0.636
G1 Z-0.0061 F13.333
G1 X3.4598 Y-0.6362 Z-0.0076 F6.
G1 X3.4605 Y-0.6367 Z-0.0088
G1 X3.4615 Y-0.6375 Z-0.0097
G1 X3.4627 Y-0.6384 Z-0.01
G1 X3.4659 Y-0.6407
G1 X3.4673 Y-0.6413
G1 X3.4689 Y-0.6414
G1 X3.4703 Y-0.6408
G1 X3.4714 Y-0.6398
G1 X3.5013 Y-0.5987 F10.
G1 X3.5059 Y-0.5923 F2.5
G1 X3.4416 Y-0.5037 F10.
G1 X3.4369 Y-0.4974 F2.5
G1 X3.3328 Y-0.5312 F10.
G1 X3.3253 Y-0.5336 F2.5
G1 Y-0.6431 F10.
G1 Y-0.651 F2.5
G1 X3.4294 Y-0.6849 F10.
G1 X3.4369 Y-0.6873 F2.5
G1 X3.4714 Y-0.6398 F10.
G1 X3.4721 Y-0.6384
G1 Y-0.6369
G1 X3.4716 Y-0.6354
G1 X3.4706 Y-0.6343
G1 X3.4674 Y-0.632
G1 X3.4662 Y-0.6311 Z-0.0097
G1 X3.4651 Y-0.6304 Z-0.0088
G1 X3.4644 Y-0.6299 Z-0.0076
G1 X3.4642 Y-0.6297 Z-0.0061
G1 Z0.4539
G1 X2.7328 Y-0.6888
G1 Z0.2976
G1 Z0.1055 F13.333
G1 Z0.0622
G1 Y-0.6891 Z0.0607 F6.
G1 Y-0.6899 Z0.0594
G1 Y-0.6912 Z0.0585
G1 Y-0.6927 Z0.0582
G1 Y-0.6967
G1 X2.7331 Y-0.6982
G1 X2.734 Y-0.6994
G1 X2.7353 Y-0.7003
G1 X2.7368 Y-0.7006
G1 X2.7914 F10.
G1 X2.7993 F2.5
G1 X2.8579 Y-0.5991 F10.
G1 X2.8618 Y-0.5923 F2.5
G1 X2.8032 Y-0.4909 F10.
G1 X2.7993 Y-0.4841 F2.5
G1 X2.6821 F10.
G1 X2.6743 F2.5
G1 X2.6157 Y-0.5855 F10.
G1 X2.6118 Y-0.5923 F2.5
G1 X2.6703 Y-0.6938 F10.
G1 X2.6743 Y-0.7006 F2.5
G1 X2.7368 F10.
G1 X2.7383 Y-0.7003
G1 X2.7396 Y-0.6994
G1 X2.7404 Y-0.6982
G1 X2.7407 Y-0.6967
G1 Y-0.6927
G1 Y-0.6912 Z0.0585
G1 Y-0.6899 Z0.0594
G1 Y-0.6891 Z0.0607
G1 Y-0.6888 Z0.0622
G1 X2.7328
G1 Z0.0228 F13.333
G1 Y-0.6891 Z0.0213 F6.
G1 Y-0.6899 Z0.02
G1 Y-0.6912 Z0.0192
G1 Y-0.6927 Z0.0189
G1 Y-0.6967
G1 X2.7331 Y-0.6982
G1 X2.734 Y-0.6994
G1 X2.7353 Y-0.7003
G1 X2.7368 Y-0.7006
G1 X2.7914 F10.
G1 X2.7993 F2.5
G1 X2.8579 Y-0.5991 F10.
G1 X2.8618 Y-0.5923 F2.5
G1 X2.8032 Y-0.4909 F10.
G1 X2.7993 Y-0.4841 F2.5
G1 X2.6821 F10.
G1 X2.6743 F2.5
G1 X2.6157 Y-0.5855 F10.
G1 X2.6118 Y-0.5923 F2.5
G1 X2.6703 Y-0.6938 F10.
G1 X2.6743 Y-0.7006 F2.5
G1 X2.7368 F10.
G1 X2.7383 Y-0.7003
G1 X2.7396 Y-0.6994
G1 X2.7404 Y-0.6982
G1 X2.7407 Y-0.6967
G1 Y-0.6927
G1 Y-0.6912 Z0.0192
G1 Y-0.6899 Z0.02
G1 Y-0.6891 Z0.0213
G1 Y-0.6888 Z0.0228
G1 X2.7328
G1 Z-0.0061 F13.333
G1 Y-0.6891 Z-0.0076 F6.
G1 Y-0.6899 Z-0.0088
G1 Y-0.6912 Z-0.0097
G1 Y-0.6927 Z-0.01
G1 Y-0.6967
G1 X2.7331 Y-0.6982
G1 X2.734 Y-0.6994
G1 X2.7353 Y-0.7003
G1 X2.7368 Y-0.7006
G1 X2.7914 F10.
G1 X2.7993 F2.5
G1 X2.8579 Y-0.5991 F10.
G1 X2.8618 Y-0.5923 F2.5
G1 X2.8032 Y-0.4909 F10.
G1 X2.7993 Y-0.4841 F2.5
G1 X2.6821 F10.
G1 X2.6743 F2.5
G1 X2.6157 Y-0.5855 F10.
G1 X2.6118 Y-0.5923 F2.5
G1 X2.6703 Y-0.6938 F10.
G1 X2.6743 Y-0.7006 F2.5
G1 X2.7368 F10.
G1 X2.7383 Y-0.7003
G1 X2.7396 Y-0.6994
G1 X2.7404 Y-0.6982
G1 X2.7407 Y-0.6967
G1 Y-0.6927
G1 Y-0.6912 Z-0.0097
G1 Y-0.6899 Z-0.0088
G1 Y-0.6891 Z-0.0076
G1 Y-0.6888 Z-0.0061
G1 Z0.4539
G1 X2.1521 Y-0.6375
G1 Z0.2976
G1 Z0.1055 F13.333
G1 Z0.0622
G1 X2.1524 Y-0.6376 Z0.0607 F6.
G1 X2.1532 Y-0.638 Z0.0594
G1 X2.1543 Y-0.6385 Z0.0585
G1 X2.1557 Y-0.6392 Z0.0582
G1 X2.1592 Y-0.6409
G1 X2.1607 Y-0.6413
G1 X2.1622 Y-0.641
G1 X2.1636 Y-0.6403
G1 X2.1645 Y-0.639
G1 X2.1836 Y-0.5994 F10.
G1 X2.187 Y-0.5923 F2.5
G1 X2.1454 Y-0.506 F10.
G1 X2.142 Y-0.4989 F2.5
G1 X2.0486 Y-0.4776 F10.
G1 X2.0409 Y-0.4758 F2.5
G1 X1.966 Y-0.5356 F10.
G1 X1.9598 Y-0.5405 F2.5
G1 Y-0.6363 F10.
G1 Y-0.6442 F2.5
G1 X2.0347 Y-0.7039 F10.
G1 X2.0409 Y-0.7088 F2.5
G1 X2.1343 Y-0.6875 F10.
G1 X2.142 Y-0.6857 F2.5
G1 X2.1645 Y-0.639 F10.
G1 X2.1649 Y-0.6375
G1 X2.1647 Y-0.636
G1 X2.1639 Y-0.6347
G1 X2.1626 Y-0.6338
G1 X2.1591 Y-0.6321
G1 X2.1577 Y-0.6314 Z0.0585
G1 X2.1566 Y-0.6309 Z0.0594
G1 X2.1558 Y-0.6305 Z0.0607
G1 X2.1555 Y-0.6304 Z0.0622
G1 X2.1521 Y-0.6375
G1 Z0.0228 F13.333
G1 X2.1524 Y-0.6376 Z0.0213 F6.
G1 X2.1532 Y-0.638 Z0.02
G1 X2.1543 Y-0.6385 Z0.0192
G1 X2.1557 Y-0.6392 Z0.0189
G1 X2.1592 Y-0.6409
G1 X2.1607 Y-0.6413
G1 X2.1622 Y-0.641
G1 X2.1636 Y-0.6403
G1 X2.1645 Y-0.639
G1 X2.1836 Y-0.5994 F10.
G1 X2.187 Y-0.5923 F2.5
G1 X2.1454 Y-0.506 F10.
G1 X2.142 Y-0.4989 F2.5
G1 X2.0486 Y-0.4776 F10.
G1 X2.0409 Y-0.4758 F2.5
G1 X1.966 Y-0.5356 F10.
G1 X1.9598 Y-0.5405 F2.5
G1 Y-0.6363 F10.
G1 Y-0.6442 F2.5
G1 X2.0347 Y-0.7039 F10.
G1 X2.0409 Y-0.7088 F2.5
G1 X2.1343 Y-0.6875 F10.
G1 X2.142 Y-0.6857 F2.5
G1 X2.1645 Y-0.639 F10.
G1 X2.1649 Y-0.6375
G1 X2.1647 Y-0.636
G1 X2.1639 Y-0.6347
G1 X2.1626 Y-0.6338
G1 X2.1591 Y-0.6321
G1 X2.1577 Y-0.6314 Z0.0192
G1 X2.1566 Y-0.6309 Z0.02
G1 X2.1558 Y-0.6305 Z0.0213
G1 X2.1555 Y-0.6304 Z0.0228
G1 X2.1521 Y-0.6375
G1 Z-0.0061 F13.333
G1 X2.1524 Y-0.6376 Z-0.0076 F6.
G1 X2.1532 Y-0.638 Z-0.0088
G1 X2.1543 Y-0.6385 Z-0.0097
G1 X2.1557 Y-0.6392 Z-0.01
G1 X2.1592 Y-0.6409
G1 X2.1607 Y-0.6413
G1 X2.1622 Y-0.641
G1 X2.1636 Y-0.6403
G1 X2.1645 Y-0.639
G1 X2.1836 Y-0.5994 F10.
G1 X2.187 Y-0.5923 F2.5
G1 X2.1454 Y-0.506 F10.
G1 X2.142 Y-0.4989 F2.5
G1 X2.0486 Y-0.4776 F10.
G1 X2.0409 Y-0.4758 F2.5
G1 X1.966 Y-0.5356 F10.
G1 X1.9598 Y-0.5405 F2.5
G1 Y-0.6363 F10.
G1 Y-0.6442 F2.5
G1 X2.0347 Y-0.7039 F10.
G1 X2.0409 Y-0.7088 F2.5
G1 X2.1343 Y-0.6875 F10.
G1 X2.142 Y-0.6857 F2.5
G1 X2.1645 Y-0.639 F10.
G1 X2.1649 Y-0.6375
G1 X2.1647 Y-0.636
G1 X2.1639 Y-0.6347
G1 X2.1626 Y-0.6338
G1 X2.1591 Y-0.6321
G1 X2.1577 Y-0.6314 Z-0.0097
G1 X2.1566 Y-0.6309 Z-0.0088
G1 X2.1558 Y-0.6305 Z-0.0076
G1 X2.1555 Y-0.6304 Z-0.0061
G1 Z0.4539
G1 X1.4966 Y-0.5558
G1 Z0.2976
G1 Z0.1055 F13.333
G1 Z0.0622
G1 X1.4969 Y-0.5557 Z0.0607 F6.
G1 X1.4977 Y-0.5554 Z0.0594
G1 X1.4989 Y-0.5549 Z0.0585
G1 X1.5003 Y-0.5543 Z0.0582
G1 X1.5039 Y-0.5528
G1 X1.5052 Y-0.552
G1 X1.506 Y-0.5507
G1 X1.5063 Y-0.5492
G1 X1.506 Y-0.5477
G1 X1.4905 Y-0.5103 F10.
G1 X1.4875 Y-0.503 F2.5
G1 X1.4055 Y-0.469 F10.
G1 X1.3982 Y-0.466 F2.5
G1 X1.3161 Y-0.5 F10.
G1 X1.3089 Y-0.503 F2.5
G1 X1.2749 Y-0.585 F10.
G1 X1.2719 Y-0.5923 F2.5
G1 X1.3059 Y-0.6744 F10.
G1 X1.3089 Y-0.6817 F2.5
G1 X1.3909 Y-0.7156 F10.
G1 X1.3982 Y-0.7187 F2.5
G1 X1.4802 Y-0.6847 F10.
G1 X1.4875 Y-0.6817 F2.5
G1 X1.5215 Y-0.5996 F10.
G1 X1.5245 Y-0.5923 F2.5
G1 X1.506 Y-0.5477 F10.
G1 X1.5052 Y-0.5464
G1 X1.5039 Y-0.5455
G1 X1.5024 Y-0.5452
G1 X1.5009 Y-0.5455
G1 X1.4972 Y-0.547
G1 X1.4959 Y-0.5476 Z0.0585
G1 X1.4947 Y-0.5481 Z0.0594
G1 X1.4939 Y-0.5484 Z0.0607
G1 X1.4936 Y-0.5485 Z0.0622
G1 X1.4966 Y-0.5558
G1 Z0.0228 F13.333
G1 X1.4969 Y-0.5557 Z0.0213 F6.
G1 X1.4977 Y-0.5554 Z0.02
G1 X1.4989 Y-0.5549 Z0.0192
G1 X1.5003 Y-0.5543 Z0.0189
G1 X1.5039 Y-0.5528
G1 X1.5052 Y-0.552
G1 X1.506 Y-0.5507
G1 X1.5063 Y-0.5492
G1 X1.506 Y-0.5477
G1 X1.4905 Y-0.5103 F10.
G1 X1.4875 Y-0.503 F2.5
G1 X1.4055 Y-0.469 F10.
G1 X1.3982 Y-0.466 F2.5
G1 X1.3161 Y-0.5 F10.
G1 X1.3089 Y-0.503 F2.5
G1 X1.2749 Y-0.585 F10.
G1 X1.2719 Y-0.5923 F2.5
G1 X1.3059 Y-0.6744 F10.
G1 X1.3089 Y-0.6817 F2.5
G1 X1.3909 Y-0.7156 F10.
G1 X1.3982 Y-0.7187 F2.5
G1 X1.4802 Y-0.6847 F10.
G1 X1.4875 Y-0.6817 F2.5
G1 X1.5215 Y-0.5996 F10.
G1 X1.5245 Y-0.5923 F2.5
G1 X1.506 Y-0.5477 F10.
G1 X1.5052 Y-0.5464
G1 X1.5039 Y-0.5455
G1 X1.5024 Y-0.5452
G1 X1.5009 Y-0.5455
G1 X1.4972 Y-0.547
G1 X1.4959 Y-0.5476 Z0.0192
G1 X1.4947 Y-0.5481 Z0.02
G1 X1.4939 Y-0.5484 Z0.0213
G1 X1.4936 Y-0.5485 Z0.0228
G1 X1.4966 Y-0.5558
G1 Z-0.0061 F13.333
G1 X1.4969 Y-0.5557 Z-0.0076 F6.
G1 X1.4977 Y-0.5554 Z-0.0088
G1 X1.4989 Y-0.5549 Z-0.0097
G1 X1.5003 Y-0.5543 Z-0.01
G1 X1.5039 Y-0.5528
G1 X1.5052 Y-0.552
G1 X1.506 Y-0.5507
G1 X1.5063 Y-0.5492
G1 X1.506 Y-0.5477
G1 X1.4905 Y-0.5103 F10.
G1 X1.4875 Y-0.503 F2.5
G1 X1.4055 Y-0.469 F10.
G1 X1.3982 Y-0.466 F2.5
G1 X1.3161 Y-0.5 F10.
G1 X1.3089 Y-0.503 F2.5
G1 X1.2749 Y-0.585 F10.
G1 X1.2719 Y-0.5923 F2.5
G1 X1.3059 Y-0.6744 F10.
G1 X1.3089 Y-0.6817 F2.5
G1 X1.3909 Y-0.7156 F10.
G1 X1.3982 Y-0.7187 F2.5
G1 X1.4802 Y-0.6847 F10.
G1 X1.4875 Y-0.6817 F2.5
G1 X1.5215 Y-0.5996 F10.
G1 X1.5245 Y-0.5923 F2.5
G1 X1.506 Y-0.5477 F10.
G1 X1.5052 Y-0.5464
G1 X1.5039 Y-0.5455
G1 X1.5024 Y-0.5452
G1 X1.5009 Y-0.5455
G1 X1.4972 Y-0.547
G1 X1.4959 Y-0.5476 Z-0.0097
G1 X1.4947 Y-0.5481 Z-0.0088
G1 X1.4939 Y-0.5484 Z-0.0076
G1 X1.4936 Y-0.5485 Z-0.0061
G1 Z0.4539
G1 X1.2701 Y-1.4368
G1 Z0.2976
G1 Z0.1055 F13.333
G1 Z0.0622
G1 X1.2704 Z0.0607 F6.
G1 X1.2712 Z0.0594
G1 X1.2725 Z0.0585
G1 X1.274 Z0.0582
G1 X1.2779
G1 X1.2794 Y-1.4365
G1 X1.2807 Y-1.4357
G1 X1.2816 Y-1.4344
G1 X1.2819 Y-1.4329
G1 Y-1.3764 F10.
G1 Y-1.3685 F2.5
G1 X1.1773 Y-1.4289 F10.
G1 X1.1704 Y-1.4329 F2.5
G1 X1.275 Y-1.4933 F10.
G1 X1.2819 Y-1.4972 F2.5
G1 Y-1.4329 F10.
G1 X1.2816 Y-1.4314
G1 X1.2807 Y-1.4301
G1 X1.2794 Y-1.4292
G1 X1.2779 Y-1.4289
G1 X1.274
G1 X1.2725 Z0.0585
G1 X1.2712 Z0.0594
G1 X1.2704 Z0.0607
G1 X1.2701 Z0.0622
G1 Y-1.4368
G1 Z0.0228 F13.333
G1 X1.2704 Z0.0213 F6.
G1 X1.2712 Z0.02
G1 X1.2725 Z0.0192
G1 X1.274 Z0.0189
G1 X1.2779
G1 X1.2794 Y-1.4365
G1 X1.2807 Y-1.4357
G1 X1.2816 Y-1.4344
G1 X1.2819 Y-1.4329
G1 Y-1.3764 F10.
G1 Y-1.3685 F2.5
G1 X1.1773 Y-1.4289 F10.
G1 X1.1704 Y-1.4329 F2.5
G1 X1.275 Y-1.4933 F10.
G1 X1.2819 Y-1.4972 F2.5
G1 Y-1.4329 F10.
G1 X1.2816 Y-1.4314
G1 X1.2807 Y-1.4301
G1 X1.2794 Y-1.4292
G1 X1.2779 Y-1.4289
G1 X1.274
G1 X1.2725 Z0.0192
G1 X1.2712 Z0.02
G1 X1.2704 Z0.0213
G1 X1.2701 Z0.0228
G1 Y-1.4368
G1 Z-0.0061 F13.333
G1 X1.2704 Z-0.0076 F6.
G1 X1.2712 Z-0.0088
G1 X1.2725 Z-0.0097
G1 X1.274 Z-0.01
G1 X1.2779
G1 X1.2794 Y-1.4365
G1 X1.2807 Y-1.4357
G1 X1.2816 Y-1.4344
G1 X1.2819 Y-1.4329
G1 Y-1.3764 F10.
G1 Y-1.3685 F2.5
G1 X1.1773 Y-1.4289 F10.
G1 X1.1704 Y-1.4329 F2.5
G1 X1.275 Y-1.4933 F10.
G1 X1.2819 Y-1.4972 F2.5
G1 Y-1.4329 F10.
G1 X1.2816 Y-1.4314
G1 X1.2807 Y-1.4301
G1 X1.2794 Y-1.4292
G1 X1.2779 Y-1.4289
G1 X1.274
G1 X1.2725 Z-0.0097
G1 X1.2712 Z-0.0088
G1 X1.2704 Z-0.0076
G1 X1.2701 Z-0.0061
G1 Z0.4539
G1 X1.9431 Y-1.4675
G1 Z0.2976
G1 Z0.1055 F13.333
G1 Z0.0622
G1 X1.9433 Y-1.4677 Z0.0607 F6.
G1 X1.9439 Y-1.4683 Z0.0594
G1 X1.9448 Y-1.4692 Z0.0585
G1 X1.9459 Y-1.4703 Z0.0582
G1 X1.9487 Y-1.4731
G1 X1.9499 Y-1.4739
G1 X1.9514 Y-1.4742
G1 X1.9529 Y-1.4739
G1 X1.9542 Y-1.4731
G1 X1.9889 Y-1.4384 F10.
G1 X1.9944 Y-1.4329 F2.5
G1 X1.9196 Y-1.358 F10.
G1 X1.914 Y-1.3524 F2.5
G1 X1.8392 Y-1.4273 F10.
G1 X1.8336 Y-1.4329 F2.5
G1 X1.9084 Y-1.5077 F10.
G1 X1.914 Y-1.5133 F2.5
G1 X1.9542 Y-1.4731 F10.
G1 X1.9551 Y-1.4718
G1 X1.9554 Y-1.4703
G1 X1.9551 Y-1.4688
G1 X1.9542 Y-1.4675
G1 X1.9514 Y-1.4647
G1 X1.9504 Y-1.4637 Z0.0585
G1 X1.9495 Y-1.4628 Z0.0594
G1 X1.9489 Y-1.4622 Z0.0607
G1 X1.9487 Y-1.462 Z0.0622
G1 X1.9431 Y-1.4675
G1 Z0.0228 F13.333
G1 X1.9433 Y-1.4677 Z0.0213 F6.
G1 X1.9439 Y-1.4683 Z0.02
G1 X1.9448 Y-1.4692 Z0.0192
G1 X1.9459 Y-1.4703 Z0.0189
G1 X1.9487 Y-1.4731
G1 X1.9499 Y-1.4739
G1 X1.9514 Y-1.4742
G1 X1.9529 Y-1.4739
G1 X1.9542 Y-1.4731
G1 X1.9889 Y-1.4384 F10.
G1 X1.9944 Y-1.4329 F2.5
G1 X1.9196 Y-1.358 F10.
G1 X1.914 Y-1.3524 F2.5
G1 X1.8392 Y-1.4273 F10.
G1 X1.8336 Y-1.4329 F2.5
G1 X1.9084 Y-1.5077 F10.
G1 X1.914 Y-1.5133 F2.5
G1 X1.9542 Y-1.4731 F10.
G1 X1.9551 Y-1.4718
G1 X1.9554 Y-1.4703
G1 X1.9551 Y-1.4688
G1 X1.9542 Y-1.4675
G1 X1.9514 Y-1.4647
G1 X1.9504 Y-1.4637 Z0.0192
G1 X1.9495 Y-1.4628 Z0.02
G1 X1.9489 Y-1.4622 Z0.0213
G1 X1.9487 Y-1.462 Z0.0228
G1 X1.9431 Y-1.4675
G1 Z-0.0061 F13.333
G1 X1.9433 Y-1.4677 Z-0.0076 F6.
G1 X1.9439 Y-1.4683 Z-0.0088
G1 X1.9448 Y-1.4692 Z-0.0097
G1 X1.9459 Y-1.4703 Z-0.01
G1 X1.9487 Y-1.4731
G1 X1.9499 Y-1.4739
G1 X1.9514 Y-1.4742
G1 X1.9529 Y-1.4739
G1 X1.9542 Y-1.4731
G1 X1.9889 Y-1.4384 F10.
G1 X1.9944 Y-1.4329 F2.5
G1 X1.9196 Y-1.358 F10.
G1 X1.914 Y-1.3524 F2.5
G1 X1.8392 Y-1.4273 F10.
G1 X1.8336 Y-1.4329 F2.5
G1 X1.9084 Y-1.5077 F10.
G1 X1.914 Y-1.5133 F2.5
G1 X1.9542 Y-1.4731 F10.
G1 X1.9551 Y-1.4718
G1 X1.9554 Y-1.4703
G1 X1.9551 Y-1.4688
G1 X1.9542 Y-1.4675
G1 X1.9514 Y-1.4647
G1 X1.9504 Y-1.4637 Z-0.0097
G1 X1.9495 Y-1.4628 Z-0.0088
G1 X1.9489 Y-1.4622 Z-0.0076
G1 X1.9487 Y-1.462 Z-0.0061
G1 Z0.4539
G1 X2.6523 Y-1.4368
G1 Z0.2976
G1 Z0.1055 F13.333
G1 Z0.0622
G1 X2.6526 Z0.0607 F6.
G1 X2.6534 Z0.0594
G1 X2.6547 Z0.0585
G1 X2.6562 Z0.0582
G1 X2.6601
G1 X2.6617 Y-1.4365
G1 X2.6629 Y-1.4357
G1 X2.6638 Y-1.4344
G1 X2.6641 Y-1.4329
G1 Y-1.3821 F10.
G1 Y-1.3742 F2.5
G1 X2.5599 Y-1.3403 F10.
G1 X2.5524 Y-1.3379 F2.5
G1 X2.4881 Y-1.4265 F10.
G1 X2.4834 Y-1.4329 F2.5
G1 X2.5478 Y-1.5215 F10.
G1 X2.5524 Y-1.5278 F2.5
G1 X2.6566 Y-1.494 F10.
G1 X2.6641 Y-1.4916 F2.5
G1 Y-1.4329 F10.
G1 X2.6638 Y-1.4314
G1 X2.6629 Y-1.4301
G1 X2.6617 Y-1.4292
G1 X2.6601 Y-1.4289
G1 X2.6562
G1 X2.6547 Z0.0585
G1 X2.6534 Z0.0594
G1 X2.6526 Z0.0607
G1 X2.6523 Z0.0622
G1 Y-1.4368
G1 Z0.0228 F13.333
G1 X2.6526 Z0.0213 F6.
G1 X2.6534 Z0.02
G1 X2.6547 Z0.0192
G1 X2.6562 Z0.0189
G1 X2.6601
G1 X2.6617 Y-1.4365
G1 X2.6629 Y-1.4357
G1 X2.6638 Y-1.4344
G1 X2.6641 Y-1.4329
G1 Y-1.3821 F10.
G1 Y-1.3742 F2.5
G1 X2.5599 Y-1.3403 F10.
G1 X2.5524 Y-1.3379 F2.5
G1 X2.4881 Y-1.4265 F10.
G1 X2.4834 Y-1.4329 F2.5
G1 X2.5478 Y-1.5215 F10.
G1 X2.5524 Y-1.5278 F2.5
G1 X2.6566 Y-1.494 F10.
G1 X2.6641 Y-1.4916 F2.5
G1 Y-1.4329 F10.
G1 X2.6638 Y-1.4314
G1 X2.6629 Y-1.4301
G1 X2.6617 Y-1.4292
G1 X2.6601 Y-1.4289
G1 X2.6562
G1 X2.6547 Z0.0192
G1 X2.6534 Z0.02
G1 X2.6526 Z0.0213
G1 X2.6523 Z0.0228
G1 Y-1.4368
G1 Z-0.0061 F13.333
G1 X2.6526 Z-0.0076 F6.
G1 X2.6534 Z-0.0088
G1 X2.6547 Z-0.0097
G1 X2.6562 Z-0.01
G1 X2.6601
G1 X2.6617 Y-1.4365
G1 X2.6629 Y-1.4357
G1 X2.6638 Y-1.4344
G1 X2.6641 Y-1.4329
G1 Y-1.3821 F10.
G1 Y-1.3742 F2.5
G1 X2.5599 Y-1.3403 F10.
G1 X2.5524 Y-1.3379 F2.5
G1 X2.4881 Y-1.4265 F10.
G1 X2.4834 Y-1.4329 F2.5
G1 X2.5478 Y-1.5215 F10.
G1 X2.5524 Y-1.5278 F2.5
G1 X2.6566 Y-1.494 F10.
G1 X2.6641 Y-1.4916 F2.5
G1 Y-1.4329 F10.
G1 X2.6638 Y-1.4314
G1 X2.6629 Y-1.4301
G1 X2.6617 Y-1.4292
G1 X2.6601 Y-1.4289
G1 X2.6562
G1 X2.6547 Z-0.0097
G1 X2.6534 Z-0.0088
G1 X2.6526 Z-0.0076
G1 X2.6523 Z-0.0061
G1 Z0.8539
M5 M9

G30
M30
%
